; LightBurn 1.7.06
; GRBL device profile, absolute coords
; Bounds: X46.75 Y100 to X253.25 Y200
G00 G17 G40 G21 G54
G90
M4
; Cut @ 600 mm/min, 95% power
M9
G0 X87.75Y100
; Layer VirtArray
G1 Y109.5S950F600
G0 X87.75Y109.5
G1 X74.25Y123
G0 X74.25Y123
G1 Y133.5
G0 X74.25Y133.5
G1 X64.75Y143
G0 X64.75Y143
G1 Y152.5
G0 X64.75Y152.5
G1 X60.25Y157
G0 X60.25Y157
G1 Y170.5
G0 X60.25Y170.5
G1 X50.75Y180
G0 X50.75Y180
G1 Y191.5
G0 X50.75Y191.5
G1 X46.75Y195.5
G0 X46.75Y195.5
G1 Y200
G0 X46.75Y200
G1 X250.75
G0 X250.75Y200
G1 X251.006Y199.987
G1 X251.254Y199.949
G1 X251.493Y199.888
G1 X251.723Y199.804
G1 X252.148Y199.573
G1 X252.518Y199.268
G1 X252.823Y198.898
G1 X253.054Y198.473
G1 X253.138Y198.243
G1 X253.199Y198.004
G1 X253.237Y197.756
G1 X253.25Y197.5
G0 X253.25Y197.5
G1 Y102.5
G0 X253.25Y102.5
G1 X253.237Y102.244
G1 X253.199Y101.996
G1 X253.138Y101.757
G1 X253.054Y101.527
G1 X252.823Y101.102
G1 X252.518Y100.732
G1 X252.148Y100.427
G1 X251.723Y100.196
G1 X251.493Y100.112
G1 X251.254Y100.051
G1 X251.006Y100.013
G1 X250.75Y100
G0 X250.75Y100
G1 X87.75
G0 X88.502Y123.202
G1 X88.813Y122.948
G1 X89.157Y122.767
G1 X89.524Y122.658
G1 X89.902Y122.622
G1 X90.28Y122.658
G1 X90.647Y122.767
G1 X90.992Y122.948
G1 X91.302Y123.202
G1 X91.556Y123.512
G1 X91.737Y123.857
G1 X91.846Y124.223
G1 X91.882Y124.602
G1 X91.846Y124.98
G1 X91.737Y125.347
G1 X91.556Y125.691
G1 X91.302Y126.002
G0 X91.302Y126.002
G0 X91.302Y126.002
G1 X89.28Y128.024
G0 X89.28Y128.024
G1 X89.502Y128.501
G1 X89.683Y128.989
G1 X89.824Y129.484
G1 X89.923Y129.986
G1 X89.983Y130.49
G1 X90.003Y130.996
G1 X89.984Y131.501
G1 X89.926Y132.002
G1 X89.829Y132.497
G1 X89.694Y132.983
G1 X89.522Y133.459
G1 X89.311Y133.922
G1 X89.064Y134.37
G1 X88.78Y134.799
G1 X88.46Y135.209
G1 X88.103Y135.596
G1 X87.717Y135.953
G1 X87.308Y136.274
G1 X86.879Y136.559
G1 X86.432Y136.807
G1 X85.97Y137.018
G1 X85.494Y137.192
G1 X85.008Y137.328
G1 X84.513Y137.426
G1 X84.012Y137.485
G1 X83.508Y137.505
G1 X83.002Y137.486
G1 X82.497Y137.427
G1 X81.995Y137.328
G1 X81.499Y137.189
G1 X81.011Y137.009
G1 X80.534Y136.788
G0 X80.534Y136.788
G1 X80.516
G0 X80.534Y136.77
G1 X78.502Y138.802
G0 X78.502Y138.802
G1 X78.192Y139.055
G1 X77.847Y139.235
G1 X77.481Y139.344
G1 X77.103Y139.38
G1 X76.725Y139.343
G1 X76.358Y139.235
G1 X76.014Y139.053
G1 X75.704Y138.8
G1 X75.451Y138.49
G1 X75.269Y138.145
G1 X75.161Y137.779
G1 X75.124Y137.401
G1 X75.16Y137.023
G1 X75.268Y136.657
G1 X75.449Y136.312
G1 X75.702Y136.002
G0 X75.702Y136.002
G1 X77.726Y133.978
G0 X77.729Y128.012
G1 X77.712
G0 X77.712Y128.012
G1 X76.402Y126.702
G0 X76.402Y126.702
G1 X76.149Y126.391
G1 X75.968Y126.047
G1 X75.86Y125.68
G1 X75.824Y125.302
G1 X75.861Y124.924
G1 X75.969Y124.558
G1 X76.151Y124.214
G1 X76.404Y123.903
G1 X76.714Y123.65
G1 X77.058Y123.469
G1 X77.425Y123.36
G1 X77.803Y123.323
G1 X78.181Y123.359
G1 X78.547Y123.468
G1 X78.892Y123.648
G1 X79.202Y123.902
G0 X79.202Y123.902
G1 X80.514Y125.214
G0 X80.514Y125.214
G1 Y125.229
G0 X80.514Y125.229
G1 X81.228Y124.912
G1 X81.967Y124.685
G1 X82.722Y124.549
G1 X83.486Y124.502
G1 X84.25Y124.545
G1 X85.006Y124.678
G1 X85.745Y124.901
G1 X86.461Y125.214
G0 X86.461Y125.214
G1 X86.49
G0 X86.49Y125.214
G1 X88.502Y123.202
G0 X86.481Y125.223
G0 X89.28Y128.024
G0 X95.402Y126.702
G1 X95.149Y126.391
G1 X94.968Y126.047
G1 X94.86Y125.68
G1 X94.824Y125.302
G1 X94.861Y124.924
G1 X94.969Y124.558
G1 X95.151Y124.214
G1 X95.404Y123.903
G1 X95.714Y123.65
G1 X96.058Y123.469
G1 X96.425Y123.36
G1 X96.803Y123.323
G1 X97.181Y123.359
G1 X97.547Y123.468
G1 X97.892Y123.648
G1 X98.202Y123.902
G0 X98.202Y123.902
G1 X99.514Y125.214
G0 X99.514Y125.214
G1 Y125.229
G0 X99.514Y125.229
G1 X100.228Y124.912
G1 X100.967Y124.685
G1 X101.722Y124.549
G1 X102.486Y124.502
G1 X103.25Y124.545
G1 X104.006Y124.678
G1 X104.745Y124.901
G1 X105.461Y125.214
G0 X105.461Y125.214
G1 X105.49
G0 X105.49Y125.214
G1 X107.502Y123.202
G0 X107.502Y123.202
G1 X107.813Y122.948
G1 X108.157Y122.767
G1 X108.524Y122.658
G1 X108.902Y122.622
G1 X109.28Y122.658
G1 X109.647Y122.767
G1 X109.992Y122.948
G1 X110.302Y123.202
G1 X110.556Y123.512
G1 X110.737Y123.857
G1 X110.846Y124.223
G1 X110.882Y124.602
G1 X110.846Y124.98
G1 X110.737Y125.347
G1 X110.556Y125.691
G1 X110.302Y126.002
G0 X110.302Y126.002
G0 X110.302Y126.002
G1 X108.28Y128.024
G0 X108.28Y128.024
G1 X108.502Y128.501
G1 X108.683Y128.989
G1 X108.824Y129.484
G1 X108.923Y129.986
G1 X108.983Y130.49
G1 X109.003Y130.996
G1 X108.984Y131.501
G1 X108.926Y132.002
G1 X108.829Y132.497
G1 X108.694Y132.983
G1 X108.522Y133.459
G1 X108.311Y133.922
G1 X108.064Y134.37
G1 X107.78Y134.799
G1 X107.46Y135.209
G1 X107.103Y135.596
G1 X106.717Y135.953
G1 X106.308Y136.274
G1 X105.879Y136.559
G1 X105.432Y136.807
G1 X104.97Y137.018
G1 X104.494Y137.192
G1 X104.008Y137.328
G1 X103.513Y137.426
G1 X103.012Y137.485
G1 X102.508Y137.505
G1 X102.002Y137.486
G1 X101.497Y137.427
G1 X100.995Y137.328
G1 X100.499Y137.189
G1 X100.011Y137.009
G1 X99.534Y136.788
G0 X99.534Y136.788
G1 X99.516
G0 X99.534Y136.77
G1 X97.502Y138.802
G0 X97.502Y138.802
G1 X97.192Y139.055
G1 X96.847Y139.235
G1 X96.481Y139.344
G1 X96.103Y139.38
G1 X95.725Y139.343
G1 X95.358Y139.235
G1 X95.014Y139.053
G1 X94.704Y138.8
G1 X94.451Y138.49
G1 X94.269Y138.145
G1 X94.161Y137.779
G1 X94.124Y137.401
G1 X94.16Y137.023
G1 X94.268Y136.657
G1 X94.449Y136.312
G1 X94.702Y136.002
G0 X94.702Y136.002
G1 X96.726Y133.978
G0 X96.729Y128.012
G1 X96.712
G0 X96.712Y128.012
G1 X95.402Y126.702
G0 X96.729Y128.012
G1 X96.411Y128.729
G1 X96.183Y129.472
G1 X96.046Y130.232
G1 X96Y131
G1 X96.045Y131.768
G1 X96.181Y132.528
G1 X96.408Y133.271
G1 X96.726Y133.989
G0 X98.002Y142.202
G1 X98.313Y141.948
G1 X98.657Y141.767
G1 X99.024Y141.658
G1 X99.402Y141.622
G1 X99.78Y141.658
G1 X100.147Y141.767
G1 X100.492Y141.948
G1 X100.802Y142.202
G1 X101.056Y142.512
G1 X101.237Y142.857
G1 X101.346Y143.223
G1 X101.382Y143.602
G1 X101.346Y143.98
G1 X101.237Y144.347
G1 X101.056Y144.691
G1 X100.802Y145.002
G0 X100.802Y145.002
G0 X100.802Y145.002
G1 X98.78Y147.024
G0 X98.78Y147.024
G1 X99.002Y147.501
G1 X99.183Y147.989
G1 X99.324Y148.484
G1 X99.423Y148.986
G1 X99.483Y149.49
G1 X99.503Y149.996
G1 X99.484Y150.501
G1 X99.426Y151.002
G1 X99.329Y151.497
G1 X99.194Y151.983
G1 X99.022Y152.459
G1 X98.811Y152.922
G1 X98.564Y153.37
G1 X98.28Y153.799
G1 X97.96Y154.209
G1 X97.603Y154.596
G1 X97.217Y154.953
G1 X96.808Y155.274
G1 X96.379Y155.559
G1 X95.932Y155.807
G1 X95.47Y156.018
G1 X94.994Y156.192
G1 X94.508Y156.328
G1 X94.013Y156.426
G1 X93.512Y156.485
G1 X93.008Y156.505
G1 X92.502Y156.486
G1 X91.997Y156.427
G1 X91.495Y156.328
G1 X90.999Y156.189
G1 X90.511Y156.009
G1 X90.034Y155.788
G0 X90.034Y155.788
G1 X90.016
G0 X90.034Y155.77
G1 X88.002Y157.802
G0 X88.002Y157.802
G1 X87.692Y158.055
G1 X87.347Y158.235
G1 X86.981Y158.344
G1 X86.603Y158.38
G1 X86.225Y158.343
G1 X85.858Y158.235
G1 X85.514Y158.053
G1 X85.204Y157.8
G1 X84.951Y157.49
G1 X84.769Y157.145
G1 X84.661Y156.779
G1 X84.624Y156.401
G1 X84.66Y156.023
G1 X84.768Y155.657
G1 X84.949Y155.312
G1 X85.202Y155.002
G0 X85.202Y155.002
G1 X87.226Y152.978
G0 X87.229Y147.012
G1 X87.212
G0 X87.212Y147.012
G1 X85.902Y145.702
G0 X85.902Y145.702
G1 X85.649Y145.391
G1 X85.468Y145.047
G1 X85.36Y144.68
G1 X85.324Y144.302
G1 X85.361Y143.924
G1 X85.469Y143.558
G1 X85.651Y143.214
G1 X85.904Y142.903
G1 X86.214Y142.65
G1 X86.558Y142.469
G1 X86.925Y142.36
G1 X87.303Y142.323
G1 X87.681Y142.359
G1 X88.047Y142.468
G1 X88.392Y142.648
G1 X88.702Y142.902
G0 X88.702Y142.902
G1 X90.014Y144.214
G0 X90.014Y144.214
G1 Y144.229
G0 X90.014Y144.229
G1 X90.728Y143.912
G1 X91.467Y143.685
G1 X92.222Y143.549
G1 X92.986Y143.502
G1 X93.75Y143.545
G1 X94.506Y143.678
G1 X95.245Y143.901
G1 X95.961Y144.214
G0 X95.961Y144.214
G1 X95.99
G0 X95.99Y144.214
G1 X98.002Y142.202
G0 X95.981Y144.223
G0 X98.78Y147.024
G0 X104.902Y145.702
G1 X104.649Y145.391
G1 X104.468Y145.047
G1 X104.36Y144.68
G1 X104.324Y144.302
G1 X104.361Y143.924
G1 X104.469Y143.558
G1 X104.651Y143.214
G1 X104.904Y142.903
G1 X105.214Y142.65
G1 X105.558Y142.469
G1 X105.925Y142.36
G1 X106.303Y142.323
G1 X106.681Y142.359
G1 X107.047Y142.468
G1 X107.392Y142.648
G1 X107.702Y142.902
G0 X107.702Y142.902
G1 X109.014Y144.214
G0 X109.014Y144.214
G1 Y144.229
G0 X109.014Y144.229
G1 X109.728Y143.912
G1 X110.467Y143.685
G1 X111.222Y143.549
G1 X111.986Y143.502
G1 X112.75Y143.545
G1 X113.506Y143.678
G1 X114.245Y143.901
G1 X114.961Y144.214
G0 X114.961Y144.214
G1 X114.99
G0 X114.99Y144.214
G1 X117.002Y142.202
G0 X117.002Y142.202
G1 X117.313Y141.948
G1 X117.657Y141.767
G1 X118.024Y141.658
G1 X118.402Y141.622
G1 X118.78Y141.658
G1 X119.147Y141.767
G1 X119.492Y141.948
G1 X119.802Y142.202
G1 X120.056Y142.512
G1 X120.237Y142.857
G1 X120.346Y143.223
G1 X120.382Y143.602
G1 X120.346Y143.98
G1 X120.237Y144.347
G1 X120.056Y144.691
G1 X119.802Y145.002
G0 X119.802Y145.002
G0 X119.802Y145.002
G1 X117.78Y147.024
G0 X117.78Y147.024
G1 X118.002Y147.501
G1 X118.183Y147.989
G1 X118.324Y148.484
G1 X118.423Y148.986
G1 X118.483Y149.49
G1 X118.503Y149.996
G1 X118.484Y150.501
G1 X118.426Y151.002
G1 X118.329Y151.497
G1 X118.194Y151.983
G1 X118.022Y152.459
G1 X117.811Y152.922
G1 X117.564Y153.37
G1 X117.28Y153.799
G1 X116.96Y154.209
G1 X116.603Y154.596
G1 X116.217Y154.953
G1 X115.808Y155.274
G1 X115.379Y155.559
G1 X114.932Y155.807
G1 X114.47Y156.018
G1 X113.994Y156.192
G1 X113.508Y156.328
G1 X113.013Y156.426
G1 X112.512Y156.485
G1 X112.008Y156.505
G1 X111.502Y156.486
G1 X110.997Y156.427
G1 X110.495Y156.328
G1 X109.999Y156.189
G1 X109.511Y156.009
G1 X109.034Y155.788
G0 X109.034Y155.788
G1 X109.016
G0 X109.034Y155.77
G1 X107.002Y157.802
G0 X107.002Y157.802
G1 X106.692Y158.055
G1 X106.347Y158.235
G1 X105.981Y158.344
G1 X105.603Y158.38
G1 X105.225Y158.343
G1 X104.858Y158.235
G1 X104.514Y158.053
G1 X104.204Y157.8
G1 X103.951Y157.49
G1 X103.769Y157.145
G1 X103.661Y156.779
G1 X103.624Y156.401
G1 X103.66Y156.023
G1 X103.768Y155.657
G1 X103.949Y155.312
G1 X104.202Y155.002
G0 X104.202Y155.002
G1 X106.226Y152.978
G0 X106.229Y147.012
G1 X106.212
G0 X106.212Y147.012
G1 X104.902Y145.702
G0 X106.229Y147.012
G1 X105.911Y147.729
G1 X105.683Y148.472
G1 X105.546Y149.232
G1 X105.5Y150
G1 X105.545Y150.768
G1 X105.681Y151.528
G1 X105.908Y152.271
G1 X106.226Y152.989
G0 X112.252Y161.202
G1 X112.563Y160.948
G1 X112.907Y160.767
G1 X113.274Y160.658
G1 X113.652Y160.622
G1 X114.03Y160.658
G1 X114.397Y160.767
G1 X114.742Y160.948
G1 X115.052Y161.202
G1 X115.306Y161.512
G1 X115.487Y161.857
G1 X115.596Y162.223
G1 X115.632Y162.602
G1 X115.596Y162.98
G1 X115.487Y163.347
G1 X115.306Y163.691
G1 X115.052Y164.002
G0 X115.052Y164.002
G0 X115.052Y164.002
G1 X113.03Y166.024
G0 X113.03Y166.024
G1 X113.252Y166.501
G1 X113.433Y166.989
G1 X113.574Y167.484
G1 X113.673Y167.986
G1 X113.733Y168.49
G1 X113.753Y168.996
G1 X113.734Y169.501
G1 X113.676Y170.002
G1 X113.579Y170.497
G1 X113.444Y170.983
G1 X113.272Y171.459
G1 X113.061Y171.922
G1 X112.814Y172.37
G1 X112.53Y172.799
G1 X112.21Y173.209
G1 X111.853Y173.596
G1 X111.467Y173.953
G1 X111.058Y174.274
G1 X110.629Y174.559
G1 X110.182Y174.807
G1 X109.72Y175.018
G1 X109.244Y175.192
G1 X108.758Y175.328
G1 X108.263Y175.426
G1 X107.762Y175.485
G1 X107.258Y175.505
G1 X106.752Y175.486
G1 X106.247Y175.427
G1 X105.745Y175.328
G1 X105.249Y175.189
G1 X104.761Y175.009
G1 X104.284Y174.788
G0 X104.284Y174.788
G1 X104.266
G0 X104.284Y174.77
G1 X102.252Y176.802
G0 X102.252Y176.802
G1 X101.942Y177.055
G1 X101.597Y177.237
G1 X101.23Y177.345
G1 X100.852Y177.382
G1 X100.474Y177.345
G1 X100.107Y177.237
G1 X99.763Y177.055
G1 X99.452Y176.802
G1 X99.199Y176.491
G1 X99.017Y176.147
G1 X98.909Y175.78
G1 X98.872Y175.402
G1 X98.909Y175.023
G1 X99.017Y174.657
G1 X99.199Y174.312
G1 X99.452Y174.002
G0 X99.452Y174.002
G1 X101.476Y171.978
G0 X101.479Y166.012
G1 X101.462
G0 X101.462Y166.012
G1 X100.152Y164.702
G0 X100.152Y164.702
G1 X99.899Y164.391
G1 X99.718Y164.047
G1 X99.61Y163.68
G1 X99.574Y163.302
G1 X99.611Y162.924
G1 X99.719Y162.558
G1 X99.901Y162.214
G1 X100.154Y161.903
G1 X100.464Y161.65
G1 X100.808Y161.469
G1 X101.175Y161.36
G1 X101.553Y161.323
G1 X101.931Y161.359
G1 X102.297Y161.468
G1 X102.642Y161.648
G1 X102.952Y161.902
G0 X102.952Y161.902
G1 X104.264Y163.214
G0 X104.264Y163.214
G1 Y163.229
G0 X104.264Y163.229
G1 X104.978Y162.912
G1 X105.717Y162.685
G1 X106.472Y162.549
G1 X107.236Y162.502
G1 X108Y162.545
G1 X108.756Y162.678
G1 X109.495Y162.901
G1 X110.211Y163.214
G0 X110.211Y163.214
G1 X110.24
G0 X110.24Y163.214
G1 X112.252Y161.202
G0 X110.231Y163.223
G0 X113.03Y166.024
G0 X119.152Y164.702
G1 X118.899Y164.391
G1 X118.718Y164.047
G1 X118.61Y163.68
G1 X118.574Y163.302
G1 X118.611Y162.924
G1 X118.719Y162.558
G1 X118.901Y162.214
G1 X119.154Y161.903
G1 X119.464Y161.65
G1 X119.808Y161.469
G1 X120.175Y161.36
G1 X120.553Y161.323
G1 X120.931Y161.359
G1 X121.297Y161.468
G1 X121.642Y161.648
G1 X121.952Y161.902
G0 X121.952Y161.902
G1 X123.264Y163.214
G0 X123.264Y163.214
G1 Y163.229
G0 X123.264Y163.229
G1 X123.978Y162.912
G1 X124.717Y162.685
G1 X125.472Y162.549
G1 X126.236Y162.502
G1 X127Y162.545
G1 X127.756Y162.678
G1 X128.495Y162.901
G1 X129.211Y163.214
G0 X129.211Y163.214
G1 X129.24
G0 X129.24Y163.214
G1 X131.252Y161.202
G0 X131.252Y161.202
G1 X131.563Y160.948
G1 X131.907Y160.767
G1 X132.274Y160.658
G1 X132.652Y160.622
G1 X133.03Y160.658
G1 X133.397Y160.767
G1 X133.742Y160.948
G1 X134.052Y161.202
G1 X134.306Y161.512
G1 X134.487Y161.857
G1 X134.596Y162.223
G1 X134.632Y162.602
G1 X134.596Y162.98
G1 X134.487Y163.347
G1 X134.306Y163.691
G1 X134.052Y164.002
G0 X134.052Y164.002
G0 X134.052Y164.002
G1 X132.03Y166.024
G0 X132.03Y166.024
G1 X132.252Y166.501
G1 X132.433Y166.989
G1 X132.573Y167.484
G1 X132.673Y167.986
G1 X132.733Y168.49
G1 X132.753Y168.996
G1 X132.734Y169.501
G1 X132.676Y170.002
G1 X132.579Y170.497
G1 X132.444Y170.983
G1 X132.272Y171.459
G1 X132.061Y171.922
G1 X131.814Y172.37
G1 X131.53Y172.799
G1 X131.21Y173.209
G1 X130.853Y173.596
G1 X130.467Y173.953
G1 X130.058Y174.274
G1 X129.629Y174.559
G1 X129.182Y174.807
G1 X128.72Y175.018
G1 X128.244Y175.192
G1 X127.758Y175.328
G1 X127.263Y175.426
G1 X126.762Y175.485
G1 X126.258Y175.505
G1 X125.752Y175.486
G1 X125.247Y175.427
G1 X124.745Y175.328
G1 X124.249Y175.189
G1 X123.761Y175.009
G1 X123.284Y174.788
G0 X123.284Y174.788
G1 X123.266
G0 X123.284Y174.77
G1 X121.252Y176.802
G0 X121.252Y176.802
G1 X120.942Y177.055
G1 X120.597Y177.237
G1 X120.23Y177.345
G1 X119.852Y177.382
G1 X119.474Y177.345
G1 X119.107Y177.237
G1 X118.763Y177.055
G1 X118.452Y176.802
G1 X118.199Y176.491
G1 X118.017Y176.147
G1 X117.909Y175.78
G1 X117.872Y175.402
G1 X117.909Y175.023
G1 X118.017Y174.657
G1 X118.199Y174.312
G1 X118.452Y174.002
G0 X118.452Y174.002
G1 X120.476Y171.978
G0 X120.479Y166.012
G1 X120.462
G0 X120.462Y166.012
G1 X119.152Y164.702
G0 X120.479Y166.012
G1 X120.161Y166.729
G1 X119.933Y167.472
G1 X119.796Y168.232
G1 X119.75Y169
G1 X119.795Y169.768
G1 X119.931Y170.528
G1 X120.158Y171.271
G1 X120.476Y171.989
G0 X121.752Y180.202
G1 X122.063Y179.948
G1 X122.407Y179.767
G1 X122.774Y179.659
G1 X123.152Y179.622
G1 X123.53Y179.659
G1 X123.897Y179.767
G1 X124.241Y179.949
G1 X124.552Y180.202
G1 X124.805Y180.513
G1 X124.986Y180.857
G1 X125.095Y181.224
G1 X125.132Y181.602
G1 X125.095Y181.98
G1 X124.987Y182.347
G1 X124.806Y182.691
G1 X124.552Y183.002
G0 X124.552Y183.002
G0 X124.552Y183.002
G1 X122.53Y185.024
G0 X122.53Y185.024
G1 X122.752Y185.501
G1 X122.933Y185.989
G1 X123.074Y186.484
G1 X123.173Y186.986
G1 X123.233Y187.49
G1 X123.253Y187.996
G1 X123.234Y188.501
G1 X123.176Y189.002
G1 X123.079Y189.497
G1 X122.944Y189.983
G1 X122.772Y190.459
G1 X122.561Y190.922
G1 X122.314Y191.37
G1 X122.03Y191.799
G1 X121.71Y192.209
G1 X121.353Y192.596
G1 X120.967Y192.953
G1 X120.558Y193.274
G1 X120.129Y193.559
G1 X119.682Y193.807
G1 X119.22Y194.018
G1 X118.744Y194.192
G1 X118.258Y194.328
G1 X117.763Y194.426
G1 X117.262Y194.485
G1 X116.758Y194.505
G1 X116.252Y194.486
G1 X115.747Y194.427
G1 X115.245Y194.328
G1 X114.749Y194.189
G1 X114.261Y194.009
G1 X113.784Y193.788
G0 X113.784Y193.788
G1 X113.766
G0 X113.784Y193.77
G1 X111.752Y195.802
G0 X111.752Y195.802
G1 X111.442Y196.055
G1 X111.097Y196.237
G1 X110.73Y196.345
G1 X110.352Y196.382
G1 X109.974Y196.345
G1 X109.607Y196.237
G1 X109.263Y196.055
G1 X108.952Y195.802
G1 X108.699Y195.491
G1 X108.517Y195.147
G1 X108.409Y194.78
G1 X108.372Y194.402
G1 X108.409Y194.023
G1 X108.517Y193.657
G1 X108.699Y193.312
G1 X108.952Y193.002
G0 X108.952Y193.002
G1 X110.976Y190.978
G0 X110.979Y185.012
G1 X110.962
G0 X110.962Y185.012
G1 X109.652Y183.702
G0 X109.652Y183.702
G1 X109.399Y183.391
G1 X109.218Y183.047
G1 X109.109Y182.68
G1 X109.073Y182.302
G1 X109.109Y181.924
G1 X109.218Y181.557
G1 X109.399Y181.213
G1 X109.653Y180.902
G1 X109.963Y180.649
G1 X110.308Y180.467
G1 X110.674Y180.359
G1 X111.053Y180.322
G1 X111.431Y180.359
G1 X111.797Y180.467
G1 X112.142Y180.648
G1 X112.452Y180.902
G0 X112.452Y180.902
G1 X113.764Y182.214
G0 X113.764Y182.214
G1 Y182.229
G0 X113.764Y182.229
G1 X114.478Y181.912
G1 X115.217Y181.685
G1 X115.972Y181.549
G1 X116.736Y181.502
G1 X117.5Y181.545
G1 X118.256Y181.678
G1 X118.995Y181.901
G1 X119.711Y182.214
G0 X119.711Y182.214
G1 X119.74
G0 X119.74Y182.214
G1 X121.752Y180.202
G0 X119.731Y182.223
G0 X122.53Y185.024
G0 X128.652Y183.702
G1 X128.399Y183.391
G1 X128.218Y183.047
G1 X128.109Y182.68
G1 X128.073Y182.302
G1 X128.109Y181.924
G1 X128.218Y181.557
G1 X128.399Y181.213
G1 X128.653Y180.902
G1 X128.963Y180.649
G1 X129.308Y180.467
G1 X129.674Y180.359
G1 X130.053Y180.322
G1 X130.431Y180.359
G1 X130.797Y180.467
G1 X131.142Y180.648
G1 X131.452Y180.902
G0 X131.452Y180.902
G1 X132.764Y182.214
G0 X132.764Y182.214
G1 Y182.229
G0 X132.764Y182.229
G1 X133.478Y181.912
G1 X134.217Y181.685
G1 X134.972Y181.549
G1 X135.736Y181.502
G1 X136.5Y181.545
G1 X137.256Y181.678
G1 X137.995Y181.901
G1 X138.711Y182.214
G0 X138.711Y182.214
G1 X138.74
G0 X138.74Y182.214
G1 X140.752Y180.202
G0 X140.752Y180.202
G1 X141.063Y179.948
G1 X141.407Y179.767
G1 X141.774Y179.659
G1 X142.152Y179.622
G1 X142.53Y179.659
G1 X142.897Y179.767
G1 X143.241Y179.949
G1 X143.552Y180.202
G1 X143.805Y180.513
G1 X143.986Y180.857
G1 X144.095Y181.224
G1 X144.132Y181.602
G1 X144.095Y181.98
G1 X143.987Y182.347
G1 X143.806Y182.691
G1 X143.552Y183.002
G0 X143.552Y183.002
G0 X143.552Y183.002
G1 X141.53Y185.024
G0 X141.53Y185.024
G1 X141.752Y185.501
G1 X141.933Y185.989
G1 X142.073Y186.484
G1 X142.173Y186.986
G1 X142.233Y187.49
G1 X142.253Y187.996
G1 X142.234Y188.501
G1 X142.176Y189.002
G1 X142.079Y189.497
G1 X141.944Y189.983
G1 X141.772Y190.459
G1 X141.561Y190.922
G1 X141.314Y191.37
G1 X141.03Y191.799
G1 X140.71Y192.209
G1 X140.353Y192.596
G1 X139.967Y192.953
G1 X139.558Y193.274
G1 X139.129Y193.559
G1 X138.682Y193.807
G1 X138.22Y194.018
G1 X137.744Y194.192
G1 X137.258Y194.328
G1 X136.763Y194.426
G1 X136.262Y194.485
G1 X135.758Y194.505
G1 X135.252Y194.486
G1 X134.747Y194.427
G1 X134.245Y194.328
G1 X133.749Y194.189
G1 X133.261Y194.009
G1 X132.784Y193.788
G0 X132.784Y193.788
G1 X132.766
G0 X132.784Y193.77
G1 X130.752Y195.802
G0 X130.752Y195.802
G1 X130.442Y196.055
G1 X130.097Y196.237
G1 X129.73Y196.345
G1 X129.352Y196.382
G1 X128.974Y196.345
G1 X128.607Y196.237
G1 X128.263Y196.055
G1 X127.952Y195.802
G1 X127.699Y195.491
G1 X127.517Y195.147
G1 X127.409Y194.78
G1 X127.372Y194.402
G1 X127.409Y194.023
G1 X127.517Y193.657
G1 X127.699Y193.312
G1 X127.952Y193.002
G0 X127.952Y193.002
G1 X129.976Y190.978
G0 X129.979Y185.012
G1 X129.962
G0 X129.962Y185.012
G1 X128.652Y183.702
G0 X129.979Y185.012
G1 X129.661Y185.729
G1 X129.433Y186.472
G1 X129.296Y187.232
G1 X129.25Y188
G1 X129.295Y188.768
G1 X129.431Y189.528
G1 X129.658Y190.271
G1 X129.976Y190.989
G0 X141.53Y185.024
G0 X138.731Y182.224
G0 X140.252Y176.802
G1 X139.942Y177.055
G1 X139.597Y177.237
G1 X139.23Y177.345
G1 X138.852Y177.382
G1 X138.474Y177.345
G1 X138.107Y177.237
G1 X137.763Y177.055
G1 X137.452Y176.802
G1 X137.199Y176.491
G1 X137.017Y176.147
G1 X136.909Y175.78
G1 X136.872Y175.402
G1 X136.909Y175.023
G1 X137.017Y174.657
G1 X137.199Y174.312
G1 X137.452Y174.002
G0 X137.452Y174.002
G1 X139.476Y171.978
G0 X142.284Y174.77
G1 X140.252Y176.802
G0 X142.266Y174.788
G1 X142.284
G0 X142.284Y174.788
G1 X142.761Y175.009
G1 X143.249Y175.189
G1 X143.745Y175.328
G1 X144.247Y175.427
G1 X144.752Y175.486
G1 X145.258Y175.505
G1 X145.762Y175.485
G1 X146.263Y175.426
G1 X146.758Y175.328
G1 X147.244Y175.192
G1 X147.72Y175.018
G1 X148.182Y174.807
G1 X148.629Y174.559
G1 X149.058Y174.274
G1 X149.467Y173.953
G1 X149.853Y173.596
G1 X150.21Y173.209
G1 X150.53Y172.799
G1 X150.814Y172.37
G1 X151.061Y171.922
G1 X151.272Y171.459
G1 X151.444Y170.983
G1 X151.579Y170.497
G1 X151.676Y170.002
G1 X151.734Y169.501
G1 X151.753Y168.996
G1 X151.733Y168.49
G1 X151.673Y167.986
G1 X151.573Y167.484
G1 X151.433Y166.989
G1 X151.252Y166.501
G1 X151.03Y166.024
G0 X151.03Y166.024
G1 X153.052Y164.002
G0 X153.052Y164.002
G0 X153.052Y164.002
G1 X153.306Y163.691
G1 X153.487Y163.347
G1 X153.596Y162.98
G1 X153.632Y162.602
G1 X153.596Y162.223
G1 X153.487Y161.857
G1 X153.306Y161.512
G1 X153.052Y161.202
G1 X152.742Y160.948
G1 X152.397Y160.767
G1 X152.03Y160.658
G1 X151.652Y160.622
G1 X151.274Y160.658
G1 X150.907Y160.767
G1 X150.563Y160.948
G1 X150.252Y161.202
G0 X150.252Y161.202
G1 X148.24Y163.214
G0 X148.24Y163.214
G1 X148.211
G0 X148.231Y163.223
G0 X151.03Y166.024
G0 X157.152Y164.702
G1 X156.899Y164.391
G1 X156.718Y164.047
G1 X156.61Y163.68
G1 X156.574Y163.302
G1 X156.611Y162.924
G1 X156.719Y162.558
G1 X156.901Y162.214
G1 X157.154Y161.903
G1 X157.464Y161.65
G1 X157.808Y161.469
G1 X158.175Y161.36
G1 X158.553Y161.323
G1 X158.931Y161.359
G1 X159.297Y161.468
G1 X159.642Y161.648
G1 X159.952Y161.902
G0 X159.952Y161.902
G1 X161.264Y163.214
G0 X161.264Y163.214
G1 Y163.229
G0 X161.264Y163.229
G1 X161.978Y162.912
G1 X162.717Y162.685
G1 X163.472Y162.549
G1 X164.236Y162.502
G1 X165Y162.545
G1 X165.756Y162.678
G1 X166.495Y162.901
G1 X167.211Y163.214
G0 X167.211Y163.214
G1 X167.24
G0 X167.24Y163.214
G1 X169.252Y161.202
G0 X169.252Y161.202
G1 X169.563Y160.948
G1 X169.907Y160.768
G1 X170.274Y160.659
G1 X170.652Y160.623
G1 X171.03Y160.66
G1 X171.396Y160.769
G1 X171.74Y160.95
G1 X172.051Y161.203
G1 X172.304Y161.514
G1 X172.485Y161.858
G1 X172.594Y162.224
G1 X172.63Y162.602
G1 X172.594Y162.98
G1 X172.486Y163.347
G1 X172.305Y163.691
G1 X172.052Y164.002
G0 X172.052Y164.002
G0 X172.052Y164.002
G1 X170.03Y166.024
G0 X170.03Y166.024
G1 X170.252Y166.501
G1 X170.433Y166.989
G1 X170.573Y167.484
G1 X170.673Y167.986
G1 X170.733Y168.49
G1 X170.753Y168.996
G1 X170.734Y169.501
G1 X170.676Y170.002
G1 X170.579Y170.497
G1 X170.444Y170.983
G1 X170.272Y171.459
G1 X170.061Y171.922
G1 X169.814Y172.37
G1 X169.53Y172.799
G1 X169.21Y173.209
G1 X168.853Y173.596
G1 X168.467Y173.953
G1 X168.058Y174.274
G1 X167.629Y174.559
G1 X167.182Y174.807
G1 X166.72Y175.018
G1 X166.244Y175.192
G1 X165.758Y175.328
G1 X165.263Y175.426
G1 X164.762Y175.485
G1 X164.258Y175.505
G1 X163.752Y175.486
G1 X163.247Y175.427
G1 X162.745Y175.328
G1 X162.249Y175.189
G1 X161.761Y175.009
G1 X161.284Y174.788
G0 X161.284Y174.788
G1 X161.266
G0 X161.284Y174.77
G1 X159.252Y176.802
G0 X159.252Y176.802
G1 X158.942Y177.055
G1 X158.597Y177.237
G1 X158.23Y177.345
G1 X157.852Y177.382
G1 X157.474Y177.345
G1 X157.107Y177.237
G1 X156.763Y177.055
G1 X156.452Y176.802
G1 X156.199Y176.491
G1 X156.017Y176.147
G1 X155.909Y175.78
G1 X155.872Y175.402
G1 X155.909Y175.023
G1 X156.017Y174.657
G1 X156.199Y174.312
G1 X156.452Y174.002
G0 X156.452Y174.002
G1 X158.476Y171.978
G0 X158.479Y166.012
G1 X158.462
G0 X158.462Y166.012
G1 X157.152Y164.702
G0 X158.479Y166.012
G1 X158.161Y166.729
G1 X157.933Y167.472
G1 X157.796Y168.232
G1 X157.75Y169
G1 X157.795Y169.768
G1 X157.931Y170.528
G1 X158.158Y171.271
G1 X158.476Y171.989
G0 X159.752Y180.202
G1 X160.063Y179.948
G1 X160.407Y179.767
G1 X160.774Y179.659
G1 X161.152Y179.622
G1 X161.53Y179.659
G1 X161.897Y179.767
G1 X162.241Y179.949
G1 X162.552Y180.202
G1 X162.805Y180.513
G1 X162.986Y180.857
G1 X163.095Y181.224
G1 X163.132Y181.602
G1 X163.095Y181.98
G1 X162.987Y182.347
G1 X162.806Y182.691
G1 X162.552Y183.002
G0 X162.552Y183.002
G0 X162.552Y183.002
G1 X160.53Y185.024
G0 X160.53Y185.024
G1 X160.752Y185.501
G1 X160.933Y185.989
G1 X161.073Y186.484
G1 X161.173Y186.986
G1 X161.233Y187.49
G1 X161.253Y187.996
G1 X161.234Y188.501
G1 X161.176Y189.002
G1 X161.079Y189.497
G1 X160.944Y189.983
G1 X160.772Y190.459
G1 X160.561Y190.922
G1 X160.314Y191.37
G1 X160.03Y191.799
G1 X159.71Y192.209
G1 X159.353Y192.596
G1 X158.967Y192.953
G1 X158.558Y193.274
G1 X158.129Y193.559
G1 X157.682Y193.807
G1 X157.22Y194.018
G1 X156.744Y194.192
G1 X156.258Y194.328
G1 X155.763Y194.426
G1 X155.262Y194.485
G1 X154.758Y194.505
G1 X154.252Y194.486
G1 X153.747Y194.427
G1 X153.245Y194.328
G1 X152.749Y194.189
G1 X152.261Y194.009
G1 X151.784Y193.788
G0 X151.784Y193.788
G1 X151.766
G0 X151.784Y193.77
G1 X149.752Y195.802
G0 X149.752Y195.802
G1 X149.442Y196.055
G1 X149.097Y196.237
G1 X148.73Y196.345
G1 X148.352Y196.382
G1 X147.974Y196.345
G1 X147.607Y196.237
G1 X147.263Y196.055
G1 X146.952Y195.802
G1 X146.699Y195.491
G1 X146.517Y195.147
G1 X146.409Y194.78
G1 X146.372Y194.402
G1 X146.409Y194.023
G1 X146.517Y193.657
G1 X146.699Y193.312
G1 X146.952Y193.002
G0 X146.952Y193.002
G1 X148.976Y190.978
G0 X148.979Y185.012
G1 X148.962
G0 X148.962Y185.012
G1 X147.652Y183.702
G0 X147.652Y183.702
G1 X147.399Y183.391
G1 X147.218Y183.047
G1 X147.109Y182.68
G1 X147.073Y182.302
G1 X147.109Y181.924
G1 X147.218Y181.557
G1 X147.399Y181.213
G1 X147.653Y180.902
G1 X147.963Y180.649
G1 X148.308Y180.467
G1 X148.674Y180.359
G1 X149.053Y180.322
G1 X149.431Y180.359
G1 X149.797Y180.467
G1 X150.142Y180.648
G1 X150.452Y180.902
G0 X150.452Y180.902
G1 X151.764Y182.214
G0 X151.764Y182.214
G1 Y182.229
G0 X151.764Y182.229
G1 X152.478Y181.912
G1 X153.217Y181.685
G1 X153.972Y181.549
G1 X154.736Y181.502
G1 X155.5Y181.545
G1 X156.256Y181.678
G1 X156.995Y181.901
G1 X157.711Y182.214
G0 X157.711Y182.214
G1 X157.74
G0 X157.74Y182.214
G1 X159.752Y180.202
G0 X157.731Y182.223
G0 X160.53Y185.024
G0 X166.652Y183.702
G1 X166.399Y183.391
G1 X166.218Y183.047
G1 X166.109Y182.68
G1 X166.073Y182.302
G1 X166.109Y181.924
G1 X166.218Y181.557
G1 X166.399Y181.213
G1 X166.653Y180.902
G1 X166.963Y180.649
G1 X167.308Y180.467
G1 X167.674Y180.359
G1 X168.053Y180.322
G1 X168.431Y180.359
G1 X168.797Y180.467
G1 X169.142Y180.648
G1 X169.452Y180.902
G0 X169.452Y180.902
G1 X170.764Y182.214
G0 X170.764Y182.214
G1 Y182.229
G0 X170.764Y182.229
G1 X171.478Y181.912
G1 X172.217Y181.685
G1 X172.972Y181.549
G1 X173.736Y181.502
G1 X174.5Y181.545
G1 X175.256Y181.678
G1 X175.995Y181.901
G1 X176.711Y182.214
G0 X176.711Y182.214
G1 X176.74
G0 X176.74Y182.214
G1 X178.752Y180.202
G0 X178.752Y180.202
G1 X179.063Y179.948
G1 X179.407Y179.767
G1 X179.774Y179.659
G1 X180.152Y179.622
G1 X180.53Y179.659
G1 X180.897Y179.767
G1 X181.241Y179.949
G1 X181.552Y180.202
G1 X181.805Y180.513
G1 X181.986Y180.857
G1 X182.095Y181.224
G1 X182.132Y181.602
G1 X182.095Y181.98
G1 X181.987Y182.347
G1 X181.806Y182.691
G1 X181.552Y183.002
G0 X181.552Y183.002
G0 X181.552Y183.002
G1 X179.53Y185.024
G0 X179.53Y185.024
G1 X179.752Y185.501
G1 X179.933Y185.989
G1 X180.073Y186.484
G1 X180.173Y186.986
G1 X180.233Y187.49
G1 X180.253Y187.996
G1 X180.234Y188.501
G1 X180.176Y189.002
G1 X180.079Y189.497
G1 X179.944Y189.983
G1 X179.771Y190.459
G1 X179.561Y190.922
G1 X179.314Y191.37
G1 X179.03Y191.799
G1 X178.71Y192.209
G1 X178.353Y192.596
G1 X177.967Y192.953
G1 X177.558Y193.274
G1 X177.129Y193.559
G1 X176.682Y193.807
G1 X176.22Y194.018
G1 X175.744Y194.192
G1 X175.258Y194.328
G1 X174.763Y194.426
G1 X174.262Y194.485
G1 X173.758Y194.505
G1 X173.252Y194.486
G1 X172.747Y194.427
G1 X172.245Y194.328
G1 X171.749Y194.189
G1 X171.261Y194.009
G1 X170.784Y193.788
G0 X170.784Y193.788
G1 X170.766
G0 X170.784Y193.77
G1 X168.752Y195.802
G0 X168.752Y195.802
G1 X168.442Y196.055
G1 X168.097Y196.237
G1 X167.73Y196.345
G1 X167.352Y196.382
G1 X166.974Y196.345
G1 X166.607Y196.237
G1 X166.263Y196.055
G1 X165.952Y195.802
G1 X165.699Y195.491
G1 X165.517Y195.147
G1 X165.409Y194.78
G1 X165.372Y194.402
G1 X165.409Y194.023
G1 X165.517Y193.657
G1 X165.699Y193.312
G1 X165.952Y193.002
G0 X165.952Y193.002
G1 X167.976Y190.978
G0 X167.979Y185.012
G1 X167.962
G0 X167.962Y185.012
G1 X166.652Y183.702
G0 X167.979Y185.012
G1 X167.661Y185.729
G1 X167.433Y186.472
G1 X167.296Y187.232
G1 X167.25Y188
G1 X167.295Y188.768
G1 X167.431Y189.528
G1 X167.658Y190.271
G1 X167.976Y190.989
G0 X179.53Y185.024
G0 X176.731Y182.224
G0 X178.252Y176.802
G1 X180.284Y174.77
G0 X180.284Y174.788
G1 X180.761Y175.009
G1 X181.249Y175.189
G1 X181.745Y175.328
G1 X182.247Y175.427
G1 X182.752Y175.486
G1 X183.258Y175.505
G1 X183.762Y175.485
G1 X184.263Y175.426
G1 X184.758Y175.328
G1 X185.244Y175.192
G1 X185.72Y175.018
G1 X186.182Y174.807
G1 X186.629Y174.559
G1 X187.058Y174.274
G1 X187.467Y173.953
G1 X187.853Y173.596
G1 X188.21Y173.209
G1 X188.53Y172.799
G1 X188.814Y172.37
G1 X189.061Y171.922
G1 X189.271Y171.459
G1 X189.444Y170.983
G1 X189.579Y170.497
G1 X189.676Y170.002
G1 X189.734Y169.501
G1 X189.753Y168.996
G1 X189.733Y168.49
G1 X189.673Y167.986
G1 X189.573Y167.484
G1 X189.433Y166.989
G1 X189.252Y166.501
G1 X189.03Y166.024
G0 X189.03Y166.024
G1 X191.052Y164.002
G0 X191.052Y164.002
G0 X191.052Y164.002
G1 X191.306Y163.691
G1 X191.487Y163.347
G1 X191.596Y162.98
G1 X191.632Y162.602
G1 X191.596Y162.223
G1 X191.487Y161.857
G1 X191.306Y161.512
G1 X191.052Y161.202
G1 X190.742Y160.948
G1 X190.397Y160.767
G1 X190.03Y160.658
G1 X189.652Y160.622
G1 X189.274Y160.658
G1 X188.907Y160.767
G1 X188.563Y160.948
G1 X188.252Y161.202
G0 X188.252Y161.202
G1 X186.24Y163.214
G0 X186.24Y163.214
G1 X186.211
G0 X186.231Y163.223
G0 X189.03Y166.024
G0 X195.152Y164.702
G1 X194.899Y164.391
G1 X194.718Y164.047
G1 X194.61Y163.68
G1 X194.574Y163.302
G1 X194.611Y162.924
G1 X194.719Y162.558
G1 X194.901Y162.214
G1 X195.154Y161.903
G1 X195.464Y161.65
G1 X195.808Y161.469
G1 X196.175Y161.36
G1 X196.553Y161.323
G1 X196.931Y161.359
G1 X197.297Y161.468
G1 X197.642Y161.648
G1 X197.952Y161.902
G0 X197.952Y161.902
G1 X199.264Y163.214
G0 X199.264Y163.214
G1 Y163.229
G0 X199.264Y163.229
G1 X199.978Y162.912
G1 X200.717Y162.685
G1 X201.472Y162.549
G1 X202.236Y162.502
G1 X203Y162.545
G1 X203.756Y162.678
G1 X204.495Y162.901
G1 X205.211Y163.214
G0 X205.211Y163.214
G1 X205.24
G0 X205.24Y163.214
G1 X207.252Y161.202
G0 X207.252Y161.202
G1 X207.563Y160.948
G1 X207.907Y160.767
G1 X208.274Y160.658
G1 X208.652Y160.622
G1 X209.03Y160.658
G1 X209.397Y160.767
G1 X209.742Y160.948
G1 X210.052Y161.202
G1 X210.306Y161.512
G1 X210.487Y161.857
G1 X210.596Y162.223
G1 X210.632Y162.602
G1 X210.596Y162.98
G1 X210.487Y163.347
G1 X210.306Y163.691
G1 X210.052Y164.002
G0 X210.052Y164.002
G0 X210.052Y164.002
G1 X208.03Y166.024
G0 X208.03Y166.024
G1 X208.252Y166.501
G1 X208.433Y166.989
G1 X208.573Y167.484
G1 X208.673Y167.986
G1 X208.733Y168.49
G1 X208.753Y168.996
G1 X208.734Y169.501
G1 X208.676Y170.002
G1 X208.579Y170.497
G1 X208.444Y170.983
G1 X208.271Y171.459
G1 X208.061Y171.922
G1 X207.814Y172.37
G1 X207.53Y172.799
G1 X207.21Y173.209
G1 X206.853Y173.596
G1 X206.467Y173.953
G1 X206.058Y174.274
G1 X205.629Y174.559
G1 X205.182Y174.807
G1 X204.72Y175.018
G1 X204.244Y175.192
G1 X203.758Y175.328
G1 X203.263Y175.426
G1 X202.762Y175.485
G1 X202.258Y175.505
G1 X201.752Y175.486
G1 X201.247Y175.427
G1 X200.745Y175.328
G1 X200.249Y175.189
G1 X199.761Y175.009
G1 X199.284Y174.788
G0 X199.284Y174.788
G1 X199.266
G0 X199.284Y174.77
G1 X197.252Y176.802
G0 X197.252Y176.802
G1 X196.942Y177.055
G1 X196.597Y177.235
G1 X196.231Y177.344
G1 X195.853Y177.38
G1 X195.475Y177.343
G1 X195.108Y177.235
G1 X194.764Y177.053
G1 X194.454Y176.8
G1 X194.201Y176.49
G1 X194.019Y176.145
G1 X193.911Y175.779
G1 X193.874Y175.401
G1 X193.91Y175.023
G1 X194.018Y174.657
G1 X194.199Y174.312
G1 X194.452Y174.002
G0 X194.452Y174.002
G1 X196.476Y171.978
G0 X196.479Y166.012
G1 X196.462
G0 X196.462Y166.012
G1 X195.152Y164.702
G0 X196.479Y166.012
G1 X196.161Y166.729
G1 X195.933Y167.472
G1 X195.796Y168.232
G1 X195.75Y169
G1 X195.795Y169.768
G1 X195.931Y170.528
G1 X196.158Y171.271
G1 X196.476Y171.989
G0 X197.752Y180.202
G1 X198.063Y179.948
G1 X198.407Y179.767
G1 X198.774Y179.659
G1 X199.152Y179.622
G1 X199.53Y179.659
G1 X199.897Y179.767
G1 X200.241Y179.949
G1 X200.552Y180.202
G1 X200.805Y180.513
G1 X200.986Y180.857
G1 X201.095Y181.224
G1 X201.132Y181.602
G1 X201.095Y181.98
G1 X200.987Y182.347
G1 X200.806Y182.691
G1 X200.552Y183.002
G0 X200.552Y183.002
G0 X200.552Y183.002
G1 X198.53Y185.024
G0 X198.53Y185.024
G1 X198.752Y185.501
G1 X198.933Y185.989
G1 X199.073Y186.484
G1 X199.173Y186.986
G1 X199.233Y187.49
G1 X199.253Y187.996
G1 X199.234Y188.501
G1 X199.176Y189.002
G1 X199.079Y189.497
G1 X198.944Y189.983
G1 X198.771Y190.459
G1 X198.561Y190.922
G1 X198.314Y191.37
G1 X198.03Y191.799
G1 X197.71Y192.209
G1 X197.353Y192.596
G1 X196.967Y192.953
G1 X196.558Y193.274
G1 X196.129Y193.559
G1 X195.682Y193.807
G1 X195.22Y194.018
G1 X194.744Y194.192
G1 X194.258Y194.328
G1 X193.763Y194.426
G1 X193.262Y194.485
G1 X192.758Y194.505
G1 X192.252Y194.486
G1 X191.747Y194.427
G1 X191.245Y194.328
G1 X190.749Y194.189
G1 X190.261Y194.009
G1 X189.784Y193.788
G0 X189.784Y193.788
G1 X189.766
G0 X189.784Y193.77
G1 X187.752Y195.802
G0 X187.752Y195.802
G1 X187.442Y196.055
G1 X187.097Y196.235
G1 X186.731Y196.344
G1 X186.353Y196.38
G1 X185.975Y196.343
G1 X185.608Y196.235
G1 X185.264Y196.053
G1 X184.954Y195.8
G1 X184.701Y195.49
G1 X184.519Y195.145
G1 X184.411Y194.779
G1 X184.374Y194.401
G1 X184.41Y194.023
G1 X184.518Y193.657
G1 X184.699Y193.312
G1 X184.952Y193.002
G0 X184.952Y193.002
G1 X186.976Y190.978
G0 X186.979Y185.012
G1 X186.962
G0 X186.962Y185.012
G1 X185.652Y183.702
G0 X185.652Y183.702
G1 X185.399Y183.391
G1 X185.218Y183.047
G1 X185.109Y182.68
G1 X185.073Y182.302
G1 X185.109Y181.924
G1 X185.218Y181.557
G1 X185.399Y181.213
G1 X185.653Y180.902
G1 X185.963Y180.649
G1 X186.308Y180.467
G1 X186.674Y180.359
G1 X187.052Y180.322
G1 X187.431Y180.359
G1 X187.797Y180.467
G1 X188.142Y180.648
G1 X188.452Y180.902
G0 X188.452Y180.902
G1 X189.764Y182.214
G0 X189.764Y182.214
G1 Y182.229
G0 X189.764Y182.229
G1 X190.478Y181.912
G1 X191.217Y181.685
G1 X191.972Y181.549
G1 X192.736Y181.502
G1 X193.5Y181.545
G1 X194.256Y181.678
G1 X194.995Y181.901
G1 X195.711Y182.214
G0 X195.711Y182.214
G1 X195.74
G0 X195.74Y182.214
G1 X197.752Y180.202
G0 X195.731Y182.223
G0 X198.53Y185.024
G0 X204.652Y183.702
G1 X204.399Y183.391
G1 X204.218Y183.047
G1 X204.109Y182.68
G1 X204.073Y182.302
G1 X204.109Y181.924
G1 X204.218Y181.557
G1 X204.399Y181.213
G1 X204.653Y180.902
G1 X204.963Y180.649
G1 X205.308Y180.467
G1 X205.674Y180.359
G1 X206.052Y180.322
G1 X206.431Y180.359
G1 X206.797Y180.467
G1 X207.142Y180.648
G1 X207.452Y180.902
G0 X207.452Y180.902
G1 X208.764Y182.214
G0 X208.764Y182.214
G1 Y182.229
G0 X208.764Y182.229
G1 X209.478Y181.912
G1 X210.217Y181.685
G1 X210.972Y181.549
G1 X211.736Y181.502
G1 X212.5Y181.545
G1 X213.256Y181.678
G1 X213.995Y181.901
G1 X214.711Y182.214
G0 X214.711Y182.214
G1 X214.74
G0 X214.74Y182.214
G1 X216.752Y180.202
G0 X216.752Y180.202
G1 X217.063Y179.948
G1 X217.407Y179.767
G1 X217.774Y179.659
G1 X218.152Y179.622
G1 X218.53Y179.659
G1 X218.897Y179.767
G1 X219.241Y179.949
G1 X219.552Y180.202
G1 X219.805Y180.513
G1 X219.986Y180.857
G1 X220.095Y181.224
G1 X220.132Y181.602
G1 X220.095Y181.98
G1 X219.987Y182.347
G1 X219.806Y182.691
G1 X219.552Y183.002
G0 X219.552Y183.002
G0 X219.552Y183.002
G1 X217.53Y185.024
G0 X217.53Y185.024
G1 X217.752Y185.501
G1 X217.933Y185.989
G1 X218.073Y186.484
G1 X218.173Y186.986
G1 X218.233Y187.49
G1 X218.253Y187.996
G1 X218.234Y188.501
G1 X218.176Y189.002
G1 X218.079Y189.497
G1 X217.944Y189.983
G1 X217.771Y190.459
G1 X217.561Y190.922
G1 X217.314Y191.37
G1 X217.03Y191.799
G1 X216.71Y192.209
G1 X216.353Y192.596
G1 X215.967Y192.953
G1 X215.558Y193.274
G1 X215.129Y193.559
G1 X214.682Y193.807
G1 X214.22Y194.018
G1 X213.744Y194.192
G1 X213.258Y194.328
G1 X212.763Y194.426
G1 X212.262Y194.485
G1 X211.758Y194.505
G1 X211.252Y194.486
G1 X210.747Y194.427
G1 X210.245Y194.328
G1 X209.749Y194.189
G1 X209.261Y194.009
G1 X208.784Y193.788
G0 X208.784Y193.788
G1 X208.766
G0 X208.784Y193.77
G1 X206.752Y195.802
G0 X206.752Y195.802
G1 X206.442Y196.055
G1 X206.097Y196.235
G1 X205.731Y196.344
G1 X205.353Y196.38
G1 X204.975Y196.343
G1 X204.608Y196.235
G1 X204.264Y196.053
G1 X203.954Y195.8
G1 X203.701Y195.49
G1 X203.519Y195.145
G1 X203.411Y194.779
G1 X203.374Y194.401
G1 X203.41Y194.023
G1 X203.518Y193.657
G1 X203.699Y193.312
G1 X203.952Y193.002
G0 X203.952Y193.002
G1 X205.976Y190.978
G0 X205.979Y185.012
G1 X205.962
G0 X205.962Y185.012
G1 X204.652Y183.702
G0 X205.979Y185.012
G1 X205.661Y185.729
G1 X205.433Y186.472
G1 X205.296Y187.232
G1 X205.25Y188
G1 X205.295Y188.768
G1 X205.431Y189.528
G1 X205.658Y190.271
G1 X205.976Y190.989
G0 X217.53Y185.024
G0 X214.731Y182.224
G0 X216.252Y176.802
G1 X215.942Y177.055
G1 X215.597Y177.235
G1 X215.231Y177.344
G1 X214.853Y177.38
G1 X214.475Y177.343
G1 X214.108Y177.235
G1 X213.764Y177.053
G1 X213.454Y176.8
G1 X213.201Y176.49
G1 X213.019Y176.145
G1 X212.911Y175.779
G1 X212.874Y175.401
G1 X212.91Y175.023
G1 X213.018Y174.657
G1 X213.199Y174.312
G1 X213.452Y174.002
G0 X213.452Y174.002
G1 X215.476Y171.978
G0 X218.284Y174.77
G1 X216.252Y176.802
G0 X218.266Y174.788
G1 X218.284
G0 X218.284Y174.788
G1 X218.761Y175.009
G1 X219.249Y175.189
G1 X219.745Y175.328
G1 X220.247Y175.427
G1 X220.752Y175.486
G1 X221.258Y175.505
G1 X221.762Y175.485
G1 X222.263Y175.426
G1 X222.758Y175.328
G1 X223.244Y175.192
G1 X223.72Y175.018
G1 X224.182Y174.807
G1 X224.629Y174.559
G1 X225.058Y174.274
G1 X225.467Y173.953
G1 X225.853Y173.596
G1 X226.21Y173.209
G1 X226.53Y172.799
G1 X226.814Y172.37
G1 X227.061Y171.922
G1 X227.271Y171.459
G1 X227.444Y170.983
G1 X227.579Y170.497
G1 X227.676Y170.002
G1 X227.734Y169.501
G1 X227.753Y168.996
G1 X227.733Y168.49
G1 X227.673Y167.986
G1 X227.573Y167.484
G1 X227.433Y166.989
G1 X227.252Y166.501
G1 X227.03Y166.024
G0 X227.03Y166.024
G0 X227.03Y166.024
G1 X229.052Y164.002
G0 X229.052Y164.002
G0 X229.052Y164.002
G1 X229.306Y163.691
G1 X229.487Y163.347
G1 X229.596Y162.98
G1 X229.632Y162.602
G1 X229.596Y162.223
G1 X229.487Y161.857
G1 X229.306Y161.512
G1 X229.052Y161.202
G1 X228.742Y160.948
G1 X228.397Y160.767
G1 X228.03Y160.658
G1 X227.652Y160.622
G1 X227.274Y160.658
G1 X226.907Y160.767
G1 X226.563Y160.948
G1 X226.252Y161.202
G0 X226.252Y161.202
G1 X224.24Y163.214
G0 X224.24Y163.214
G1 X224.211
G0 X224.231Y163.223
G0 X218.264Y163.229
G1 Y163.214
G0 X218.264Y163.214
G1 X216.952Y161.902
G0 X216.952Y161.902
G1 X216.642Y161.648
G1 X216.297Y161.468
G1 X215.931Y161.359
G1 X215.553Y161.323
G1 X215.175Y161.36
G1 X214.808Y161.469
G1 X214.464Y161.65
G1 X214.154Y161.903
G1 X213.901Y162.214
G1 X213.719Y162.558
G1 X213.611Y162.924
G1 X213.574Y163.302
G1 X213.61Y163.68
G1 X213.718Y164.047
G1 X213.899Y164.391
G1 X214.152Y164.702
G0 X214.152Y164.702
G1 X215.462Y166.012
G0 X215.462Y166.012
G1 X215.479
G0 X215.479Y166.012
G1 X215.161Y166.729
G1 X214.933Y167.472
G1 X214.796Y168.232
G1 X214.75Y169
G1 X214.795Y169.768
G1 X214.931Y170.528
G1 X215.158Y171.271
G1 X215.476Y171.989
G0 X208.03Y166.024
G0 X205.231Y163.224
G0 X202.002Y157.802
G1 X201.692Y158.054
G1 X201.347Y158.235
G1 X200.981Y158.343
G1 X200.603Y158.379
G1 X200.226Y158.342
G1 X199.859Y158.233
G1 X199.515Y158.052
G1 X199.205Y157.799
G1 X198.952Y157.489
G1 X198.771Y157.145
G1 X198.662Y156.778
G1 X198.625Y156.401
G1 X198.661Y156.023
G1 X198.769Y155.656
G1 X198.95Y155.312
G1 X199.202Y155.002
G0 X199.202Y155.002
G1 X201.226Y152.978
G0 X204.034Y155.77
G1 X202.002Y157.802
G0 X204.016Y155.788
G1 X204.034
G0 X204.034Y155.788
G1 X204.511Y156.009
G1 X204.999Y156.189
G1 X205.495Y156.328
G1 X205.997Y156.427
G1 X206.502Y156.486
G1 X207.008Y156.505
G1 X207.512Y156.485
G1 X208.013Y156.426
G1 X208.508Y156.328
G1 X208.994Y156.192
G1 X209.47Y156.018
G1 X209.932Y155.807
G1 X210.379Y155.559
G1 X210.808Y155.274
G1 X211.217Y154.953
G1 X211.603Y154.596
G1 X211.96Y154.209
G1 X212.28Y153.799
G1 X212.564Y153.37
G1 X212.811Y152.922
G1 X213.022Y152.459
G1 X213.194Y151.983
G1 X213.329Y151.497
G1 X213.426Y151.002
G1 X213.484Y150.501
G1 X213.503Y149.996
G1 X213.483Y149.49
G1 X213.423Y148.986
G1 X213.323Y148.484
G1 X213.183Y147.989
G1 X213.002Y147.501
G1 X212.78Y147.024
G0 X212.78Y147.024
G0 X212.78Y147.024
G1 X214.802Y145.002
G0 X214.802Y145.002
G0 X214.802Y145.002
G1 X215.056Y144.691
G1 X215.237Y144.347
G1 X215.346Y143.98
G1 X215.382Y143.602
G1 X215.346Y143.223
G1 X215.237Y142.857
G1 X215.056Y142.512
G1 X214.802Y142.202
G1 X214.492Y141.948
G1 X214.147Y141.767
G1 X213.78Y141.658
G1 X213.402Y141.622
G1 X213.024Y141.658
G1 X212.657Y141.767
G1 X212.313Y141.948
G1 X212.002Y142.202
G0 X212.002Y142.202
G1 X209.99Y144.214
G0 X209.99Y144.214
G1 X209.961
G0 X209.981Y144.223
G0 X204.014Y144.229
G1 Y144.214
G0 X204.014Y144.214
G1 X202.702Y142.902
G0 X202.702Y142.902
G1 X202.392Y142.648
G1 X202.047Y142.468
G1 X201.681Y142.359
G1 X201.303Y142.323
G1 X200.925Y142.36
G1 X200.558Y142.469
G1 X200.214Y142.65
G1 X199.904Y142.903
G1 X199.651Y143.214
G1 X199.469Y143.558
G1 X199.361Y143.924
G1 X199.324Y144.302
G1 X199.36Y144.68
G1 X199.468Y145.047
G1 X199.649Y145.391
G1 X199.902Y145.702
G0 X199.902Y145.702
G1 X201.212Y147.012
G0 X201.212Y147.012
G1 X201.229
G0 X201.229Y147.012
G1 X200.911Y147.729
G1 X200.683Y148.472
G1 X200.546Y149.232
G1 X200.5Y150
G1 X200.545Y150.768
G1 X200.681Y151.528
G1 X200.908Y152.271
G1 X201.226Y152.989
G0 X193.78Y147.024
G1 X194.002Y147.501
G1 X194.183Y147.989
G1 X194.323Y148.484
G1 X194.423Y148.986
G1 X194.483Y149.49
G1 X194.503Y149.996
G1 X194.484Y150.501
G1 X194.426Y151.002
G1 X194.329Y151.497
G1 X194.194Y151.983
G1 X194.022Y152.459
G1 X193.811Y152.922
G1 X193.564Y153.37
G1 X193.28Y153.799
G1 X192.96Y154.209
G1 X192.603Y154.596
G1 X192.217Y154.953
G1 X191.808Y155.274
G1 X191.379Y155.559
G1 X190.932Y155.807
G1 X190.47Y156.018
G1 X189.994Y156.192
G1 X189.508Y156.328
G1 X189.013Y156.426
G1 X188.512Y156.485
G1 X188.008Y156.505
G1 X187.502Y156.486
G1 X186.997Y156.427
G1 X186.495Y156.328
G1 X185.999Y156.189
G1 X185.511Y156.009
G1 X185.034Y155.788
G0 X185.034Y155.788
G1 X185.016
G0 X185.034Y155.77
G1 X183.002Y157.802
G0 X183.002Y157.802
G1 X182.692Y158.054
G1 X182.347Y158.235
G1 X181.981Y158.343
G1 X181.603Y158.379
G1 X181.226Y158.342
G1 X180.859Y158.233
G1 X180.515Y158.052
G1 X180.205Y157.799
G1 X179.952Y157.489
G1 X179.771Y157.145
G1 X179.662Y156.778
G1 X179.625Y156.401
G1 X179.661Y156.023
G1 X179.769Y155.656
G1 X179.95Y155.312
G1 X180.202Y155.002
G0 X180.202Y155.002
G1 X182.226Y152.978
G0 X182.229Y147.012
G1 X182.212
G0 X182.212Y147.012
G1 X180.902Y145.702
G0 X180.902Y145.702
G1 X180.649Y145.391
G1 X180.468Y145.047
G1 X180.36Y144.68
G1 X180.324Y144.302
G1 X180.361Y143.924
G1 X180.469Y143.558
G1 X180.651Y143.214
G1 X180.904Y142.903
G1 X181.214Y142.65
G1 X181.558Y142.469
G1 X181.925Y142.36
G1 X182.303Y142.323
G1 X182.681Y142.359
G1 X183.047Y142.468
G1 X183.392Y142.648
G1 X183.702Y142.902
G0 X183.702Y142.902
G1 X185.014Y144.214
G0 X185.014Y144.214
G1 Y144.229
G0 X185.014Y144.229
G1 X185.728Y143.912
G1 X186.467Y143.685
G1 X187.222Y143.549
G1 X187.986Y143.502
G1 X188.75Y143.545
G1 X189.506Y143.678
G1 X190.245Y143.901
G1 X190.961Y144.214
G0 X190.961Y144.214
G1 X190.99
G0 X190.99Y144.214
G1 X193.002Y142.202
G0 X193.002Y142.202
G1 X193.313Y141.948
G1 X193.657Y141.767
G1 X194.024Y141.658
G1 X194.402Y141.622
G1 X194.78Y141.658
G1 X195.147Y141.767
G1 X195.492Y141.948
G1 X195.802Y142.202
G1 X196.056Y142.512
G1 X196.237Y142.857
G1 X196.346Y143.223
G1 X196.382Y143.602
G1 X196.346Y143.98
G1 X196.237Y144.347
G1 X196.056Y144.691
G1 X195.802Y145.002
G0 X195.802Y145.002
G0 X195.802Y145.002
G1 X193.78Y147.024
G0 X193.78Y147.024
G0 X190.981Y144.224
G0 X182.229Y147.012
G1 X181.911Y147.729
G1 X181.683Y148.472
G1 X181.546Y149.232
G1 X181.5Y150
G1 X181.545Y150.768
G1 X181.681Y151.528
G1 X181.908Y152.271
G1 X182.226Y152.989
G0 X174.78Y147.024
G1 X175.002Y147.501
G1 X175.183Y147.989
G1 X175.323Y148.484
G1 X175.423Y148.986
G1 X175.483Y149.49
G1 X175.503Y149.996
G1 X175.484Y150.501
G1 X175.426Y151.002
G1 X175.329Y151.497
G1 X175.194Y151.983
G1 X175.022Y152.459
G1 X174.811Y152.922
G1 X174.564Y153.37
G1 X174.28Y153.799
G1 X173.96Y154.209
G1 X173.603Y154.596
G1 X173.217Y154.953
G1 X172.808Y155.274
G1 X172.379Y155.559
G1 X171.932Y155.807
G1 X171.47Y156.018
G1 X170.994Y156.192
G1 X170.508Y156.328
G1 X170.013Y156.426
G1 X169.512Y156.485
G1 X169.008Y156.505
G1 X168.502Y156.486
G1 X167.997Y156.427
G1 X167.495Y156.328
G1 X166.999Y156.189
G1 X166.511Y156.009
G1 X166.034Y155.788
G0 X166.034Y155.788
G1 X166.016
G0 X166.034Y155.77
G1 X164.002Y157.802
G0 X164.002Y157.802
G1 X163.692Y158.055
G1 X163.347Y158.235
G1 X162.981Y158.344
G1 X162.603Y158.38
G1 X162.225Y158.343
G1 X161.858Y158.235
G1 X161.514Y158.053
G1 X161.204Y157.8
G1 X160.951Y157.49
G1 X160.769Y157.145
G1 X160.661Y156.779
G1 X160.624Y156.401
G1 X160.66Y156.023
G1 X160.768Y155.657
G1 X160.949Y155.312
G1 X161.202Y155.002
G0 X161.202Y155.002
G1 X163.226Y152.978
G0 X163.229Y147.012
G1 X163.212
G0 X163.212Y147.012
G1 X161.902Y145.702
G0 X161.902Y145.702
G1 X161.649Y145.391
G1 X161.468Y145.047
G1 X161.36Y144.68
G1 X161.324Y144.302
G1 X161.361Y143.924
G1 X161.469Y143.558
G1 X161.651Y143.214
G1 X161.904Y142.903
G1 X162.214Y142.65
G1 X162.558Y142.469
G1 X162.925Y142.36
G1 X163.303Y142.323
G1 X163.681Y142.359
G1 X164.047Y142.468
G1 X164.392Y142.648
G1 X164.702Y142.902
G0 X164.702Y142.902
G1 X166.014Y144.214
G0 X166.014Y144.214
G1 Y144.229
G0 X166.014Y144.229
G1 X166.728Y143.912
G1 X167.467Y143.685
G1 X168.222Y143.549
G1 X168.986Y143.502
G1 X169.75Y143.545
G1 X170.506Y143.678
G1 X171.245Y143.901
G1 X171.961Y144.214
G0 X171.961Y144.214
G1 X171.99
G0 X171.99Y144.214
G1 X174.002Y142.202
G0 X174.002Y142.202
G1 X174.313Y141.948
G1 X174.657Y141.767
G1 X175.024Y141.658
G1 X175.402Y141.622
G1 X175.78Y141.658
G1 X176.147Y141.767
G1 X176.492Y141.948
G1 X176.802Y142.202
G1 X177.056Y142.512
G1 X177.237Y142.857
G1 X177.346Y143.223
G1 X177.382Y143.602
G1 X177.346Y143.98
G1 X177.237Y144.347
G1 X177.056Y144.691
G1 X176.802Y145.002
G0 X176.802Y145.002
G0 X176.802Y145.002
G1 X174.78Y147.024
G0 X174.78Y147.024
G0 X171.981Y144.224
G0 X163.229Y147.012
G1 X162.911Y147.729
G1 X162.683Y148.472
G1 X162.546Y149.232
G1 X162.5Y150
G1 X162.545Y150.768
G1 X162.681Y151.528
G1 X162.908Y152.271
G1 X163.226Y152.989
G0 X155.78Y147.027
G1 X156.002Y147.504
G1 X156.183Y147.992
G1 X156.323Y148.487
G1 X156.423Y148.989
G1 X156.483Y149.494
G1 X156.503Y150
G1 X156.484Y150.504
G1 X156.426Y151.005
G1 X156.329Y151.5
G1 X156.194Y151.987
G1 X156.022Y152.463
G1 X155.811Y152.926
G1 X155.564Y153.373
G1 X155.28Y153.803
G1 X154.96Y154.212
G1 X154.603Y154.599
G1 X154.217Y154.956
G1 X153.808Y155.278
G1 X153.379Y155.562
G1 X152.932Y155.811
G1 X152.47Y156.022
G1 X151.994Y156.195
G1 X151.508Y156.331
G1 X151.013Y156.429
G1 X150.512Y156.488
G1 X150.008Y156.508
G1 X149.502Y156.489
G1 X148.997Y156.43
G1 X148.495Y156.332
G1 X147.999Y156.192
G1 X147.511Y156.012
G1 X147.034Y155.791
G0 X147.034Y155.791
G1 X147.016
G0 X147.034Y155.773
G1 X145.002Y157.805
G0 X145.002Y157.805
G1 X144.692Y158.059
G1 X144.347Y158.24
G1 X143.98Y158.349
G1 X143.602Y158.385
G1 X143.224Y158.349
G1 X142.857Y158.24
G1 X142.513Y158.059
G1 X142.202Y157.805
G1 X141.949Y157.494
G1 X141.767Y157.15
G1 X141.659Y156.783
G1 X141.622Y156.405
G1 X141.659Y156.027
G1 X141.767Y155.66
G1 X141.949Y155.316
G1 X142.202Y155.005
G0 X142.202Y155.005
G1 X144.226Y152.981
G0 X144.229Y147.015
G1 X144.212
G0 X144.212Y147.015
G1 X142.902Y145.705
G0 X142.902Y145.705
G1 X142.649Y145.394
G1 X142.467Y145.05
G1 X142.359Y144.683
G1 X142.322Y144.305
G1 X142.359Y143.927
G1 X142.467Y143.56
G1 X142.649Y143.215
G1 X142.902Y142.905
G1 X143.213Y142.651
G1 X143.557Y142.47
G1 X143.924Y142.361
G1 X144.302Y142.325
G1 X144.68Y142.361
G1 X145.047Y142.47
G1 X145.392Y142.651
G1 X145.702Y142.905
G0 X145.702Y142.905
G1 X147.014Y144.217
G0 X147.014Y144.217
G1 Y144.232
G0 X147.014Y144.232
G1 X147.728Y143.915
G1 X148.467Y143.689
G1 X149.222Y143.552
G1 X149.986Y143.505
G1 X150.75Y143.548
G1 X151.506Y143.681
G1 X152.245Y143.905
G1 X152.961Y144.218
G0 X152.961Y144.218
G1 X152.99
G0 X152.99Y144.218
G1 X155.002Y142.205
G0 X155.002Y142.205
G1 X155.313Y141.952
G1 X155.657Y141.771
G1 X156.024Y141.663
G1 X156.402Y141.627
G1 X156.78Y141.663
G1 X157.146Y141.772
G1 X157.49Y141.953
G1 X157.801Y142.207
G1 X158.054Y142.517
G1 X158.235Y142.861
G1 X158.344Y143.228
G1 X158.38Y143.605
G1 X158.344Y143.983
G1 X158.236Y144.35
G1 X158.055Y144.694
G1 X157.802Y145.005
G0 X157.802Y145.005
G0 X157.802Y145.005
G1 X155.78Y147.027
G0 X155.78Y147.027
G0 X152.981Y144.227
G0 X154.502Y138.802
G1 X154.192Y139.055
G1 X153.847Y139.235
G1 X153.481Y139.344
G1 X153.103Y139.38
G1 X152.725Y139.343
G1 X152.358Y139.235
G1 X152.014Y139.053
G1 X151.704Y138.8
G1 X151.451Y138.49
G1 X151.269Y138.145
G1 X151.161Y137.779
G1 X151.124Y137.401
G1 X151.16Y137.023
G1 X151.268Y136.657
G1 X151.449Y136.312
G1 X151.702Y136.002
G0 X151.702Y136.002
G1 X153.726Y133.978
G0 X156.534Y136.77
G1 X154.502Y138.802
G0 X156.516Y136.788
G1 X156.534
G0 X156.534Y136.788
G1 X157.011Y137.009
G1 X157.499Y137.189
G1 X157.995Y137.328
G1 X158.497Y137.427
G1 X159.002Y137.486
G1 X159.508Y137.505
G1 X160.012Y137.485
G1 X160.513Y137.426
G1 X161.008Y137.328
G1 X161.494Y137.192
G1 X161.97Y137.018
G1 X162.432Y136.807
G1 X162.879Y136.559
G1 X163.308Y136.274
G1 X163.717Y135.953
G1 X164.103Y135.596
G1 X164.46Y135.209
G1 X164.78Y134.799
G1 X165.064Y134.37
G1 X165.311Y133.922
G1 X165.522Y133.459
G1 X165.694Y132.983
G1 X165.829Y132.497
G1 X165.926Y132.002
G1 X165.984Y131.501
G1 X166.003Y130.996
G1 X165.983Y130.49
G1 X165.923Y129.986
G1 X165.823Y129.484
G1 X165.683Y128.989
G1 X165.502Y128.501
G1 X165.28Y128.024
G0 X165.28Y128.024
G0 X165.28Y128.024
G1 X167.302Y126.002
G0 X167.302Y126.002
G0 X167.302Y126.002
G1 X167.556Y125.691
G1 X167.737Y125.347
G1 X167.846Y124.98
G1 X167.882Y124.602
G1 X167.846Y124.223
G1 X167.737Y123.857
G1 X167.556Y123.512
G1 X167.302Y123.202
G1 X166.992Y122.948
G1 X166.647Y122.767
G1 X166.28Y122.658
G1 X165.902Y122.622
G1 X165.524Y122.658
G1 X165.157Y122.767
G1 X164.813Y122.948
G1 X164.502Y123.202
G0 X164.502Y123.202
G1 X162.49Y125.214
G0 X162.49Y125.214
G1 X162.461
G0 X162.481Y125.223
G0 X156.514Y125.229
G1 Y125.214
G0 X156.514Y125.214
G1 X155.202Y123.902
G0 X155.202Y123.902
G1 X154.892Y123.648
G1 X154.547Y123.468
G1 X154.181Y123.359
G1 X153.803Y123.323
G1 X153.425Y123.36
G1 X153.058Y123.469
G1 X152.714Y123.65
G1 X152.404Y123.903
G1 X152.151Y124.214
G1 X151.969Y124.558
G1 X151.861Y124.924
G1 X151.824Y125.302
G1 X151.86Y125.68
G1 X151.968Y126.047
G1 X152.149Y126.391
G1 X152.402Y126.702
G0 X152.402Y126.702
G1 X153.712Y128.012
G0 X153.712Y128.012
G1 X153.729
G0 X153.729Y128.012
G1 X153.411Y128.729
G1 X153.183Y129.472
G1 X153.046Y130.232
G1 X153Y131
G1 X153.045Y131.768
G1 X153.181Y132.528
G1 X153.408Y133.271
G1 X153.726Y133.989
G0 X146.28Y128.024
G1 X146.502Y128.501
G1 X146.683Y128.989
G1 X146.823Y129.484
G1 X146.923Y129.986
G1 X146.983Y130.49
G1 X147.003Y130.996
G1 X146.984Y131.501
G1 X146.926Y132.002
G1 X146.829Y132.497
G1 X146.694Y132.983
G1 X146.522Y133.459
G1 X146.311Y133.922
G1 X146.064Y134.37
G1 X145.78Y134.799
G1 X145.46Y135.209
G1 X145.103Y135.596
G1 X144.717Y135.953
G1 X144.308Y136.274
G1 X143.879Y136.559
G1 X143.432Y136.807
G1 X142.97Y137.018
G1 X142.494Y137.192
G1 X142.008Y137.328
G1 X141.513Y137.426
G1 X141.012Y137.485
G1 X140.508Y137.505
G1 X140.002Y137.486
G1 X139.497Y137.427
G1 X138.995Y137.328
G1 X138.499Y137.189
G1 X138.011Y137.009
G1 X137.534Y136.788
G0 X137.534Y136.788
G1 X137.516
G0 X137.534Y136.77
G1 X135.502Y138.802
G0 X135.502Y138.802
G1 X135.192Y139.055
G1 X134.847Y139.235
G1 X134.481Y139.344
G1 X134.103Y139.38
G1 X133.725Y139.343
G1 X133.358Y139.235
G1 X133.014Y139.053
G1 X132.704Y138.8
G1 X132.451Y138.49
G1 X132.269Y138.145
G1 X132.161Y137.779
G1 X132.124Y137.401
G1 X132.16Y137.023
G1 X132.268Y136.657
G1 X132.449Y136.312
G1 X132.702Y136.002
G0 X132.702Y136.002
G1 X134.726Y133.978
G0 X134.729Y128.012
G1 X134.712
G0 X134.712Y128.012
G1 X133.402Y126.702
G0 X133.402Y126.702
G1 X133.149Y126.391
G1 X132.968Y126.047
G1 X132.86Y125.68
G1 X132.824Y125.302
G1 X132.861Y124.924
G1 X132.969Y124.558
G1 X133.151Y124.214
G1 X133.404Y123.903
G1 X133.714Y123.65
G1 X134.058Y123.469
G1 X134.425Y123.36
G1 X134.803Y123.323
G1 X135.181Y123.359
G1 X135.547Y123.468
G1 X135.892Y123.648
G1 X136.202Y123.902
G0 X136.202Y123.902
G1 X137.514Y125.214
G0 X137.514Y125.214
G1 Y125.229
G0 X137.514Y125.229
G1 X138.228Y124.912
G1 X138.967Y124.685
G1 X139.722Y124.549
G1 X140.486Y124.502
G1 X141.25Y124.545
G1 X142.006Y124.678
G1 X142.745Y124.901
G1 X143.461Y125.214
G0 X143.461Y125.214
G1 X143.49
G0 X143.49Y125.214
G1 X145.502Y123.202
G0 X145.502Y123.202
G1 X145.813Y122.948
G1 X146.157Y122.767
G1 X146.524Y122.658
G1 X146.902Y122.622
G1 X147.28Y122.658
G1 X147.647Y122.767
G1 X147.992Y122.948
G1 X148.302Y123.202
G1 X148.556Y123.512
G1 X148.737Y123.857
G1 X148.846Y124.223
G1 X148.882Y124.602
G1 X148.846Y124.98
G1 X148.737Y125.347
G1 X148.556Y125.691
G1 X148.302Y126.002
G0 X148.302Y126.002
G0 X148.302Y126.002
G1 X146.28Y128.024
G0 X146.28Y128.024
G0 X143.481Y125.224
G0 X134.729Y128.012
G1 X134.411Y128.729
G1 X134.183Y129.472
G1 X134.046Y130.232
G1 X134Y131
G1 X134.045Y131.768
G1 X134.181Y132.528
G1 X134.408Y133.271
G1 X134.726Y133.989
G0 X127.28Y128.027
G1 X127.502Y128.504
G1 X127.683Y128.992
G1 X127.824Y129.487
G1 X127.923Y129.989
G1 X127.983Y130.494
G1 X128.003Y131
G1 X127.984Y131.504
G1 X127.926Y132.005
G1 X127.829Y132.5
G1 X127.694Y132.987
G1 X127.522Y133.463
G1 X127.311Y133.926
G1 X127.064Y134.373
G1 X126.78Y134.803
G1 X126.46Y135.212
G1 X126.103Y135.599
G1 X125.717Y135.956
G1 X125.308Y136.278
G1 X124.879Y136.562
G1 X124.432Y136.811
G1 X123.97Y137.022
G1 X123.494Y137.195
G1 X123.008Y137.331
G1 X122.513Y137.429
G1 X122.012Y137.488
G1 X121.508Y137.508
G1 X121.002Y137.489
G1 X120.497Y137.43
G1 X119.995Y137.332
G1 X119.499Y137.192
G1 X119.011Y137.012
G1 X118.534Y136.791
G0 X118.534Y136.791
G1 X118.516
G0 X118.534Y136.773
G1 X116.502Y138.805
G0 X116.502Y138.805
G1 X116.192Y139.059
G1 X115.847Y139.24
G1 X115.48Y139.349
G1 X115.102Y139.385
G1 X114.724Y139.349
G1 X114.357Y139.24
G1 X114.013Y139.059
G1 X113.702Y138.805
G1 X113.449Y138.494
G1 X113.267Y138.15
G1 X113.159Y137.783
G1 X113.122Y137.405
G1 X113.159Y137.027
G1 X113.267Y136.66
G1 X113.449Y136.316
G1 X113.702Y136.005
G0 X113.702Y136.005
G1 X115.726Y133.981
G0 X115.729Y128.015
G1 X115.712
G0 X115.712Y128.015
G1 X114.402Y126.705
G0 X114.402Y126.705
G1 X114.149Y126.394
G1 X113.967Y126.05
G1 X113.859Y125.683
G1 X113.822Y125.305
G1 X113.859Y124.927
G1 X113.967Y124.56
G1 X114.149Y124.215
G1 X114.402Y123.905
G1 X114.713Y123.651
G1 X115.057Y123.47
G1 X115.424Y123.361
G1 X115.802Y123.325
G1 X116.18Y123.361
G1 X116.547Y123.47
G1 X116.892Y123.651
G1 X117.202Y123.905
G0 X117.202Y123.905
G1 X118.514Y125.217
G0 X118.514Y125.217
G1 Y125.232
G0 X118.514Y125.232
G1 X119.228Y124.915
G1 X119.967Y124.689
G1 X120.722Y124.552
G1 X121.486Y124.505
G1 X122.25Y124.548
G1 X123.006Y124.681
G1 X123.745Y124.905
G1 X124.461Y125.218
G0 X124.461Y125.218
G1 X124.49
G0 X124.49Y125.218
G1 X126.502Y123.205
G0 X126.502Y123.205
G1 X126.813Y122.952
G1 X127.157Y122.771
G1 X127.524Y122.663
G1 X127.902Y122.627
G1 X128.28Y122.663
G1 X128.646Y122.772
G1 X128.99Y122.953
G1 X129.301Y123.207
G1 X129.554Y123.517
G1 X129.735Y123.861
G1 X129.844Y124.228
G1 X129.88Y124.605
G1 X129.844Y124.983
G1 X129.736Y125.35
G1 X129.555Y125.694
G1 X129.302Y126.005
G0 X129.302Y126.005
G0 X129.302Y126.006
G1 X127.28Y128.027
G0 X127.28Y128.027
G0 X124.481Y125.227
G0 X115.729Y128.015
G1 X115.411Y128.733
G1 X115.183Y129.476
G1 X115.046Y130.235
G1 X115Y131.003
G1 X115.045Y131.771
G1 X115.181Y132.531
G1 X115.408Y133.274
G1 X115.726Y133.992
G0 X108.28Y128.024
G0 X105.481Y125.224
G0 X119.002Y119.802
G1 X118.692Y120.055
G1 X118.347Y120.235
G1 X117.981Y120.344
G1 X117.603Y120.38
G1 X117.225Y120.343
G1 X116.858Y120.235
G1 X116.514Y120.053
G1 X116.204Y119.8
G1 X115.951Y119.49
G1 X115.769Y119.145
G1 X115.661Y118.779
G1 X115.624Y118.401
G1 X115.66Y118.023
G1 X115.768Y117.657
G1 X115.949Y117.312
G1 X116.202Y117.002
G0 X116.202Y117.002
G1 X129.002Y104.202
G0 X129.002Y104.202
G1 X129.313Y103.948
G1 X129.657Y103.767
G1 X130.024Y103.658
G1 X130.402Y103.622
G1 X130.78Y103.658
G1 X131.147Y103.767
G1 X131.492Y103.948
G1 X131.802Y104.202
G1 X132.056Y104.512
G1 X132.237Y104.857
G1 X132.346Y105.223
G1 X132.382Y105.602
G1 X132.346Y105.98
G1 X132.237Y106.347
G1 X132.056Y106.691
G1 X131.802Y107.002
G0 X131.802Y107.002
G1 X119.002Y119.802
G0 X131.802Y107.002
G0 X152.402Y107.702
G1 X152.149Y107.391
G1 X151.967Y107.047
G1 X151.859Y106.68
G1 X151.822Y106.302
G1 X151.859Y105.923
G1 X151.967Y105.557
G1 X152.149Y105.212
G1 X152.402Y104.902
G1 X152.713Y104.648
G1 X153.057Y104.467
G1 X153.424Y104.358
G1 X153.802Y104.322
G1 X154.18Y104.358
G1 X154.547Y104.467
G1 X154.892Y104.648
G1 X155.202Y104.902
G0 X155.202Y104.902
G1 X156.514Y106.214
G0 X156.514Y106.214
G1 Y106.229
G0 X156.514Y106.229
G1 X157.228Y105.912
G1 X157.967Y105.685
G1 X158.722Y105.549
G1 X159.486Y105.502
G1 X160.25Y105.545
G1 X161.006Y105.678
G1 X161.745Y105.901
G1 X162.461Y106.214
G0 X162.461Y106.214
G1 X162.49
G0 X162.49Y106.214
G1 X164.502Y104.202
G0 X164.502Y104.202
G1 X164.813Y103.948
G1 X165.157Y103.767
G1 X165.524Y103.658
G1 X165.902Y103.622
G1 X166.28Y103.658
G1 X166.647Y103.767
G1 X166.992Y103.948
G1 X167.302Y104.202
G1 X167.556Y104.512
G1 X167.737Y104.857
G1 X167.846Y105.223
G1 X167.882Y105.602
G1 X167.846Y105.98
G1 X167.737Y106.347
G1 X167.556Y106.691
G1 X167.302Y107.002
G0 X167.302Y107.002
G0 X167.302Y107.002
G1 X165.28Y109.024
G0 X165.28Y109.024
G1 X165.502Y109.501
G1 X165.683Y109.989
G1 X165.823Y110.484
G1 X165.923Y110.986
G1 X165.983Y111.49
G1 X166.003Y111.996
G1 X165.984Y112.501
G1 X165.926Y113.002
G1 X165.829Y113.497
G1 X165.694Y113.983
G1 X165.522Y114.459
G1 X165.311Y114.922
G1 X165.064Y115.37
G1 X164.78Y115.799
G1 X164.46Y116.209
G1 X164.103Y116.596
G1 X163.717Y116.953
G1 X163.308Y117.274
G1 X162.879Y117.559
G1 X162.432Y117.807
G1 X161.97Y118.018
G1 X161.494Y118.192
G1 X161.008Y118.328
G1 X160.513Y118.426
G1 X160.012Y118.485
G1 X159.508Y118.505
G1 X159.002Y118.486
G1 X158.497Y118.427
G1 X157.995Y118.328
G1 X157.499Y118.189
G1 X157.011Y118.009
G1 X156.534Y117.788
G0 X156.534Y117.788
G1 X156.516
G0 X156.534Y117.77
G1 X154.502Y119.802
G0 X154.502Y119.802
G1 X154.192Y120.055
G1 X153.847Y120.235
G1 X153.481Y120.344
G1 X153.103Y120.38
G1 X152.725Y120.343
G1 X152.358Y120.235
G1 X152.014Y120.053
G1 X151.704Y119.8
G1 X151.451Y119.49
G1 X151.269Y119.145
G1 X151.161Y118.779
G1 X151.124Y118.401
G1 X151.16Y118.023
G1 X151.268Y117.657
G1 X151.449Y117.312
G1 X151.702Y117.002
G0 X151.702Y117.002
G1 X153.726Y114.978
G0 X153.729Y109.011
G1 X153.712
G0 X153.712Y109.011
G1 X152.402Y107.702
G0 X153.729Y109.011
G1 X153.411Y109.729
G1 X153.183Y110.472
G1 X153.046Y111.232
G1 X153Y112
G1 X153.045Y112.768
G1 X153.181Y113.528
G1 X153.408Y114.271
G1 X153.726Y114.989
G0 X165.28Y109.024
G0 X162.481Y106.224
G0 X171.402Y107.702
G1 X171.149Y107.391
G1 X170.967Y107.047
G1 X170.859Y106.68
G1 X170.822Y106.302
G1 X170.859Y105.923
G1 X170.967Y105.557
G1 X171.149Y105.212
G1 X171.402Y104.902
G1 X171.713Y104.648
G1 X172.057Y104.467
G1 X172.424Y104.358
G1 X172.802Y104.322
G1 X173.18Y104.358
G1 X173.547Y104.467
G1 X173.892Y104.648
G1 X174.202Y104.902
G0 X174.202Y104.902
G1 X175.514Y106.214
G0 X175.514Y106.214
G1 Y106.229
G0 X175.514Y106.229
G1 X176.228Y105.912
G1 X176.967Y105.685
G1 X177.722Y105.549
G1 X178.486Y105.502
G1 X179.25Y105.545
G1 X180.006Y105.678
G1 X180.745Y105.901
G1 X181.461Y106.214
G0 X181.461Y106.214
G1 X181.49
G0 X181.49Y106.214
G1 X183.502Y104.202
G0 X183.502Y104.202
G1 X183.813Y103.948
G1 X184.157Y103.767
G1 X184.524Y103.658
G1 X184.902Y103.622
G1 X185.28Y103.658
G1 X185.647Y103.767
G1 X185.992Y103.948
G1 X186.302Y104.202
G1 X186.556Y104.512
G1 X186.737Y104.857
G1 X186.846Y105.223
G1 X186.882Y105.602
G1 X186.846Y105.98
G1 X186.737Y106.347
G1 X186.556Y106.691
G1 X186.302Y107.002
G0 X186.302Y107.002
G0 X186.302Y107.002
G1 X184.28Y109.024
G0 X184.28Y109.024
G1 X184.502Y109.501
G1 X184.683Y109.989
G1 X184.823Y110.484
G1 X184.923Y110.986
G1 X184.983Y111.49
G1 X185.003Y111.996
G1 X184.984Y112.501
G1 X184.926Y113.002
G1 X184.829Y113.497
G1 X184.694Y113.983
G1 X184.522Y114.459
G1 X184.311Y114.922
G1 X184.064Y115.37
G1 X183.78Y115.799
G1 X183.46Y116.209
G1 X183.103Y116.596
G1 X182.717Y116.953
G1 X182.308Y117.274
G1 X181.879Y117.559
G1 X181.432Y117.807
G1 X180.97Y118.018
G1 X180.494Y118.192
G1 X180.008Y118.328
G1 X179.513Y118.426
G1 X179.012Y118.485
G1 X178.508Y118.505
G1 X178.002Y118.486
G1 X177.497Y118.427
G1 X176.995Y118.328
G1 X176.499Y118.189
G1 X176.011Y118.009
G1 X175.534Y117.788
G0 X175.534Y117.788
G1 X175.516
G0 X175.534Y117.77
G1 X173.502Y119.802
G0 X173.502Y119.802
G1 X173.192Y120.054
G1 X172.847Y120.235
G1 X172.481Y120.343
G1 X172.103Y120.379
G1 X171.726Y120.342
G1 X171.359Y120.233
G1 X171.015Y120.052
G1 X170.705Y119.799
G1 X170.452Y119.489
G1 X170.271Y119.145
G1 X170.162Y118.778
G1 X170.125Y118.401
G1 X170.161Y118.023
G1 X170.269Y117.656
G1 X170.45Y117.312
G1 X170.702Y117.002
G0 X170.702Y117.002
G1 X172.726Y114.978
G0 X172.729Y109.011
G1 X172.712
G0 X172.712Y109.011
G1 X171.402Y107.702
G0 X172.729Y109.011
G1 X172.411Y109.729
G1 X172.183Y110.472
G1 X172.046Y111.232
G1 X172Y112
G1 X172.045Y112.768
G1 X172.181Y113.528
G1 X172.408Y114.271
G1 X172.726Y114.989
G0 X184.28Y109.024
G0 X181.481Y106.224
G0 X190.402Y107.702
G1 X190.149Y107.391
G1 X189.967Y107.047
G1 X189.859Y106.68
G1 X189.822Y106.302
G1 X189.859Y105.923
G1 X189.967Y105.557
G1 X190.149Y105.212
G1 X190.402Y104.902
G1 X190.713Y104.648
G1 X191.057Y104.467
G1 X191.424Y104.358
G1 X191.802Y104.322
G1 X192.18Y104.358
G1 X192.547Y104.467
G1 X192.892Y104.648
G1 X193.202Y104.902
G0 X193.202Y104.902
G1 X194.514Y106.214
G0 X194.514Y106.214
G1 Y106.229
G0 X194.514Y106.229
G1 X195.228Y105.912
G1 X195.967Y105.685
G1 X196.722Y105.549
G1 X197.486Y105.502
G1 X198.25Y105.545
G1 X199.006Y105.678
G1 X199.745Y105.901
G1 X200.461Y106.214
G0 X200.461Y106.214
G1 X200.49
G0 X200.49Y106.214
G1 X202.502Y104.202
G0 X202.502Y104.202
G1 X202.813Y103.948
G1 X203.157Y103.767
G1 X203.524Y103.658
G1 X203.902Y103.622
G1 X204.28Y103.658
G1 X204.647Y103.767
G1 X204.992Y103.948
G1 X205.302Y104.202
G1 X205.556Y104.512
G1 X205.737Y104.857
G1 X205.846Y105.223
G1 X205.882Y105.602
G1 X205.846Y105.98
G1 X205.737Y106.347
G1 X205.556Y106.691
G1 X205.302Y107.002
G0 X205.302Y107.002
G0 X205.302Y107.002
G1 X203.28Y109.024
G0 X203.28Y109.024
G1 X203.502Y109.501
G1 X203.683Y109.989
G1 X203.823Y110.484
G1 X203.923Y110.986
G1 X203.983Y111.49
G1 X204.003Y111.996
G1 X203.984Y112.501
G1 X203.926Y113.002
G1 X203.829Y113.497
G1 X203.694Y113.983
G1 X203.522Y114.459
G1 X203.311Y114.922
G1 X203.064Y115.37
G1 X202.78Y115.799
G1 X202.46Y116.209
G1 X202.103Y116.596
G1 X201.717Y116.953
G1 X201.308Y117.274
G1 X200.879Y117.559
G1 X200.432Y117.807
G1 X199.97Y118.018
G1 X199.494Y118.192
G1 X199.008Y118.328
G1 X198.513Y118.426
G1 X198.012Y118.485
G1 X197.508Y118.505
G1 X197.002Y118.486
G1 X196.497Y118.427
G1 X195.995Y118.328
G1 X195.499Y118.189
G1 X195.011Y118.009
G1 X194.534Y117.788
G0 X194.534Y117.788
G1 X194.516
G0 X194.534Y117.77
G1 X192.502Y119.802
G0 X192.502Y119.802
G1 X192.192Y120.054
G1 X191.847Y120.235
G1 X191.481Y120.343
G1 X191.103Y120.379
G1 X190.726Y120.342
G1 X190.359Y120.233
G1 X190.015Y120.052
G1 X189.705Y119.799
G1 X189.452Y119.489
G1 X189.271Y119.145
G1 X189.162Y118.778
G1 X189.125Y118.401
G1 X189.161Y118.023
G1 X189.269Y117.656
G1 X189.45Y117.312
G1 X189.702Y117.002
G0 X189.702Y117.002
G1 X191.726Y114.978
G0 X191.729Y109.011
G1 X191.712
G0 X191.712Y109.011
G1 X190.402Y107.702
G0 X191.729Y109.011
G1 X191.411Y109.729
G1 X191.183Y110.472
G1 X191.046Y111.232
G1 X191Y112
G1 X191.045Y112.768
G1 X191.181Y113.528
G1 X191.408Y114.271
G1 X191.726Y114.989
G0 X188.252Y123.202
G1 X188.563Y122.948
G1 X188.907Y122.767
G1 X189.274Y122.658
G1 X189.652Y122.622
G1 X190.03Y122.658
G1 X190.397Y122.767
G1 X190.742Y122.948
G1 X191.052Y123.202
G1 X191.306Y123.512
G1 X191.487Y123.857
G1 X191.596Y124.223
G1 X191.632Y124.602
G1 X191.596Y124.98
G1 X191.487Y125.347
G1 X191.306Y125.691
G1 X191.052Y126.002
G0 X191.052Y126.002
G0 X191.052Y126.002
G1 X189.03Y128.024
G0 X189.03Y128.024
G1 X189.252Y128.501
G1 X189.433Y128.989
G1 X189.573Y129.484
G1 X189.673Y129.986
G1 X189.733Y130.49
G1 X189.753Y130.996
G1 X189.734Y131.501
G1 X189.676Y132.002
G1 X189.579Y132.497
G1 X189.444Y132.983
G1 X189.272Y133.459
G1 X189.061Y133.922
G1 X188.814Y134.37
G1 X188.53Y134.799
G1 X188.21Y135.209
G1 X187.853Y135.596
G1 X187.467Y135.953
G1 X187.058Y136.274
G1 X186.629Y136.559
G1 X186.182Y136.807
G1 X185.72Y137.018
G1 X185.244Y137.192
G1 X184.758Y137.328
G1 X184.263Y137.426
G1 X183.762Y137.485
G1 X183.258Y137.505
G1 X182.752Y137.486
G1 X182.247Y137.427
G1 X181.745Y137.328
G1 X181.249Y137.189
G1 X180.761Y137.009
G1 X180.284Y136.788
G0 X180.284Y136.788
G1 X180.266
G0 X180.284Y136.77
G1 X178.252Y138.802
G0 X178.252Y138.802
G1 X177.942Y139.054
G1 X177.597Y139.235
G1 X177.231Y139.343
G1 X176.853Y139.379
G1 X176.476Y139.342
G1 X176.109Y139.233
G1 X175.765Y139.052
G1 X175.455Y138.799
G1 X175.202Y138.489
G1 X175.021Y138.145
G1 X174.912Y137.778
G1 X174.875Y137.401
G1 X174.911Y137.023
G1 X175.019Y136.656
G1 X175.2Y136.312
G1 X175.452Y136.002
G0 X175.452Y136.002
G1 X177.476Y133.978
G0 X177.479Y128.012
G1 X177.462
G0 X177.462Y128.012
G1 X176.152Y126.702
G0 X176.152Y126.702
G1 X175.899Y126.391
G1 X175.718Y126.047
G1 X175.61Y125.68
G1 X175.574Y125.302
G1 X175.611Y124.924
G1 X175.719Y124.558
G1 X175.901Y124.214
G1 X176.154Y123.903
G1 X176.464Y123.65
G1 X176.808Y123.469
G1 X177.175Y123.36
G1 X177.553Y123.323
G1 X177.931Y123.359
G1 X178.297Y123.468
G1 X178.642Y123.648
G1 X178.952Y123.902
G0 X178.952Y123.902
G1 X180.264Y125.214
G0 X180.264Y125.214
G1 Y125.229
G0 X180.264Y125.229
G1 X180.978Y124.912
G1 X181.717Y124.685
G1 X182.472Y124.549
G1 X183.236Y124.502
G1 X184Y124.545
G1 X184.756Y124.678
G1 X185.495Y124.901
G1 X186.211Y125.214
G0 X186.211Y125.214
G1 X186.24
G0 X186.24Y125.214
G1 X188.252Y123.202
G0 X186.231Y125.223
G0 X189.03Y128.024
G0 X199.902Y126.702
G1 X199.649Y126.391
G1 X199.468Y126.047
G1 X199.36Y125.68
G1 X199.324Y125.302
G1 X199.361Y124.924
G1 X199.469Y124.558
G1 X199.651Y124.214
G1 X199.904Y123.903
G1 X200.214Y123.65
G1 X200.558Y123.469
G1 X200.925Y123.36
G1 X201.303Y123.323
G1 X201.681Y123.359
G1 X202.047Y123.468
G1 X202.392Y123.648
G1 X202.702Y123.902
G0 X202.702Y123.902
G1 X204.014Y125.214
G0 X204.014Y125.214
G1 Y125.229
G0 X204.014Y125.229
G1 X204.728Y124.912
G1 X205.467Y124.685
G1 X206.222Y124.549
G1 X206.986Y124.502
G1 X207.75Y124.545
G1 X208.506Y124.678
G1 X209.245Y124.901
G1 X209.961Y125.214
G0 X209.961Y125.214
G1 X209.99
G0 X209.99Y125.214
G1 X212.002Y123.202
G0 X212.002Y123.202
G1 X212.313Y122.948
G1 X212.657Y122.767
G1 X213.024Y122.658
G1 X213.402Y122.622
G1 X213.78Y122.658
G1 X214.147Y122.767
G1 X214.492Y122.948
G1 X214.802Y123.202
G1 X215.056Y123.512
G1 X215.237Y123.857
G1 X215.346Y124.223
G1 X215.382Y124.602
G1 X215.346Y124.98
G1 X215.237Y125.347
G1 X215.056Y125.691
G1 X214.802Y126.002
G0 X214.802Y126.002
G0 X214.802Y126.002
G1 X212.78Y128.024
G0 X212.78Y128.024
G1 X213.002Y128.501
G1 X213.183Y128.989
G1 X213.323Y129.484
G1 X213.423Y129.986
G1 X213.483Y130.49
G1 X213.503Y130.996
G1 X213.484Y131.501
G1 X213.426Y132.002
G1 X213.329Y132.497
G1 X213.194Y132.983
G1 X213.022Y133.459
G1 X212.811Y133.922
G1 X212.564Y134.37
G1 X212.28Y134.799
G1 X211.96Y135.209
G1 X211.603Y135.596
G1 X211.217Y135.953
G1 X210.808Y136.274
G1 X210.379Y136.559
G1 X209.932Y136.807
G1 X209.47Y137.018
G1 X208.994Y137.192
G1 X208.508Y137.328
G1 X208.013Y137.426
G1 X207.512Y137.485
G1 X207.008Y137.505
G1 X206.502Y137.486
G1 X205.997Y137.427
G1 X205.495Y137.328
G1 X204.999Y137.189
G1 X204.511Y137.009
G1 X204.034Y136.788
G0 X204.034Y136.788
G1 X204.016
G0 X204.034Y136.77
G1 X202.002Y138.802
G0 X202.002Y138.802
G1 X201.692Y139.054
G1 X201.347Y139.235
G1 X200.981Y139.343
G1 X200.603Y139.379
G1 X200.226Y139.342
G1 X199.859Y139.233
G1 X199.515Y139.052
G1 X199.205Y138.799
G1 X198.952Y138.489
G1 X198.771Y138.145
G1 X198.662Y137.778
G1 X198.625Y137.401
G1 X198.661Y137.023
G1 X198.769Y136.656
G1 X198.95Y136.312
G1 X199.202Y136.002
G0 X199.202Y136.002
G1 X201.226Y133.978
G0 X201.229Y128.012
G1 X201.212
G0 X201.212Y128.012
G1 X199.902Y126.702
G0 X201.229Y128.012
G1 X200.911Y128.729
G1 X200.683Y129.472
G1 X200.546Y130.232
G1 X200.5Y131
G1 X200.545Y131.768
G1 X200.681Y132.528
G1 X200.908Y133.271
G1 X201.226Y133.989
G0 X212.78Y128.024
G0 X209.981Y125.224
G0 X211.501Y119.798
G1 X211.19Y120.052
G1 X210.846Y120.233
G1 X210.479Y120.342
G1 X210.101Y120.378
G1 X209.723Y120.342
G1 X209.356Y120.233
G1 X209.011Y120.052
G1 X208.701Y119.798
G1 X208.447Y119.488
G1 X208.266Y119.143
G1 X208.157Y118.777
G1 X208.121Y118.398
G1 X208.157Y118.02
G1 X208.266Y117.653
G1 X208.447Y117.309
G1 X208.701Y116.998
G0 X208.701Y116.998
G1 X210.725Y114.974
G0 X213.533Y117.767
G1 X211.501Y119.798
G0 X213.514Y117.785
G1 X213.533
G0 X213.533Y117.785
G1 X214.01Y118.006
G1 X214.498Y118.186
G1 X214.994Y118.325
G1 X215.495Y118.424
G1 X216Y118.483
G1 X216.506Y118.502
G1 X217.011Y118.481
G1 X217.512Y118.422
G1 X218.006Y118.325
G1 X218.493Y118.189
G1 X218.968Y118.015
G1 X219.431Y117.804
G1 X219.878Y117.556
G1 X220.307Y117.271
G1 X220.715Y116.95
G1 X221.102Y116.593
G1 X221.458Y116.206
G1 X221.779Y115.796
G1 X222.063Y115.366
G1 X222.31Y114.919
G1 X222.52Y114.456
G1 X222.693Y113.98
G1 X222.828Y113.494
G1 X222.924Y112.999
G1 X222.982Y112.498
G1 X223.002Y111.993
G1 X222.982Y111.487
G1 X222.922Y110.982
G1 X222.822Y110.481
G1 X222.682Y109.985
G1 X222.501Y109.498
G1 X222.279Y109.021
G0 X222.279Y109.021
G0 X222.279Y109.021
G1 X224.301Y106.999
G0 X224.301Y106.999
G0 X224.301Y106.998
G1 X224.554Y106.688
G1 X224.735Y106.343
G1 X224.843Y105.977
G1 X224.879Y105.599
G1 X224.842Y105.221
G1 X224.734Y104.855
G1 X224.553Y104.51
G1 X224.299Y104.2
G1 X223.989Y103.947
G1 X223.645Y103.765
G1 X223.278Y103.657
G1 X222.9Y103.62
G1 X222.522Y103.656
G1 X222.156Y103.765
G1 X221.811Y103.945
G1 X221.501Y104.198
G0 X221.501Y104.198
G1 X219.488Y106.211
G0 X219.488Y106.211
G1 X219.46
G0 X219.48Y106.219
G0 X213.513Y106.225
G1 Y106.21
G0 X213.513Y106.21
G1 X212.201Y104.898
G0 X212.201Y104.898
G1 X211.89Y104.646
G1 X211.546Y104.466
G1 X211.179Y104.358
G1 X210.802Y104.322
G1 X210.424Y104.359
G1 X210.058Y104.468
G1 X209.715Y104.649
G1 X209.405Y104.902
G1 X209.151Y105.212
G1 X208.97Y105.556
G1 X208.861Y105.922
G1 X208.825Y106.299
G1 X208.86Y106.677
G1 X208.968Y107.044
G1 X209.148Y107.388
G1 X209.401Y107.698
G0 X209.401Y107.698
G1 X210.711Y109.008
G0 X210.711Y109.008
G1 X210.728
G0 X210.728Y109.008
G1 X210.409Y109.726
G1 X210.181Y110.469
G1 X210.044Y111.229
G1 X209.999Y111.997
G1 X210.044Y112.765
G1 X210.18Y113.524
G1 X210.407Y114.268
G1 X210.725Y114.986
G0 X203.28Y109.024
G0 X200.481Y106.224
G0 X213.513Y106.225
G1 X214.227Y105.909
G1 X214.965Y105.682
G1 X215.721Y105.545
G1 X216.484Y105.499
G1 X217.248Y105.542
G1 X218.004Y105.675
G1 X218.744Y105.898
G1 X219.46Y106.211
G0 X221.702Y123.902
G1 X221.392Y123.648
G1 X221.047Y123.468
G1 X220.681Y123.359
G1 X220.303Y123.323
G1 X219.925Y123.36
G1 X219.558Y123.469
G1 X219.214Y123.65
G1 X218.904Y123.903
G1 X218.651Y124.214
G1 X218.469Y124.558
G1 X218.361Y124.924
G1 X218.324Y125.302
G1 X218.36Y125.68
G1 X218.468Y126.047
G1 X218.649Y126.391
G1 X218.902Y126.702
G0 X218.902Y126.702
G1 X220.212Y128.012
G0 X220.212Y128.012
G1 X220.229
G0 X220.229Y128.012
G1 X219.911Y128.729
G1 X219.683Y129.472
G1 X219.546Y130.232
G1 X219.5Y131
G1 X219.545Y131.768
G1 X219.681Y132.528
G1 X219.908Y133.271
G1 X220.226Y133.989
G0 X220.226Y133.978
G1 X218.202Y136.002
G0 X218.202Y136.002
G1 X217.95Y136.312
G1 X217.769Y136.656
G1 X217.661Y137.023
G1 X217.625Y137.401
G1 X217.662Y137.778
G1 X217.771Y138.145
G1 X217.952Y138.489
G1 X218.205Y138.799
G1 X218.515Y139.052
G1 X218.859Y139.233
G1 X219.226Y139.342
G1 X219.603Y139.379
G1 X219.981Y139.343
G1 X220.347Y139.235
G1 X220.692Y139.054
G1 X221.002Y138.802
G0 X221.002Y138.802
G1 X223.034Y136.77
G0 X223.034Y136.788
G1 X223.511Y137.009
G1 X223.999Y137.189
G1 X224.495Y137.328
G1 X224.997Y137.427
G1 X225.502Y137.486
G1 X226.008Y137.505
G1 X226.512Y137.485
G1 X227.013Y137.426
G1 X227.508Y137.328
G1 X227.994Y137.192
G1 X228.47Y137.018
G1 X228.932Y136.807
G1 X229.379Y136.559
G1 X229.808Y136.274
G1 X230.217Y135.953
G1 X230.603Y135.596
G1 X230.96Y135.209
G1 X231.28Y134.799
G1 X231.564Y134.37
G1 X231.811Y133.922
G1 X232.022Y133.459
G1 X232.194Y132.983
G1 X232.329Y132.497
G1 X232.426Y132.002
G1 X232.484Y131.501
G1 X232.503Y130.996
G1 X232.483Y130.49
G1 X232.423Y129.986
G1 X232.323Y129.484
G1 X232.183Y128.989
G1 X232.002Y128.501
G1 X231.78Y128.024
G0 X231.78Y128.024
G1 X233.802Y126.002
G0 X233.802Y126.002
G0 X233.802Y126.002
G1 X234.056Y125.691
G1 X234.237Y125.347
G1 X234.346Y124.98
G1 X234.382Y124.602
G1 X234.346Y124.223
G1 X234.237Y123.857
G1 X234.056Y123.512
G1 X233.802Y123.202
G1 X233.492Y122.948
G1 X233.147Y122.767
G1 X232.78Y122.658
G1 X232.402Y122.622
G1 X232.024Y122.658
G1 X231.657Y122.767
G1 X231.313Y122.948
G1 X231.002Y123.202
G0 X231.002Y123.202
G1 X228.99Y125.214
G0 X228.99Y125.214
G1 X228.961
G0 X228.981Y125.223
G0 X231.78Y128.024
G0 X223.014Y125.229
G1 Y125.214
G0 X223.014Y125.214
G1 X221.702Y123.902
G0 X223.014Y125.229
G1 X223.728Y124.912
G1 X224.467Y124.685
G1 X225.222Y124.549
G1 X225.986Y124.502
G1 X226.75Y124.545
G1 X227.506Y124.678
G1 X228.245Y124.901
G1 X228.961Y125.214
G0 X223.034Y136.788
G1 X223.016
G0 X221.702Y142.902
G1 X221.392Y142.648
G1 X221.047Y142.468
G1 X220.681Y142.359
G1 X220.303Y142.323
G1 X219.925Y142.36
G1 X219.558Y142.469
G1 X219.214Y142.65
G1 X218.904Y142.903
G1 X218.651Y143.214
G1 X218.469Y143.558
G1 X218.361Y143.924
G1 X218.324Y144.302
G1 X218.36Y144.68
G1 X218.468Y145.047
G1 X218.649Y145.391
G1 X218.902Y145.702
G0 X218.902Y145.702
G1 X220.212Y147.012
G0 X220.212Y147.012
G1 X220.229
G0 X220.229Y147.012
G1 X219.911Y147.729
G1 X219.683Y148.472
G1 X219.546Y149.232
G1 X219.5Y150
G1 X219.545Y150.768
G1 X219.681Y151.528
G1 X219.908Y152.271
G1 X220.226Y152.989
G0 X220.226Y152.978
G1 X218.202Y155.002
G0 X218.202Y155.002
G1 X217.95Y155.312
G1 X217.769Y155.656
G1 X217.661Y156.023
G1 X217.625Y156.401
G1 X217.662Y156.778
G1 X217.771Y157.145
G1 X217.952Y157.489
G1 X218.205Y157.799
G1 X218.515Y158.052
G1 X218.859Y158.233
G1 X219.226Y158.342
G1 X219.603Y158.379
G1 X219.981Y158.343
G1 X220.347Y158.235
G1 X220.692Y158.054
G1 X221.002Y157.802
G0 X221.002Y157.802
G1 X223.034Y155.77
G0 X223.034Y155.788
G1 X223.511Y156.009
G1 X223.999Y156.189
G1 X224.495Y156.328
G1 X224.997Y156.427
G1 X225.502Y156.486
G1 X226.008Y156.505
G1 X226.512Y156.485
G1 X227.013Y156.426
G1 X227.508Y156.328
G1 X227.994Y156.192
G1 X228.47Y156.018
G1 X228.932Y155.807
G1 X229.379Y155.559
G1 X229.808Y155.274
G1 X230.217Y154.953
G1 X230.603Y154.596
G1 X230.96Y154.209
G1 X231.28Y153.799
G1 X231.564Y153.37
G1 X231.811Y152.922
G1 X232.022Y152.459
G1 X232.194Y151.983
G1 X232.329Y151.497
G1 X232.426Y151.002
G1 X232.484Y150.501
G1 X232.503Y149.996
G1 X232.483Y149.49
G1 X232.423Y148.986
G1 X232.323Y148.484
G1 X232.183Y147.989
G1 X232.002Y147.501
G1 X231.78Y147.024
G0 X231.78Y147.024
G1 X233.802Y145.002
G0 X233.802Y145.002
G0 X233.802Y145.002
G1 X234.056Y144.691
G1 X234.237Y144.347
G1 X234.346Y143.98
G1 X234.382Y143.602
G1 X234.346Y143.223
G1 X234.237Y142.857
G1 X234.056Y142.512
G1 X233.802Y142.202
G1 X233.492Y141.948
G1 X233.147Y141.767
G1 X232.78Y141.658
G1 X232.402Y141.622
G1 X232.024Y141.658
G1 X231.657Y141.767
G1 X231.313Y141.948
G1 X231.002Y142.202
G0 X231.002Y142.202
G1 X228.99Y144.214
G0 X228.99Y144.214
G1 X228.961
G0 X228.981Y144.223
G0 X231.78Y147.024
G0 X223.014Y144.229
G1 Y144.214
G0 X223.014Y144.214
G1 X221.702Y142.902
G0 X223.014Y144.229
G1 X223.728Y143.912
G1 X224.467Y143.685
G1 X225.222Y143.549
G1 X225.986Y143.502
G1 X226.75Y143.545
G1 X227.506Y143.678
G1 X228.245Y143.901
G1 X228.961Y144.214
G0 X223.034Y155.788
G1 X223.016
G0 X224.211Y163.214
G1 X223.495Y162.901
G1 X222.756Y162.678
G1 X222Y162.545
G1 X221.236Y162.502
G1 X220.472Y162.549
G1 X219.717Y162.685
G1 X218.978Y162.912
G1 X218.264Y163.229
G0 X226.452Y180.902
G1 X226.142Y180.648
G1 X225.797Y180.467
G1 X225.431Y180.359
G1 X225.052Y180.322
G1 X224.674Y180.359
G1 X224.308Y180.467
G1 X223.963Y180.649
G1 X223.653Y180.902
G1 X223.399Y181.213
G1 X223.218Y181.557
G1 X223.109Y181.924
G1 X223.073Y182.302
G1 X223.109Y182.68
G1 X223.218Y183.047
G1 X223.399Y183.391
G1 X223.652Y183.702
G0 X223.652Y183.702
G1 X224.962Y185.012
G0 X224.962Y185.012
G1 X224.979
G0 X224.979Y185.012
G1 X224.661Y185.729
G1 X224.433Y186.472
G1 X224.296Y187.232
G1 X224.25Y188
G1 X224.295Y188.768
G1 X224.431Y189.528
G1 X224.658Y190.271
G1 X224.976Y190.989
G0 X224.976Y190.978
G1 X222.952Y193.002
G0 X222.952Y193.002
G1 X222.699Y193.312
G1 X222.518Y193.657
G1 X222.41Y194.023
G1 X222.374Y194.401
G1 X222.411Y194.779
G1 X222.519Y195.145
G1 X222.701Y195.49
G1 X222.954Y195.8
G1 X223.264Y196.053
G1 X223.608Y196.235
G1 X223.975Y196.343
G1 X224.353Y196.38
G1 X224.731Y196.344
G1 X225.097Y196.235
G1 X225.442Y196.055
G1 X225.752Y195.802
G0 X225.752Y195.802
G1 X227.784Y193.77
G0 X227.784Y193.788
G1 X228.261Y194.009
G1 X228.749Y194.189
G1 X229.245Y194.328
G1 X229.747Y194.427
G1 X230.252Y194.486
G1 X230.758Y194.505
G1 X231.262Y194.485
G1 X231.763Y194.426
G1 X232.258Y194.328
G1 X232.744Y194.192
G1 X233.22Y194.018
G1 X233.682Y193.807
G1 X234.129Y193.559
G1 X234.558Y193.274
G1 X234.967Y192.953
G1 X235.353Y192.596
G1 X235.71Y192.209
G1 X236.03Y191.799
G1 X236.314Y191.37
G1 X236.561Y190.922
G1 X236.772Y190.459
G1 X236.944Y189.983
G1 X237.079Y189.497
G1 X237.176Y189.002
G1 X237.234Y188.501
G1 X237.253Y187.996
G1 X237.233Y187.49
G1 X237.173Y186.986
G1 X237.073Y186.484
G1 X236.933Y185.989
G1 X236.752Y185.501
G1 X236.53Y185.024
G0 X236.53Y185.024
G0 X236.53Y185.024
G1 X238.552Y183.002
G0 X238.552Y183.002
G0 X238.552Y183.002
G1 X238.805Y182.691
G1 X238.986Y182.347
G1 X239.094Y181.98
G1 X239.13Y181.602
G1 X239.094Y181.224
G1 X238.985Y180.858
G1 X238.804Y180.514
G1 X238.551Y180.203
G1 X238.24Y179.95
G1 X237.896Y179.769
G1 X237.53Y179.66
G1 X237.152Y179.623
G1 X236.774Y179.659
G1 X236.407Y179.768
G1 X236.063Y179.948
G1 X235.752Y180.202
G0 X235.752Y180.202
G1 X233.74Y182.214
G0 X233.74Y182.214
G1 X233.711
G0 X233.731Y182.223
G0 X227.764Y182.229
G1 Y182.214
G0 X227.764Y182.214
G1 X226.452Y180.902
G0 X227.764Y182.229
G1 X228.478Y181.912
G1 X229.217Y181.685
G1 X229.972Y181.549
G1 X230.736Y181.502
G1 X231.5Y181.545
G1 X232.256Y181.678
G1 X232.995Y181.901
G1 X233.711Y182.214
G0 X227.784Y193.788
G1 X227.766
G0 X247.25Y170
G1 X246.948Y169.97
G1 X246.666Y169.882
G1 X246.411Y169.744
G1 X246.189Y169.561
G1 X246.006Y169.339
G1 X245.868Y169.084
G1 X245.78Y168.802
G1 X245.75Y168.5
G1 X245.78Y168.198
G1 X245.868Y167.916
G1 X246.006Y167.661
G1 X246.189Y167.439
G1 X246.411Y167.256
G1 X246.666Y167.118
G1 X246.948Y167.03
G1 X247.25Y167
G0 X247.25Y167
G1 X249.25
G0 X249.25Y167
G1 X249.552Y167.03
G1 X249.834Y167.118
G1 X250.089Y167.256
G1 X250.311Y167.439
G1 X250.494Y167.661
G1 X250.632Y167.916
G1 X250.72Y168.198
G1 X250.75Y168.5
G1 X250.72Y168.802
G1 X250.632Y169.084
G1 X250.494Y169.339
G1 X250.311Y169.561
G1 X250.089Y169.744
G1 X249.834Y169.882
G1 X249.552Y169.97
G1 X249.25Y170
G0 X249.25Y170
G1 X247.25
G0 X209.961Y144.214
G1 X209.245Y143.901
G1 X208.506Y143.678
G1 X207.75Y143.545
G1 X206.986Y143.502
G1 X206.222Y143.549
G1 X205.467Y143.685
G1 X204.728Y143.912
G1 X204.014Y144.229
G0 X177.476Y133.989
G1 X177.158Y133.271
G1 X176.931Y132.528
G1 X176.795Y131.768
G1 X176.75Y131
G1 X176.796Y130.232
G1 X176.933Y129.472
G1 X177.161Y128.729
G1 X177.479Y128.012
G0 X162.461Y125.214
G1 X161.745Y124.901
G1 X161.006Y124.678
G1 X160.25Y124.545
G1 X159.486Y124.502
G1 X158.722Y124.549
G1 X157.967Y124.685
G1 X157.228Y124.912
G1 X156.514Y125.229
G0 X136.002Y142.202
G1 X136.313Y141.948
G1 X136.657Y141.767
G1 X137.024Y141.658
G1 X137.402Y141.622
G1 X137.78Y141.658
G1 X138.147Y141.767
G1 X138.492Y141.948
G1 X138.802Y142.202
G1 X139.056Y142.512
G1 X139.237Y142.857
G1 X139.346Y143.223
G1 X139.382Y143.602
G1 X139.346Y143.98
G1 X139.237Y144.347
G1 X139.056Y144.691
G1 X138.802Y145.002
G0 X138.802Y145.002
G0 X138.802Y145.002
G1 X136.78Y147.024
G0 X136.78Y147.024
G1 X137.002Y147.501
G1 X137.183Y147.989
G1 X137.323Y148.484
G1 X137.423Y148.986
G1 X137.483Y149.49
G1 X137.503Y149.996
G1 X137.484Y150.501
G1 X137.426Y151.002
G1 X137.329Y151.497
G1 X137.194Y151.983
G1 X137.022Y152.459
G1 X136.811Y152.922
G1 X136.564Y153.37
G1 X136.28Y153.799
G1 X135.96Y154.209
G1 X135.603Y154.596
G1 X135.217Y154.953
G1 X134.808Y155.274
G1 X134.379Y155.559
G1 X133.932Y155.807
G1 X133.47Y156.018
G1 X132.994Y156.192
G1 X132.508Y156.328
G1 X132.013Y156.426
G1 X131.512Y156.485
G1 X131.008Y156.505
G1 X130.502Y156.486
G1 X129.997Y156.427
G1 X129.495Y156.328
G1 X128.999Y156.189
G1 X128.511Y156.009
G1 X128.034Y155.788
G0 X128.034Y155.788
G1 X128.016
G0 X128.034Y155.77
G1 X126.002Y157.802
G0 X126.002Y157.802
G1 X125.692Y158.055
G1 X125.347Y158.235
G1 X124.981Y158.344
G1 X124.603Y158.38
G1 X124.225Y158.343
G1 X123.858Y158.235
G1 X123.514Y158.053
G1 X123.204Y157.8
G1 X122.951Y157.49
G1 X122.769Y157.145
G1 X122.661Y156.779
G1 X122.624Y156.401
G1 X122.66Y156.023
G1 X122.768Y155.657
G1 X122.949Y155.312
G1 X123.202Y155.002
G0 X123.202Y155.002
G1 X125.226Y152.978
G0 X125.229Y147.012
G1 X125.212
G0 X125.212Y147.012
G1 X123.902Y145.702
G0 X123.902Y145.702
G1 X123.649Y145.391
G1 X123.468Y145.047
G1 X123.36Y144.68
G1 X123.324Y144.302
G1 X123.361Y143.924
G1 X123.469Y143.558
G1 X123.651Y143.214
G1 X123.904Y142.903
G1 X124.214Y142.65
G1 X124.558Y142.469
G1 X124.925Y142.36
G1 X125.303Y142.323
G1 X125.681Y142.359
G1 X126.047Y142.468
G1 X126.392Y142.648
G1 X126.702Y142.902
G0 X126.702Y142.902
G1 X128.014Y144.214
G0 X128.014Y144.214
G1 Y144.229
G0 X128.014Y144.229
G1 X128.728Y143.912
G1 X129.467Y143.685
G1 X130.222Y143.549
G1 X130.986Y143.502
G1 X131.75Y143.545
G1 X132.506Y143.678
G1 X133.245Y143.901
G1 X133.961Y144.214
G0 X133.961Y144.214
G1 X133.99
G0 X133.99Y144.214
G1 X136.002Y142.202
G0 X133.981Y144.223
G0 X136.78Y147.024
G0 X144.229Y147.015
G1 X143.911Y147.733
G1 X143.683Y148.476
G1 X143.546Y149.235
G1 X143.5Y150.003
G1 X143.545Y150.771
G1 X143.681Y151.531
G1 X143.908Y152.274
G1 X144.226Y152.992
G0 X140.952Y161.902
G1 X140.642Y161.648
G1 X140.297Y161.468
G1 X139.931Y161.359
G1 X139.553Y161.323
G1 X139.175Y161.36
G1 X138.808Y161.469
G1 X138.464Y161.65
G1 X138.154Y161.903
G1 X137.901Y162.214
G1 X137.719Y162.558
G1 X137.611Y162.924
G1 X137.574Y163.302
G1 X137.61Y163.68
G1 X137.718Y164.047
G1 X137.899Y164.391
G1 X138.152Y164.702
G0 X138.152Y164.702
G1 X139.462Y166.012
G0 X139.462Y166.012
G1 X139.479
G0 X139.479Y166.012
G1 X139.161Y166.729
G1 X138.933Y167.472
G1 X138.796Y168.232
G1 X138.75Y169
G1 X138.795Y169.768
G1 X138.931Y170.528
G1 X139.158Y171.271
G1 X139.476Y171.989
G0 X132.03Y166.024
G0 X129.231Y163.224
G0 X140.952Y161.902
G1 X142.264Y163.214
G0 X142.264Y163.214
G1 Y163.229
G0 X142.264Y163.229
G1 X142.978Y162.912
G1 X143.717Y162.685
G1 X144.472Y162.549
G1 X145.236Y162.502
G1 X146Y162.545
G1 X146.756Y162.678
G1 X147.495Y162.901
G1 X148.211Y163.214
G0 X167.231Y163.223
G0 X170.03Y166.024
G0 X176.152Y164.702
G1 X175.899Y164.391
G1 X175.718Y164.047
G1 X175.61Y163.68
G1 X175.574Y163.302
G1 X175.611Y162.924
G1 X175.719Y162.558
G1 X175.901Y162.214
G1 X176.154Y161.903
G1 X176.464Y161.65
G1 X176.808Y161.469
G1 X177.175Y161.36
G1 X177.553Y161.323
G1 X177.931Y161.359
G1 X178.297Y161.468
G1 X178.642Y161.648
G1 X178.952Y161.902
G0 X178.952Y161.902
G1 X180.264Y163.214
G0 X180.264Y163.214
G1 Y163.229
G0 X180.264Y163.229
G1 X180.978Y162.912
G1 X181.717Y162.685
G1 X182.472Y162.549
G1 X183.236Y162.502
G1 X184Y162.545
G1 X184.756Y162.678
G1 X185.495Y162.901
G1 X186.211Y163.214
G0 X177.479Y166.012
G1 X177.462
G0 X177.462Y166.012
G1 X176.152Y164.702
G0 X177.479Y166.012
G1 X177.161Y166.729
G1 X176.933Y167.472
G1 X176.796Y168.232
G1 X176.75Y169
G1 X176.795Y169.768
G1 X176.931Y170.528
G1 X177.158Y171.271
G1 X177.476Y171.989
G0 X177.476Y171.978
G1 X175.452Y174.002
G0 X175.452Y174.002
G1 X175.199Y174.312
G1 X175.018Y174.657
G1 X174.91Y175.023
G1 X174.874Y175.401
G1 X174.911Y175.779
G1 X175.019Y176.145
G1 X175.201Y176.49
G1 X175.454Y176.8
G1 X175.764Y177.053
G1 X176.108Y177.235
G1 X176.475Y177.343
G1 X176.853Y177.38
G1 X177.231Y177.344
G1 X177.597Y177.235
G1 X177.942Y177.055
G1 X178.252Y176.802
G0 X180.266Y174.788
G1 X180.284
G0 X186.979Y185.012
G1 X186.661Y185.729
G1 X186.433Y186.472
G1 X186.296Y187.232
G1 X186.25Y188
G1 X186.295Y188.768
G1 X186.431Y189.528
G1 X186.658Y190.271
G1 X186.976Y190.989
G0 X148.976Y190.989
G1 X148.658Y190.271
G1 X148.431Y189.528
G1 X148.295Y188.768
G1 X148.25Y188
G1 X148.296Y187.232
G1 X148.433Y186.472
G1 X148.661Y185.729
G1 X148.979Y185.012
G0 X110.979Y185.012
G1 X110.661Y185.729
G1 X110.433Y186.472
G1 X110.296Y187.232
G1 X110.25Y188
G1 X110.295Y188.768
G1 X110.431Y189.528
G1 X110.658Y190.271
G1 X110.976Y190.989
G0 X103.53Y185.024
G1 X103.752Y185.501
G1 X103.933Y185.989
G1 X104.074Y186.484
G1 X104.173Y186.986
G1 X104.233Y187.49
G1 X104.253Y187.996
G1 X104.234Y188.501
G1 X104.176Y189.002
G1 X104.079Y189.497
G1 X103.944Y189.983
G1 X103.772Y190.459
G1 X103.561Y190.922
G1 X103.314Y191.37
G1 X103.03Y191.799
G1 X102.71Y192.209
G1 X102.353Y192.596
G1 X101.967Y192.953
G1 X101.558Y193.274
G1 X101.129Y193.559
G1 X100.682Y193.807
G1 X100.22Y194.018
G1 X99.744Y194.192
G1 X99.258Y194.328
G1 X98.763Y194.426
G1 X98.262Y194.485
G1 X97.758Y194.505
G1 X97.252Y194.486
G1 X96.747Y194.427
G1 X96.245Y194.328
G1 X95.749Y194.189
G1 X95.261Y194.009
G1 X94.784Y193.788
G0 X94.784Y193.788
G1 X94.766
G0 X94.784Y193.77
G1 X92.752Y195.802
G0 X92.752Y195.802
G1 X92.442Y196.055
G1 X92.097Y196.237
G1 X91.73Y196.345
G1 X91.352Y196.382
G1 X90.974Y196.345
G1 X90.607Y196.237
G1 X90.263Y196.055
G1 X89.952Y195.802
G1 X89.699Y195.491
G1 X89.517Y195.147
G1 X89.409Y194.78
G1 X89.372Y194.402
G1 X89.409Y194.023
G1 X89.517Y193.657
G1 X89.699Y193.312
G1 X89.952Y193.002
G0 X89.952Y193.002
G1 X91.976Y190.978
G0 X91.979Y185.012
G1 X91.962
G0 X91.962Y185.012
G1 X90.652Y183.702
G0 X90.652Y183.702
G1 X90.399Y183.391
G1 X90.218Y183.047
G1 X90.109Y182.68
G1 X90.073Y182.302
G1 X90.109Y181.924
G1 X90.218Y181.557
G1 X90.399Y181.213
G1 X90.653Y180.902
G1 X90.963Y180.649
G1 X91.308Y180.467
G1 X91.674Y180.359
G1 X92.053Y180.322
G1 X92.431Y180.359
G1 X92.797Y180.467
G1 X93.142Y180.648
G1 X93.452Y180.902
G0 X93.452Y180.902
G1 X94.764Y182.214
G0 X94.764Y182.214
G1 Y182.229
G0 X94.764Y182.229
G1 X95.478Y181.912
G1 X96.217Y181.685
G1 X96.972Y181.549
G1 X97.736Y181.502
G1 X98.5Y181.545
G1 X99.256Y181.678
G1 X99.995Y181.901
G1 X100.711Y182.214
G0 X100.711Y182.214
G1 X100.74
G0 X100.74Y182.214
G1 X102.752Y180.202
G0 X102.752Y180.202
G1 X103.063Y179.948
G1 X103.407Y179.767
G1 X103.774Y179.659
G1 X104.152Y179.622
G1 X104.53Y179.659
G1 X104.897Y179.767
G1 X105.241Y179.949
G1 X105.552Y180.202
G1 X105.805Y180.513
G1 X105.986Y180.857
G1 X106.095Y181.224
G1 X106.132Y181.602
G1 X106.095Y181.98
G1 X105.987Y182.347
G1 X105.806Y182.691
G1 X105.552Y183.002
G0 X105.552Y183.002
G0 X105.552Y183.002
G1 X103.53Y185.024
G0 X103.53Y185.024
G0 X100.731Y182.224
G0 X91.979Y185.012
G1 X91.661Y185.729
G1 X91.433Y186.472
G1 X91.296Y187.232
G1 X91.25Y188
G1 X91.295Y188.768
G1 X91.431Y189.528
G1 X91.658Y190.271
G1 X91.976Y190.989
G0 X84.53Y185.024
G1 X84.752Y185.501
G1 X84.933Y185.989
G1 X85.074Y186.484
G1 X85.173Y186.986
G1 X85.233Y187.49
G1 X85.253Y187.996
G1 X85.234Y188.501
G1 X85.176Y189.002
G1 X85.079Y189.497
G1 X84.944Y189.983
G1 X84.772Y190.459
G1 X84.561Y190.922
G1 X84.314Y191.37
G1 X84.03Y191.799
G1 X83.71Y192.209
G1 X83.353Y192.596
G1 X82.967Y192.953
G1 X82.558Y193.274
G1 X82.129Y193.559
G1 X81.682Y193.807
G1 X81.22Y194.018
G1 X80.744Y194.192
G1 X80.258Y194.328
G1 X79.763Y194.426
G1 X79.262Y194.485
G1 X78.758Y194.505
G1 X78.252Y194.486
G1 X77.747Y194.427
G1 X77.245Y194.328
G1 X76.749Y194.189
G1 X76.261Y194.009
G1 X75.784Y193.788
G0 X75.784Y193.788
G1 X75.766
G0 X75.784Y193.77
G1 X73.752Y195.802
G0 X73.752Y195.802
G1 X73.442Y196.055
G1 X73.097Y196.237
G1 X72.73Y196.345
G1 X72.352Y196.382
G1 X71.974Y196.345
G1 X71.607Y196.237
G1 X71.263Y196.055
G1 X70.952Y195.802
G1 X70.699Y195.491
G1 X70.517Y195.147
G1 X70.409Y194.78
G1 X70.372Y194.402
G1 X70.409Y194.023
G1 X70.517Y193.657
G1 X70.699Y193.312
G1 X70.952Y193.002
G0 X70.952Y193.002
G1 X72.976Y190.978
G0 X72.979Y185.012
G1 X72.962
G0 X72.962Y185.012
G1 X71.652Y183.702
G0 X71.652Y183.702
G1 X71.399Y183.391
G1 X71.218Y183.047
G1 X71.109Y182.68
G1 X71.073Y182.302
G1 X71.109Y181.924
G1 X71.218Y181.557
G1 X71.399Y181.213
G1 X71.653Y180.902
G1 X71.963Y180.649
G1 X72.308Y180.467
G1 X72.674Y180.359
G1 X73.053Y180.322
G1 X73.431Y180.359
G1 X73.797Y180.467
G1 X74.142Y180.648
G1 X74.452Y180.902
G0 X74.452Y180.902
G1 X75.764Y182.214
G0 X75.764Y182.214
G1 Y182.229
G0 X75.764Y182.229
G1 X76.478Y181.912
G1 X77.217Y181.685
G1 X77.972Y181.549
G1 X78.736Y181.502
G1 X79.5Y181.545
G1 X80.256Y181.678
G1 X80.995Y181.901
G1 X81.711Y182.214
G0 X81.711Y182.214
G1 X81.74
G0 X81.74Y182.214
G1 X83.752Y180.202
G0 X83.752Y180.202
G1 X84.063Y179.948
G1 X84.407Y179.767
G1 X84.774Y179.659
G1 X85.152Y179.622
G1 X85.53Y179.659
G1 X85.897Y179.767
G1 X86.241Y179.949
G1 X86.552Y180.202
G1 X86.805Y180.513
G1 X86.986Y180.857
G1 X87.095Y181.224
G1 X87.132Y181.602
G1 X87.095Y181.98
G1 X86.987Y182.347
G1 X86.806Y182.691
G1 X86.552Y183.002
G0 X86.552Y183.002
G0 X86.552Y183.002
G1 X84.53Y185.024
G0 X84.53Y185.024
G0 X81.731Y182.224
G0 X83.252Y176.802
G1 X85.284Y174.77
G0 X85.284Y174.788
G1 X85.761Y175.009
G1 X86.249Y175.189
G1 X86.745Y175.328
G1 X87.247Y175.427
G1 X87.752Y175.486
G1 X88.258Y175.505
G1 X88.762Y175.485
G1 X89.263Y175.426
G1 X89.758Y175.328
G1 X90.244Y175.192
G1 X90.72Y175.018
G1 X91.182Y174.807
G1 X91.629Y174.559
G1 X92.058Y174.274
G1 X92.467Y173.953
G1 X92.853Y173.596
G1 X93.21Y173.209
G1 X93.53Y172.799
G1 X93.814Y172.37
G1 X94.061Y171.922
G1 X94.272Y171.459
G1 X94.444Y170.983
G1 X94.579Y170.497
G1 X94.676Y170.002
G1 X94.734Y169.501
G1 X94.753Y168.996
G1 X94.733Y168.49
G1 X94.673Y167.986
G1 X94.574Y167.484
G1 X94.433Y166.989
G1 X94.252Y166.501
G1 X94.03Y166.024
G0 X94.03Y166.024
G1 X96.052Y164.002
G0 X96.052Y164.002
G0 X96.052Y164.002
G1 X96.306Y163.691
G1 X96.487Y163.347
G1 X96.596Y162.98
G1 X96.632Y162.602
G1 X96.596Y162.223
G1 X96.487Y161.857
G1 X96.306Y161.512
G1 X96.052Y161.202
G1 X95.742Y160.948
G1 X95.397Y160.767
G1 X95.03Y160.658
G1 X94.652Y160.622
G1 X94.274Y160.658
G1 X93.907Y160.767
G1 X93.563Y160.948
G1 X93.252Y161.202
G0 X93.252Y161.202
G1 X91.24Y163.214
G0 X91.24Y163.214
G1 X91.211
G0 X91.231Y163.223
G0 X94.03Y166.024
G0 X101.479Y166.012
G1 X101.161Y166.729
G1 X100.933Y167.472
G1 X100.796Y168.232
G1 X100.75Y169
G1 X100.795Y169.768
G1 X100.931Y170.528
G1 X101.158Y171.271
G1 X101.476Y171.989
G0 X85.284Y174.788
G1 X85.266
G0 X83.252Y176.802
G1 X82.942Y177.055
G1 X82.597Y177.237
G1 X82.23Y177.345
G1 X81.852Y177.382
G1 X81.474Y177.345
G1 X81.107Y177.237
G1 X80.763Y177.055
G1 X80.452Y176.802
G1 X80.199Y176.491
G1 X80.017Y176.147
G1 X79.909Y175.78
G1 X79.872Y175.402
G1 X79.909Y175.023
G1 X80.017Y174.657
G1 X80.199Y174.312
G1 X80.452Y174.002
G0 X80.452Y174.002
G1 X82.476Y171.978
G0 X82.479Y166.012
G1 X82.462
G0 X82.462Y166.012
G1 X81.152Y164.702
G0 X81.152Y164.702
G1 X80.899Y164.391
G1 X80.718Y164.047
G1 X80.61Y163.68
G1 X80.574Y163.302
G1 X80.611Y162.924
G1 X80.719Y162.558
G1 X80.901Y162.214
G1 X81.154Y161.903
G1 X81.464Y161.65
G1 X81.808Y161.469
G1 X82.175Y161.36
G1 X82.553Y161.323
G1 X82.931Y161.359
G1 X83.297Y161.468
G1 X83.642Y161.648
G1 X83.952Y161.902
G0 X83.952Y161.902
G1 X85.264Y163.214
G0 X85.264Y163.214
G1 Y163.229
G0 X85.264Y163.229
G1 X85.978Y162.912
G1 X86.717Y162.685
G1 X87.472Y162.549
G1 X88.236Y162.502
G1 X89Y162.545
G1 X89.756Y162.678
G1 X90.495Y162.901
G1 X91.211Y163.214
G0 X82.479Y166.012
G1 X82.161Y166.729
G1 X81.933Y167.472
G1 X81.796Y168.232
G1 X81.75Y169
G1 X81.795Y169.768
G1 X81.931Y170.528
G1 X82.158Y171.271
G1 X82.476Y171.989
G0 X75.03Y166.024
G1 X75.252Y166.501
G1 X75.433Y166.989
G1 X75.574Y167.484
G1 X75.673Y167.986
G1 X75.733Y168.49
G1 X75.753Y168.996
G1 X75.734Y169.501
G1 X75.676Y170.002
G1 X75.579Y170.497
G1 X75.444Y170.983
G1 X75.272Y171.459
G1 X75.061Y171.922
G1 X74.814Y172.37
G1 X74.53Y172.799
G1 X74.21Y173.209
G1 X73.853Y173.596
G1 X73.467Y173.953
G1 X73.058Y174.274
G1 X72.629Y174.559
G1 X72.182Y174.807
G1 X71.72Y175.018
G1 X71.244Y175.192
G1 X70.758Y175.328
G1 X70.263Y175.426
G1 X69.762Y175.485
G1 X69.258Y175.505
G1 X68.752Y175.486
G1 X68.247Y175.427
G1 X67.745Y175.328
G1 X67.249Y175.189
G1 X66.761Y175.009
G1 X66.284Y174.788
G0 X66.284Y174.788
G1 X66.266
G0 X66.284Y174.77
G1 X64.252Y176.802
G0 X64.252Y176.802
G1 X63.942Y177.055
G1 X63.597Y177.237
G1 X63.23Y177.345
G1 X62.852Y177.382
G1 X62.474Y177.345
G1 X62.107Y177.237
G1 X61.763Y177.055
G1 X61.452Y176.802
G1 X61.199Y176.491
G1 X61.017Y176.147
G1 X60.909Y175.78
G1 X60.872Y175.402
G1 X60.909Y175.023
G1 X61.017Y174.657
G1 X61.199Y174.312
G1 X61.452Y174.002
G0 X61.452Y174.002
G1 X63.476Y171.978
G0 X63.479Y166.012
G1 X63.462
G0 X63.462Y166.012
G1 X62.152Y164.702
G0 X62.152Y164.702
G1 X61.899Y164.391
G1 X61.718Y164.047
G1 X61.61Y163.68
G1 X61.574Y163.302
G1 X61.611Y162.924
G1 X61.719Y162.558
G1 X61.901Y162.214
G1 X62.154Y161.903
G1 X62.464Y161.65
G1 X62.808Y161.469
G1 X63.175Y161.36
G1 X63.553Y161.323
G1 X63.931Y161.359
G1 X64.297Y161.468
G1 X64.642Y161.648
G1 X64.952Y161.902
G0 X64.952Y161.902
G1 X66.264Y163.214
G0 X66.264Y163.214
G1 Y163.229
G0 X66.264Y163.229
G1 X66.978Y162.912
G1 X67.717Y162.685
G1 X68.472Y162.549
G1 X69.236Y162.502
G1 X70Y162.545
G1 X70.756Y162.678
G1 X71.495Y162.901
G1 X72.211Y163.214
G0 X72.211Y163.214
G1 X72.24
G0 X72.24Y163.214
G1 X74.252Y161.202
G0 X74.252Y161.202
G1 X74.563Y160.948
G1 X74.907Y160.767
G1 X75.274Y160.658
G1 X75.652Y160.622
G1 X76.03Y160.658
G1 X76.397Y160.767
G1 X76.742Y160.948
G1 X77.052Y161.202
G1 X77.306Y161.512
G1 X77.487Y161.857
G1 X77.596Y162.223
G1 X77.632Y162.602
G1 X77.596Y162.98
G1 X77.487Y163.347
G1 X77.306Y163.691
G1 X77.052Y164.002
G0 X77.052Y164.002
G0 X77.052Y164.002
G1 X75.03Y166.024
G0 X75.03Y166.024
G0 X72.231Y163.224
G0 X69.002Y157.802
G1 X68.692Y158.055
G1 X68.347Y158.235
G1 X67.981Y158.344
G1 X67.603Y158.38
G1 X67.225Y158.343
G1 X66.858Y158.235
G1 X66.514Y158.053
G1 X66.204Y157.8
G1 X65.951Y157.49
G1 X65.769Y157.145
G1 X65.661Y156.779
G1 X65.624Y156.401
G1 X65.66Y156.023
G1 X65.768Y155.657
G1 X65.949Y155.312
G1 X66.202Y155.002
G0 X66.202Y155.002
G1 X68.226Y152.978
G0 X71.034Y155.77
G1 X69.002Y157.802
G0 X71.016Y155.788
G1 X71.034
G0 X71.034Y155.788
G1 X71.511Y156.009
G1 X71.999Y156.189
G1 X72.495Y156.328
G1 X72.997Y156.427
G1 X73.502Y156.486
G1 X74.008Y156.505
G1 X74.512Y156.485
G1 X75.013Y156.426
G1 X75.508Y156.328
G1 X75.994Y156.192
G1 X76.47Y156.018
G1 X76.932Y155.807
G1 X77.379Y155.559
G1 X77.808Y155.274
G1 X78.217Y154.953
G1 X78.603Y154.596
G1 X78.96Y154.209
G1 X79.28Y153.799
G1 X79.564Y153.37
G1 X79.811Y152.922
G1 X80.022Y152.459
G1 X80.194Y151.983
G1 X80.329Y151.497
G1 X80.426Y151.002
G1 X80.484Y150.501
G1 X80.503Y149.996
G1 X80.483Y149.49
G1 X80.423Y148.986
G1 X80.324Y148.484
G1 X80.183Y147.989
G1 X80.002Y147.501
G1 X79.78Y147.024
G0 X79.78Y147.024
G1 X81.802Y145.002
G0 X81.802Y145.002
G0 X81.802Y145.002
G1 X82.056Y144.691
G1 X82.237Y144.347
G1 X82.346Y143.98
G1 X82.382Y143.602
G1 X82.346Y143.223
G1 X82.237Y142.857
G1 X82.056Y142.512
G1 X81.802Y142.202
G1 X81.492Y141.948
G1 X81.147Y141.767
G1 X80.78Y141.658
G1 X80.402Y141.622
G1 X80.024Y141.658
G1 X79.657Y141.767
G1 X79.313Y141.948
G1 X79.002Y142.202
G0 X79.002Y142.202
G1 X76.99Y144.214
G0 X76.99Y144.214
G1 X76.961
G0 X76.981Y144.223
G0 X79.78Y147.024
G0 X87.229Y147.012
G1 X86.911Y147.729
G1 X86.683Y148.472
G1 X86.546Y149.232
G1 X86.5Y150
G1 X86.545Y150.768
G1 X86.681Y151.528
G1 X86.908Y152.271
G1 X87.226Y152.989
G0 X71.014Y144.229
G1 Y144.214
G0 X71.014Y144.214
G1 X69.702Y142.902
G0 X69.702Y142.902
G1 X69.392Y142.648
G1 X69.047Y142.468
G1 X68.681Y142.359
G1 X68.303Y142.323
G1 X67.925Y142.36
G1 X67.558Y142.469
G1 X67.214Y142.65
G1 X66.904Y142.903
G1 X66.651Y143.214
G1 X66.469Y143.558
G1 X66.361Y143.924
G1 X66.324Y144.302
G1 X66.36Y144.68
G1 X66.468Y145.047
G1 X66.649Y145.391
G1 X66.902Y145.702
G0 X66.902Y145.702
G1 X68.212Y147.012
G0 X68.212Y147.012
G1 X68.229
G0 X68.229Y147.012
G1 X67.911Y147.729
G1 X67.683Y148.472
G1 X67.546Y149.232
G1 X67.5Y150
G1 X67.545Y150.768
G1 X67.681Y151.528
G1 X67.908Y152.271
G1 X68.226Y152.989
G0 X71.014Y144.229
G1 X71.728Y143.912
G1 X72.467Y143.685
G1 X73.222Y143.549
G1 X73.986Y143.502
G1 X74.75Y143.545
G1 X75.506Y143.678
G1 X76.245Y143.901
G1 X76.961Y144.214
G0 X77.726Y133.989
G1 X77.408Y133.271
G1 X77.181Y132.528
G1 X77.045Y131.768
G1 X77Y131
G1 X77.046Y130.232
G1 X77.183Y129.472
G1 X77.411Y128.729
G1 X77.729Y128.012
G0 X114.981Y144.223
G0 X117.78Y147.024
G0 X125.229Y147.012
G1 X124.911Y147.729
G1 X124.683Y148.472
G1 X124.546Y149.232
G1 X124.5Y150
G1 X124.545Y150.768
G1 X124.681Y151.528
G1 X124.908Y152.271
G1 X125.226Y152.989
G0 X63.479Y166.012
G1 X63.161Y166.729
G1 X62.933Y167.472
G1 X62.796Y168.232
G1 X62.75Y169
G1 X62.795Y169.768
G1 X62.931Y170.528
G1 X63.158Y171.271
G1 X63.476Y171.989
G0 X64.752Y180.202
G1 X65.063Y179.948
G1 X65.407Y179.767
G1 X65.774Y179.659
G1 X66.152Y179.622
G1 X66.53Y179.659
G1 X66.897Y179.767
G1 X67.241Y179.949
G1 X67.552Y180.202
G1 X67.805Y180.513
G1 X67.986Y180.857
G1 X68.095Y181.224
G1 X68.132Y181.602
G1 X68.095Y181.98
G1 X67.987Y182.347
G1 X67.806Y182.691
G1 X67.552Y183.002
G0 X67.552Y183.002
G0 X67.552Y183.002
G1 X65.53Y185.024
G0 X65.53Y185.024
G1 X65.752Y185.501
G1 X65.933Y185.989
G1 X66.074Y186.484
G1 X66.173Y186.986
G1 X66.233Y187.49
G1 X66.253Y187.996
G1 X66.234Y188.501
G1 X66.176Y189.002
G1 X66.079Y189.497
G1 X65.944Y189.983
G1 X65.772Y190.459
G1 X65.561Y190.922
G1 X65.314Y191.37
G1 X65.03Y191.799
G1 X64.71Y192.209
G1 X64.353Y192.596
G1 X63.967Y192.953
G1 X63.558Y193.274
G1 X63.129Y193.559
G1 X62.682Y193.807
G1 X62.22Y194.018
G1 X61.744Y194.192
G1 X61.258Y194.328
G1 X60.763Y194.426
G1 X60.262Y194.485
G1 X59.758Y194.505
G1 X59.252Y194.486
G1 X58.747Y194.427
G1 X58.245Y194.328
G1 X57.749Y194.189
G1 X57.261Y194.009
G1 X56.784Y193.788
G0 X56.784Y193.788
G1 X56.766
G0 X56.784Y193.77
G1 X54.752Y195.802
G0 X54.752Y195.802
G1 X54.442Y196.055
G1 X54.097Y196.237
G1 X53.73Y196.345
G1 X53.352Y196.382
G1 X52.974Y196.345
G1 X52.607Y196.237
G1 X52.263Y196.055
G1 X51.952Y195.802
G1 X51.699Y195.491
G1 X51.517Y195.147
G1 X51.409Y194.78
G1 X51.372Y194.402
G1 X51.409Y194.023
G1 X51.517Y193.657
G1 X51.699Y193.312
G1 X51.952Y193.002
G0 X51.952Y193.002
G1 X53.976Y190.978
G0 X53.979Y185.012
G1 X53.962
G0 X53.962Y185.012
G1 X52.652Y183.702
G0 X52.652Y183.702
G1 X52.399Y183.391
G1 X52.218Y183.047
G1 X52.109Y182.68
G1 X52.073Y182.302
G1 X52.109Y181.924
G1 X52.218Y181.557
G1 X52.399Y181.213
G1 X52.653Y180.902
G1 X52.963Y180.649
G1 X53.308Y180.467
G1 X53.674Y180.359
G1 X54.052Y180.322
G1 X54.431Y180.359
G1 X54.797Y180.467
G1 X55.142Y180.648
G1 X55.452Y180.902
G0 X55.452Y180.902
G1 X56.764Y182.214
G0 X56.764Y182.214
G1 Y182.229
G0 X56.764Y182.229
G1 X57.478Y181.912
G1 X58.217Y181.685
G1 X58.972Y181.549
G1 X59.736Y181.502
G1 X60.5Y181.545
G1 X61.256Y181.678
G1 X61.995Y181.901
G1 X62.711Y182.214
G0 X62.711Y182.214
G1 X62.74
G0 X62.74Y182.214
G1 X64.752Y180.202
G0 X62.731Y182.223
G0 X65.53Y185.024
G0 X72.979Y185.012
G1 X72.661Y185.729
G1 X72.433Y186.472
G1 X72.296Y187.232
G1 X72.25Y188
G1 X72.295Y188.768
G1 X72.431Y189.528
G1 X72.658Y190.271
G1 X72.976Y190.989
G0 X53.976Y190.989
G1 X53.658Y190.271
G1 X53.431Y189.528
G1 X53.295Y188.768
G1 X53.25Y188
G1 X53.296Y187.232
G1 X53.433Y186.472
G1 X53.661Y185.729
G1 X53.979Y185.012
G0 X247.25Y113
G1 X246.948Y112.97
G1 X246.666Y112.882
G1 X246.411Y112.744
G1 X246.189Y112.561
G1 X246.006Y112.339
G1 X245.868Y112.084
G1 X245.78Y111.802
G1 X245.75Y111.5
G1 X245.78Y111.198
G1 X245.868Y110.916
G1 X246.006Y110.661
G1 X246.189Y110.439
G1 X246.411Y110.256
G1 X246.666Y110.118
G1 X246.948Y110.03
G1 X247.25Y110
G0 X247.25Y110
G1 X249.25
G0 X249.25Y110
G1 X249.552Y110.03
G1 X249.834Y110.118
G1 X250.089Y110.256
G1 X250.311Y110.439
G1 X250.494Y110.661
G1 X250.632Y110.916
G1 X250.72Y111.198
G1 X250.75Y111.5
G1 X250.72Y111.802
G1 X250.632Y112.084
G1 X250.494Y112.339
G1 X250.311Y112.561
G1 X250.089Y112.744
G1 X249.834Y112.882
G1 X249.552Y112.97
G1 X249.25Y113
G0 X249.25Y113
G1 X247.25
M9
G1 S0
M5
G90
; return to user-defined finish pos
G0 X0Y0
M2
