; LightBurn 1.7.06
; GRBL device profile, absolute coords
; Bounds: X120.67 Y119.26 to X195.67 Y219.26
G00 G17 G40 G21 G54
G90
M4
; Cut @ 600 mm/min, 95% power
M9
G0 X123.172Y119.264
; Layer VirtArray
G1 X122.917Y119.277S950F600
G1 X122.669Y119.314
G1 X122.429Y119.376
G1 X122.199Y119.46
G1 X121.775Y119.691
G1 X121.405Y119.996
G1 X121.099Y120.366
G1 X120.869Y120.791
G1 X120.785Y121.02
G1 X120.723Y121.26
G1 X120.685Y121.508
G1 X120.672Y121.764
G0 X120.672Y121.764
G1 Y216.764
G0 X120.672Y216.764
G1 X120.685Y217.019
G1 X120.723Y217.268
G1 X120.785Y217.507
G1 X120.869Y217.737
G1 X121.099Y218.161
G1 X121.405Y218.531
G1 X121.775Y218.837
G1 X122.199Y219.067
G1 X122.429Y219.151
G1 X122.669Y219.213
G1 X122.917Y219.251
G1 X123.172Y219.264
G0 X123.172Y219.264
G1 X193.172
G0 X193.172Y219.264
G1 X193.428Y219.251
G1 X193.676Y219.213
G1 X193.916Y219.151
G1 X194.146Y219.067
G1 X194.57Y218.837
G1 X194.94Y218.531
G1 X195.246Y218.161
G1 X195.476Y217.737
G1 X195.56Y217.507
G1 X195.622Y217.268
G1 X195.66Y217.019
G1 X195.672Y216.764
G0 X195.672Y216.764
G1 Y121.764
G0 X195.672Y121.764
G1 X195.66Y121.508
G1 X195.622Y121.26
G1 X195.56Y121.02
G1 X195.476Y120.791
G1 X195.246Y120.366
G1 X194.94Y119.996
G1 X194.57Y119.691
G1 X194.146Y119.46
G1 X193.916Y119.376
G1 X193.676Y119.314
G1 X193.428Y119.277
G1 X193.172Y119.264
G0 X193.172Y119.264
G1 X123.172
G0 X125.401Y124.193
G1 X125.091Y123.939
G1 X124.746Y123.758
G1 X124.38Y123.649
G1 X124.001Y123.613
G1 X123.623Y123.649
G1 X123.256Y123.758
G1 X122.912Y123.939
G1 X122.601Y124.193
G1 X122.348Y124.503
G1 X122.166Y124.848
G1 X122.058Y125.214
G1 X122.021Y125.593
G1 X122.058Y125.971
G1 X122.166Y126.338
G1 X122.348Y126.682
G1 X122.601Y126.993
G0 X122.601Y126.993
G1 X123.892Y128.284
G0 X123.892Y128.284
G1 Y128.287
G0 X126.694Y125.486
G1 X125.401Y124.193
G0 X134.572Y124.865
G1 X134.602Y125.168
G1 X134.69Y125.449
G1 X134.828Y125.704
G1 X135.011Y125.926
G1 X135.233Y126.109
G1 X135.488Y126.247
G1 X135.769Y126.335
G1 X136.072Y126.365
G1 X136.374Y126.335
G1 X136.656Y126.247
G1 X136.91Y126.109
G1 X137.132Y125.926
G1 X137.316Y125.704
G1 X137.454Y125.449
G1 X137.541Y125.168
G1 X137.572Y124.865
G1 X137.541Y124.563
G1 X137.454Y124.281
G1 X137.316Y124.027
G1 X137.132Y123.805
G1 X136.91Y123.621
G1 X136.656Y123.483
G1 X136.374Y123.396
G1 X136.072Y123.365
G1 X135.769Y123.396
G1 X135.488Y123.483
G1 X135.233Y123.621
G1 X135.011Y123.805
G1 X134.828Y124.027
G1 X134.69Y124.281
G1 X134.602Y124.563
G1 X134.572Y124.865
G0 X135.45Y128.286
G0 X135.45Y128.286
G1 X135.673Y128.763
G1 X135.854Y129.251
G1 X135.994Y129.746
G1 X136.093Y130.248
G1 X136.153Y130.753
G1 X136.173Y131.258
G1 X136.154Y131.763
G1 X136.096Y132.264
G1 X135.999Y132.759
G1 X135.864Y133.246
G1 X135.692Y133.721
G1 X135.482Y134.184
G1 X135.234Y134.632
G1 X134.95Y135.061
G1 X134.63Y135.471
G1 X134.274Y135.858
G1 X133.887Y136.215
G1 X133.478Y136.536
G1 X133.049Y136.821
G1 X132.602Y137.069
G1 X132.14Y137.28
G1 X131.664Y137.454
G1 X131.178Y137.59
G1 X130.683Y137.688
G1 X130.182Y137.747
G1 X129.678Y137.767
G1 X129.172Y137.748
G1 X128.667Y137.689
G1 X128.165Y137.59
G1 X127.669Y137.451
G1 X127.182Y137.271
G1 X126.704Y137.05
G0 X121.772Y137.665
G1 X121.802Y137.968
G1 X121.89Y138.249
G1 X122.028Y138.504
G1 X122.211Y138.726
G1 X122.433Y138.909
G1 X122.688Y139.047
G1 X122.969Y139.135
G1 X123.272Y139.165
G1 X123.574Y139.135
G1 X123.856Y139.047
G1 X124.11Y138.909
G1 X124.332Y138.726
G1 X124.516Y138.504
G1 X124.654Y138.249
G1 X124.741Y137.968
G1 X124.772Y137.665
G1 X124.741Y137.363
G1 X124.654Y137.081
G1 X124.516Y136.827
G1 X124.332Y136.605
G1 X124.11Y136.421
G1 X123.856Y136.283
G1 X123.574Y136.196
G1 X123.272Y136.165
G1 X122.969Y136.196
G1 X122.688Y136.283
G1 X122.433Y136.421
G1 X122.211Y136.605
G1 X122.028Y136.827
G1 X121.89Y137.081
G1 X121.802Y137.363
G1 X121.772Y137.665
G0 X125.401Y143.193
G1 X125.091Y142.939
G1 X124.746Y142.758
G1 X124.38Y142.649
G1 X124.001Y142.613
G1 X123.623Y142.649
G1 X123.256Y142.758
G1 X122.912Y142.939
G1 X122.601Y143.193
G1 X122.348Y143.503
G1 X122.166Y143.848
G1 X122.058Y144.214
G1 X122.021Y144.593
G1 X122.058Y144.971
G1 X122.166Y145.338
G1 X122.348Y145.682
G1 X122.601Y145.993
G0 X122.601Y145.993
G1 X123.892Y147.284
G0 X123.892Y147.284
G1 Y147.287
G0 X126.694Y144.486
G1 X125.401Y143.193
G0 X134.572Y143.865
G1 X134.602Y144.168
G1 X134.69Y144.449
G1 X134.828Y144.704
G1 X135.011Y144.926
G1 X135.233Y145.109
G1 X135.488Y145.247
G1 X135.769Y145.335
G1 X136.072Y145.365
G1 X136.374Y145.335
G1 X136.656Y145.247
G1 X136.91Y145.109
G1 X137.132Y144.926
G1 X137.316Y144.704
G1 X137.454Y144.449
G1 X137.541Y144.168
G1 X137.572Y143.865
G1 X137.541Y143.563
G1 X137.454Y143.281
G1 X137.316Y143.027
G1 X137.132Y142.805
G1 X136.91Y142.621
G1 X136.656Y142.483
G1 X136.374Y142.396
G1 X136.072Y142.365
G1 X135.769Y142.396
G1 X135.488Y142.483
G1 X135.233Y142.621
G1 X135.011Y142.805
G1 X134.828Y143.027
G1 X134.69Y143.281
G1 X134.602Y143.563
G1 X134.572Y143.865
G0 X135.45Y147.286
G0 X135.45Y147.286
G1 X135.673Y147.763
G1 X135.854Y148.251
G1 X135.994Y148.746
G1 X136.093Y149.248
G1 X136.153Y149.753
G1 X136.173Y150.258
G1 X136.154Y150.763
G1 X136.096Y151.264
G1 X135.999Y151.759
G1 X135.864Y152.246
G1 X135.692Y152.721
G1 X135.482Y153.184
G1 X135.234Y153.632
G1 X134.95Y154.061
G1 X134.63Y154.471
G1 X134.274Y154.858
G1 X133.887Y155.215
G1 X133.478Y155.536
G1 X133.049Y155.821
G1 X132.602Y156.069
G1 X132.14Y156.28
G1 X131.664Y156.454
G1 X131.178Y156.59
G1 X130.683Y156.688
G1 X130.182Y156.747
G1 X129.678Y156.767
G1 X129.172Y156.748
G1 X128.667Y156.689
G1 X128.165Y156.59
G1 X127.669Y156.451
G1 X127.182Y156.271
G1 X126.704Y156.05
G0 X121.772Y156.665
G1 X121.802Y156.968
G1 X121.89Y157.249
G1 X122.028Y157.504
G1 X122.211Y157.726
G1 X122.433Y157.909
G1 X122.688Y158.047
G1 X122.969Y158.135
G1 X123.272Y158.165
G1 X123.574Y158.135
G1 X123.856Y158.047
G1 X124.11Y157.909
G1 X124.332Y157.726
G1 X124.516Y157.504
G1 X124.654Y157.249
G1 X124.741Y156.968
G1 X124.772Y156.665
G1 X124.741Y156.363
G1 X124.654Y156.081
G1 X124.516Y155.827
G1 X124.332Y155.605
G1 X124.11Y155.421
G1 X123.856Y155.283
G1 X123.574Y155.196
G1 X123.272Y155.165
G1 X122.969Y155.196
G1 X122.688Y155.283
G1 X122.433Y155.421
G1 X122.211Y155.605
G1 X122.028Y155.827
G1 X121.89Y156.081
G1 X121.802Y156.363
G1 X121.772Y156.665
G0 X125.401Y162.193
G1 X125.091Y161.939
G1 X124.746Y161.758
G1 X124.38Y161.649
G1 X124.001Y161.613
G1 X123.623Y161.649
G1 X123.256Y161.758
G1 X122.912Y161.939
G1 X122.601Y162.193
G1 X122.348Y162.503
G1 X122.166Y162.848
G1 X122.058Y163.214
G1 X122.021Y163.593
G1 X122.058Y163.971
G1 X122.166Y164.338
G1 X122.348Y164.682
G1 X122.601Y164.993
G0 X122.601Y164.993
G1 X123.892Y166.284
G0 X123.892Y166.284
G1 Y166.287
G0 X126.694Y163.486
G1 X125.401Y162.193
G0 X134.572Y162.865
G1 X134.602Y163.168
G1 X134.69Y163.449
G1 X134.828Y163.704
G1 X135.011Y163.926
G1 X135.233Y164.109
G1 X135.488Y164.247
G1 X135.769Y164.335
G1 X136.072Y164.365
G1 X136.374Y164.335
G1 X136.656Y164.247
G1 X136.91Y164.109
G1 X137.132Y163.926
G1 X137.316Y163.704
G1 X137.454Y163.449
G1 X137.541Y163.168
G1 X137.572Y162.865
G1 X137.541Y162.563
G1 X137.454Y162.281
G1 X137.316Y162.027
G1 X137.132Y161.805
G1 X136.91Y161.621
G1 X136.656Y161.483
G1 X136.374Y161.396
G1 X136.072Y161.365
G1 X135.769Y161.396
G1 X135.488Y161.483
G1 X135.233Y161.621
G1 X135.011Y161.805
G1 X134.828Y162.027
G1 X134.69Y162.281
G1 X134.602Y162.563
G1 X134.572Y162.865
G0 X135.45Y166.286
G0 X135.45Y166.286
G1 X135.673Y166.763
G1 X135.854Y167.251
G1 X135.994Y167.746
G1 X136.093Y168.248
G1 X136.153Y168.753
G1 X136.173Y169.258
G1 X136.154Y169.763
G1 X136.096Y170.264
G1 X135.999Y170.759
G1 X135.864Y171.246
G1 X135.692Y171.721
G1 X135.482Y172.184
G1 X135.234Y172.632
G1 X134.95Y173.061
G1 X134.63Y173.471
G1 X134.274Y173.858
G1 X133.887Y174.215
G1 X133.478Y174.536
G1 X133.049Y174.821
G1 X132.602Y175.069
G1 X132.14Y175.28
G1 X131.664Y175.454
G1 X131.178Y175.59
G1 X130.683Y175.688
G1 X130.182Y175.747
G1 X129.678Y175.767
G1 X129.172Y175.748
G1 X128.667Y175.689
G1 X128.165Y175.59
G1 X127.669Y175.451
G1 X127.182Y175.271
G1 X126.704Y175.05
G0 X121.772Y175.665
G1 X121.802Y175.968
G1 X121.89Y176.249
G1 X122.028Y176.504
G1 X122.211Y176.726
G1 X122.433Y176.909
G1 X122.688Y177.047
G1 X122.969Y177.135
G1 X123.272Y177.165
G1 X123.574Y177.135
G1 X123.856Y177.047
G1 X124.11Y176.909
G1 X124.332Y176.726
G1 X124.516Y176.504
G1 X124.654Y176.249
G1 X124.741Y175.968
G1 X124.772Y175.665
G1 X124.741Y175.363
G1 X124.654Y175.081
G1 X124.516Y174.827
G1 X124.332Y174.605
G1 X124.11Y174.421
G1 X123.856Y174.283
G1 X123.574Y174.196
G1 X123.272Y174.165
G1 X122.969Y174.196
G1 X122.688Y174.283
G1 X122.433Y174.421
G1 X122.211Y174.605
G1 X122.028Y174.827
G1 X121.89Y175.081
G1 X121.802Y175.363
G1 X121.772Y175.665
G0 X125.401Y181.193
G1 X125.091Y180.939
G1 X124.746Y180.758
G1 X124.38Y180.649
G1 X124.001Y180.613
G1 X123.623Y180.649
G1 X123.256Y180.758
G1 X122.912Y180.939
G1 X122.601Y181.193
G1 X122.348Y181.503
G1 X122.166Y181.848
G1 X122.058Y182.214
G1 X122.021Y182.593
G1 X122.058Y182.971
G1 X122.166Y183.338
G1 X122.348Y183.682
G1 X122.601Y183.993
G0 X122.601Y183.993
G1 X123.892Y185.284
G0 X123.892Y185.284
G1 Y185.287
G0 X126.694Y182.486
G1 X125.401Y181.193
G0 X134.572Y181.865
G1 X134.602Y182.168
G1 X134.69Y182.449
G1 X134.828Y182.704
G1 X135.011Y182.926
G1 X135.233Y183.109
G1 X135.488Y183.247
G1 X135.769Y183.335
G1 X136.072Y183.365
G1 X136.374Y183.335
G1 X136.656Y183.247
G1 X136.91Y183.109
G1 X137.132Y182.926
G1 X137.316Y182.704
G1 X137.454Y182.449
G1 X137.541Y182.168
G1 X137.572Y181.865
G1 X137.541Y181.563
G1 X137.454Y181.281
G1 X137.316Y181.027
G1 X137.132Y180.805
G1 X136.91Y180.621
G1 X136.656Y180.483
G1 X136.374Y180.396
G1 X136.072Y180.365
G1 X135.769Y180.396
G1 X135.488Y180.483
G1 X135.233Y180.621
G1 X135.011Y180.805
G1 X134.828Y181.027
G1 X134.69Y181.281
G1 X134.602Y181.563
G1 X134.572Y181.865
G0 X135.45Y185.286
G0 X135.45Y185.286
G1 X135.673Y185.763
G1 X135.854Y186.251
G1 X135.994Y186.746
G1 X136.093Y187.248
G1 X136.153Y187.753
G1 X136.173Y188.258
G1 X136.154Y188.763
G1 X136.096Y189.264
G1 X135.999Y189.759
G1 X135.864Y190.246
G1 X135.692Y190.721
G1 X135.482Y191.184
G1 X135.234Y191.632
G1 X134.95Y192.061
G1 X134.63Y192.471
G1 X134.274Y192.858
G1 X133.887Y193.215
G1 X133.478Y193.536
G1 X133.049Y193.821
G1 X132.602Y194.069
G1 X132.14Y194.28
G1 X131.664Y194.454
G1 X131.178Y194.59
G1 X130.683Y194.688
G1 X130.182Y194.747
G1 X129.678Y194.767
G1 X129.172Y194.748
G1 X128.667Y194.689
G1 X128.165Y194.59
G1 X127.669Y194.451
G1 X127.182Y194.271
G1 X126.704Y194.05
G0 X121.772Y194.665
G1 X121.802Y194.968
G1 X121.89Y195.249
G1 X122.028Y195.504
G1 X122.211Y195.726
G1 X122.433Y195.909
G1 X122.688Y196.047
G1 X122.969Y196.135
G1 X123.272Y196.165
G1 X123.574Y196.135
G1 X123.856Y196.047
G1 X124.11Y195.909
G1 X124.332Y195.726
G1 X124.516Y195.504
G1 X124.654Y195.249
G1 X124.741Y194.968
G1 X124.772Y194.665
G1 X124.741Y194.363
G1 X124.654Y194.081
G1 X124.516Y193.827
G1 X124.332Y193.605
G1 X124.11Y193.421
G1 X123.856Y193.283
G1 X123.574Y193.196
G1 X123.272Y193.165
G1 X122.969Y193.196
G1 X122.688Y193.283
G1 X122.433Y193.421
G1 X122.211Y193.605
G1 X122.028Y193.827
G1 X121.89Y194.081
G1 X121.802Y194.363
G1 X121.772Y194.665
G0 X125.401Y200.193
G1 X125.091Y199.939
G1 X124.746Y199.758
G1 X124.38Y199.649
G1 X124.001Y199.613
G1 X123.623Y199.649
G1 X123.256Y199.758
G1 X122.912Y199.939
G1 X122.601Y200.193
G1 X122.348Y200.503
G1 X122.166Y200.848
G1 X122.058Y201.214
G1 X122.021Y201.593
G1 X122.058Y201.971
G1 X122.166Y202.338
G1 X122.348Y202.682
G1 X122.601Y202.993
G0 X122.601Y202.993
G1 X123.892Y204.284
G0 X123.892Y204.284
G1 Y204.287
G0 X126.694Y201.486
G1 X125.401Y200.193
G0 X134.572Y200.865
G1 X134.602Y201.168
G1 X134.69Y201.449
G1 X134.828Y201.704
G1 X135.011Y201.926
G1 X135.233Y202.109
G1 X135.488Y202.247
G1 X135.769Y202.335
G1 X136.072Y202.365
G1 X136.374Y202.335
G1 X136.656Y202.247
G1 X136.91Y202.109
G1 X137.132Y201.926
G1 X137.316Y201.704
G1 X137.454Y201.449
G1 X137.541Y201.168
G1 X137.572Y200.865
G1 X137.541Y200.563
G1 X137.454Y200.281
G1 X137.316Y200.027
G1 X137.132Y199.805
G1 X136.91Y199.621
G1 X136.656Y199.483
G1 X136.374Y199.396
G1 X136.072Y199.365
G1 X135.769Y199.396
G1 X135.488Y199.483
G1 X135.233Y199.621
G1 X135.011Y199.805
G1 X134.828Y200.027
G1 X134.69Y200.281
G1 X134.602Y200.563
G1 X134.572Y200.865
G0 X135.45Y204.286
G0 X135.45Y204.286
G1 X135.673Y204.763
G1 X135.854Y205.251
G1 X135.994Y205.746
G1 X136.093Y206.248
G1 X136.153Y206.753
G1 X136.173Y207.258
G1 X136.154Y207.763
G1 X136.096Y208.264
G1 X135.999Y208.759
G1 X135.864Y209.246
G1 X135.692Y209.721
G1 X135.482Y210.184
G1 X135.234Y210.632
G1 X134.95Y211.061
G1 X134.63Y211.471
G1 X134.274Y211.858
G1 X133.887Y212.215
G1 X133.478Y212.536
G1 X133.049Y212.821
G1 X132.602Y213.069
G1 X132.14Y213.28
G1 X131.664Y213.454
G1 X131.178Y213.59
G1 X130.683Y213.688
G1 X130.182Y213.747
G1 X129.678Y213.767
G1 X129.172Y213.748
G1 X128.667Y213.689
G1 X128.165Y213.59
G1 X127.669Y213.451
G1 X127.182Y213.271
G1 X126.704Y213.05
G0 X121.772Y213.665
G1 X121.802Y213.968
G1 X121.89Y214.249
G1 X122.028Y214.504
G1 X122.211Y214.726
G1 X122.433Y214.909
G1 X122.688Y215.047
G1 X122.969Y215.135
G1 X123.272Y215.165
G1 X123.574Y215.135
G1 X123.856Y215.047
G1 X124.11Y214.909
G1 X124.332Y214.726
G1 X124.516Y214.504
G1 X124.654Y214.249
G1 X124.741Y213.968
G1 X124.772Y213.665
G1 X124.741Y213.363
G1 X124.654Y213.081
G1 X124.516Y212.827
G1 X124.332Y212.605
G1 X124.11Y212.421
G1 X123.856Y212.283
G1 X123.574Y212.196
G1 X123.272Y212.165
G1 X122.969Y212.196
G1 X122.688Y212.283
G1 X122.433Y212.421
G1 X122.211Y212.605
G1 X122.028Y212.827
G1 X121.89Y213.081
G1 X121.802Y213.363
G1 X121.772Y213.665
G0 X123.892Y204.287
G1 X123.644Y204.828
G1 X123.448Y205.381
G1 X123.305Y205.942
G1 X123.213Y206.509
G1 X123.172Y207.077
G1 X123.181Y207.644
G1 X123.239Y208.207
G1 X123.345Y208.761
G1 X123.498Y209.305
G1 X123.699Y209.833
G1 X123.945Y210.344
G1 X124.236Y210.834
G1 X124.572Y211.3
G1 X124.951Y211.737
G1 X125.374Y212.144
G1 X125.838Y212.516
G1 X126.334Y212.845
G1 X126.85Y213.123
G1 X127.383Y213.352
G1 X127.928Y213.53
G1 X128.484Y213.658
G1 X129.045Y213.737
G1 X129.61Y213.767
G1 X130.174Y213.747
G1 X130.735Y213.679
G1 X131.288Y213.563
G1 X131.831Y213.399
G1 X132.36Y213.186
G1 X132.871Y212.926
G1 X133.362Y212.619
G1 X133.829Y212.264
G1 X134.269Y211.863
G1 X134.67Y211.423
G1 X135.025Y210.956
G1 X135.332Y210.465
G1 X135.592Y209.954
G1 X135.805Y209.425
G1 X135.969Y208.882
G1 X136.086Y208.329
G1 X136.154Y207.768
G1 X136.173Y207.204
G1 X136.143Y206.64
G1 X136.065Y206.078
G1 X135.936Y205.523
G1 X135.758Y204.977
G1 X135.53Y204.445
G1 X135.252Y203.929
G1 X134.923Y203.432
G1 X134.551Y202.968
G1 X134.144Y202.546
G1 X133.706Y202.166
G1 X133.241Y201.83
G1 X132.751Y201.539
G1 X132.24Y201.292
G1 X131.712Y201.092
G1 X131.168Y200.938
G1 X130.614Y200.832
G1 X130.052Y200.775
G1 X129.484Y200.766
G1 X128.916Y200.807
G1 X128.349Y200.899
G1 X127.788Y201.042
G1 X127.235Y201.237
G1 X126.694Y201.486
G0 X141.601Y202.993
G1 X141.348Y202.682
G1 X141.166Y202.338
G1 X141.058Y201.971
G1 X141.021Y201.593
G1 X141.058Y201.214
G1 X141.166Y200.848
G1 X141.348Y200.503
G1 X141.601Y200.193
G1 X141.912Y199.939
G1 X142.256Y199.758
G1 X142.623Y199.649
G1 X143.001Y199.613
G1 X143.38Y199.649
G1 X143.746Y199.758
G1 X144.091Y199.939
G1 X144.401Y200.193
G0 X144.401Y200.193
G1 X145.694Y201.486
G0 X141.601Y202.993
G1 X142.892Y204.284
G0 X142.892Y204.284
G1 Y204.287
G0 X154.45Y204.286
G1 X154.673Y204.763
G1 X154.854Y205.251
G1 X154.994Y205.746
G1 X155.093Y206.248
G1 X155.153Y206.753
G1 X155.173Y207.258
G1 X155.154Y207.763
G1 X155.096Y208.264
G1 X154.999Y208.759
G1 X154.864Y209.246
G1 X154.692Y209.721
G1 X154.482Y210.184
G1 X154.234Y210.632
G1 X153.95Y211.061
G1 X153.63Y211.471
G1 X153.274Y211.858
G1 X152.887Y212.215
G1 X152.478Y212.536
G1 X152.049Y212.821
G1 X151.602Y213.069
G1 X151.14Y213.28
G1 X150.664Y213.454
G1 X150.178Y213.59
G1 X149.683Y213.688
G1 X149.182Y213.747
G1 X148.678Y213.767
G1 X148.172Y213.748
G1 X147.667Y213.689
G1 X147.165Y213.59
G1 X146.669Y213.451
G1 X146.182Y213.271
G1 X145.704Y213.05
G0 X140.772Y213.665
G1 X140.802Y213.968
G1 X140.89Y214.249
G1 X141.028Y214.504
G1 X141.211Y214.726
G1 X141.433Y214.909
G1 X141.688Y215.047
G1 X141.969Y215.135
G1 X142.272Y215.165
G1 X142.574Y215.135
G1 X142.856Y215.047
G1 X143.11Y214.909
G1 X143.332Y214.726
G1 X143.516Y214.504
G1 X143.654Y214.249
G1 X143.741Y213.968
G1 X143.772Y213.665
G1 X143.741Y213.363
G1 X143.654Y213.081
G1 X143.516Y212.827
G1 X143.332Y212.605
G1 X143.11Y212.421
G1 X142.856Y212.283
G1 X142.574Y212.196
G1 X142.272Y212.165
G1 X141.969Y212.196
G1 X141.688Y212.283
G1 X141.433Y212.421
G1 X141.211Y212.605
G1 X141.028Y212.827
G1 X140.89Y213.081
G1 X140.802Y213.363
G1 X140.772Y213.665
G0 X159.772Y213.665
G1 X159.802Y213.968
G1 X159.89Y214.249
G1 X160.028Y214.504
G1 X160.211Y214.726
G1 X160.433Y214.909
G1 X160.688Y215.047
G1 X160.969Y215.135
G1 X161.272Y215.165
G1 X161.574Y215.135
G1 X161.856Y215.047
G1 X162.11Y214.909
G1 X162.332Y214.726
G1 X162.516Y214.504
G1 X162.654Y214.249
G1 X162.741Y213.968
G1 X162.772Y213.665
G1 X162.741Y213.363
G1 X162.654Y213.081
G1 X162.516Y212.827
G1 X162.332Y212.605
G1 X162.11Y212.421
G1 X161.856Y212.283
G1 X161.574Y212.196
G1 X161.272Y212.165
G1 X160.969Y212.196
G1 X160.688Y212.283
G1 X160.433Y212.421
G1 X160.211Y212.605
G1 X160.028Y212.827
G1 X159.89Y213.081
G1 X159.802Y213.363
G1 X159.772Y213.665
G0 X164.704Y213.05
G1 X165.182Y213.271
G1 X165.669Y213.451
G1 X166.165Y213.59
G1 X166.667Y213.689
G1 X167.172Y213.748
G1 X167.678Y213.767
G1 X168.182Y213.747
G1 X168.683Y213.688
G1 X169.178Y213.59
G1 X169.664Y213.454
G1 X170.14Y213.28
G1 X170.602Y213.069
G1 X171.049Y212.821
G1 X171.478Y212.536
G1 X171.887Y212.215
G1 X172.274Y211.858
G1 X172.63Y211.471
G1 X172.95Y211.061
G1 X173.234Y210.632
G1 X173.482Y210.184
G1 X173.692Y209.721
G1 X173.864Y209.246
G1 X173.999Y208.759
G1 X174.096Y208.264
G1 X174.154Y207.763
G1 X174.173Y207.258
G1 X174.153Y206.753
G1 X174.093Y206.248
G1 X173.994Y205.746
G1 X173.854Y205.251
G1 X173.673Y204.763
G1 X173.45Y204.286
G0 X173.45Y204.286
G0 X172.572Y200.865
G1 X172.602Y201.168
G1 X172.69Y201.449
G1 X172.828Y201.704
G1 X173.011Y201.926
G1 X173.233Y202.109
G1 X173.488Y202.247
G1 X173.769Y202.335
G1 X174.072Y202.365
G1 X174.374Y202.335
G1 X174.656Y202.247
G1 X174.91Y202.109
G1 X175.132Y201.926
G1 X175.316Y201.704
G1 X175.454Y201.449
G1 X175.541Y201.168
G1 X175.572Y200.865
G1 X175.541Y200.563
G1 X175.454Y200.281
G1 X175.316Y200.027
G1 X175.132Y199.805
G1 X174.91Y199.621
G1 X174.656Y199.483
G1 X174.374Y199.396
G1 X174.072Y199.365
G1 X173.769Y199.396
G1 X173.488Y199.483
G1 X173.233Y199.621
G1 X173.011Y199.805
G1 X172.828Y200.027
G1 X172.69Y200.281
G1 X172.602Y200.563
G1 X172.572Y200.865
G0 X179.583Y203.011
G1 X179.331Y202.7
G1 X179.15Y202.356
G1 X179.042Y201.989
G1 X179.006Y201.612
G1 X179.043Y201.234
G1 X179.152Y200.868
G1 X179.333Y200.524
G1 X179.586Y200.214
G1 X179.896Y199.96
G1 X180.24Y199.779
G1 X180.607Y199.67
G1 X180.984Y199.634
G1 X181.362Y199.669
G1 X181.729Y199.778
G1 X182.073Y199.958
G1 X182.383Y200.211
G0 X182.383Y200.211
G1 X183.676Y201.504
G0 X179.583Y203.011
G1 X180.874Y204.301
G0 X180.874Y204.301
G1 Y204.305
G0 X192.432Y204.304
G1 X192.655Y204.781
G1 X192.835Y205.269
G1 X192.976Y205.764
G1 X193.075Y206.266
G1 X193.135Y206.77
G1 X193.155Y207.276
G1 X193.136Y207.781
G1 X193.078Y208.282
G1 X192.981Y208.777
G1 X192.846Y209.264
G1 X192.674Y209.739
G1 X192.464Y210.202
G1 X192.216Y210.65
G1 X191.932Y211.079
G1 X191.612Y211.489
G1 X191.255Y211.876
G1 X190.869Y212.233
G1 X190.46Y212.554
G1 X190.031Y212.839
G1 X189.584Y213.087
G1 X189.122Y213.298
G1 X188.646Y213.472
G1 X188.16Y213.608
G1 X187.665Y213.706
G1 X187.164Y213.765
G1 X186.66Y213.785
G1 X186.154Y213.766
G1 X185.649Y213.707
G1 X185.147Y213.608
G1 X184.651Y213.469
G1 X184.164Y213.289
G1 X183.686Y213.068
G0 X178.754Y213.683
G1 X178.784Y213.986
G1 X178.871Y214.267
G1 X179.01Y214.522
G1 X179.193Y214.744
G1 X179.415Y214.927
G1 X179.67Y215.065
G1 X179.951Y215.153
G1 X180.254Y215.183
G1 X180.556Y215.153
G1 X180.837Y215.065
G1 X181.092Y214.927
G1 X181.314Y214.744
G1 X181.497Y214.522
G1 X181.636Y214.267
G1 X181.723Y213.986
G1 X181.754Y213.683
G1 X181.723Y213.381
G1 X181.636Y213.099
G1 X181.497Y212.845
G1 X181.314Y212.623
G1 X181.092Y212.439
G1 X180.837Y212.301
G1 X180.556Y212.214
G1 X180.254Y212.183
G1 X179.951Y212.214
G1 X179.67Y212.301
G1 X179.415Y212.439
G1 X179.193Y212.623
G1 X179.01Y212.845
G1 X178.871Y213.099
G1 X178.784Y213.381
G1 X178.754Y213.683
G0 X192.432Y204.304
G0 X191.554Y200.883
G1 X191.584Y201.186
G1 X191.671Y201.467
G1 X191.81Y201.722
G1 X191.993Y201.944
G1 X192.215Y202.127
G1 X192.47Y202.265
G1 X192.751Y202.353
G1 X193.054Y202.383
G1 X193.356Y202.353
G1 X193.637Y202.265
G1 X193.892Y202.127
G1 X194.114Y201.944
G1 X194.297Y201.722
G1 X194.436Y201.467
G1 X194.523Y201.186
G1 X194.554Y200.883
G1 X194.523Y200.581
G1 X194.436Y200.299
G1 X194.297Y200.045
G1 X194.114Y199.823
G1 X193.892Y199.639
G1 X193.637Y199.501
G1 X193.356Y199.414
G1 X193.054Y199.383
G1 X192.751Y199.414
G1 X192.47Y199.501
G1 X192.215Y199.639
G1 X191.993Y199.823
G1 X191.81Y200.045
G1 X191.671Y200.299
G1 X191.584Y200.581
G1 X191.554Y200.883
G0 X183.676Y201.504
G1 X184.217Y201.255
G1 X184.77Y201.06
G1 X185.331Y200.917
G1 X185.898Y200.825
G1 X186.466Y200.784
G1 X187.034Y200.793
G1 X187.596Y200.85
G1 X188.15Y200.956
G1 X188.694Y201.11
G1 X189.222Y201.31
G1 X189.733Y201.557
G1 X190.223Y201.848
G1 X190.688Y202.184
G1 X191.126Y202.564
G1 X191.533Y202.986
G1 X191.905Y203.45
G1 X192.234Y203.947
G1 X192.512Y204.463
G1 X192.74Y204.995
G1 X192.918Y205.541
G1 X193.047Y206.096
G1 X193.125Y206.658
G1 X193.155Y207.222
G1 X193.136Y207.786
G1 X193.068Y208.347
G1 X192.951Y208.9
G1 X192.787Y209.443
G1 X192.574Y209.972
G1 X192.314Y210.483
G1 X192.007Y210.974
G1 X191.652Y211.441
G1 X191.251Y211.881
G1 X190.811Y212.282
G1 X190.344Y212.637
G1 X189.853Y212.944
G1 X189.342Y213.204
G1 X188.813Y213.417
G1 X188.27Y213.581
G1 X187.717Y213.697
G1 X187.156Y213.765
G1 X186.592Y213.785
G1 X186.027Y213.755
G1 X185.466Y213.676
G1 X184.91Y213.548
G1 X184.365Y213.37
G1 X183.832Y213.142
G1 X183.316Y212.863
G1 X182.82Y212.534
G1 X182.356Y212.162
G1 X181.933Y211.755
G1 X181.554Y211.318
G1 X181.218Y210.852
G1 X180.927Y210.362
G1 X180.681Y209.851
G1 X180.48Y209.323
G1 X180.327Y208.779
G1 X180.221Y208.225
G1 X180.163Y207.662
G1 X180.154Y207.095
G1 X180.195Y206.527
G1 X180.287Y205.96
G1 X180.43Y205.399
G1 X180.626Y204.846
G1 X180.874Y204.305
G0 X178.772Y194.665
G1 X178.802Y194.968
G1 X178.89Y195.249
G1 X179.028Y195.504
G1 X179.211Y195.726
G1 X179.433Y195.909
G1 X179.688Y196.047
G1 X179.969Y196.135
G1 X180.272Y196.165
G1 X180.574Y196.135
G1 X180.856Y196.047
G1 X181.11Y195.909
G1 X181.332Y195.726
G1 X181.516Y195.504
G1 X181.654Y195.249
G1 X181.741Y194.968
G1 X181.772Y194.665
G1 X181.741Y194.363
G1 X181.654Y194.081
G1 X181.516Y193.827
G1 X181.332Y193.605
G1 X181.11Y193.421
G1 X180.856Y193.283
G1 X180.574Y193.196
G1 X180.272Y193.165
G1 X179.969Y193.196
G1 X179.688Y193.283
G1 X179.433Y193.421
G1 X179.211Y193.605
G1 X179.028Y193.827
G1 X178.89Y194.081
G1 X178.802Y194.363
G1 X178.772Y194.665
G0 X183.704Y194.05
G1 X184.182Y194.271
G1 X184.669Y194.451
G1 X185.165Y194.59
G1 X185.667Y194.689
G1 X186.172Y194.748
G1 X186.678Y194.767
G1 X187.182Y194.747
G1 X187.683Y194.688
G1 X188.178Y194.59
G1 X188.664Y194.454
G1 X189.14Y194.28
G1 X189.602Y194.069
G1 X190.049Y193.821
G1 X190.478Y193.536
G1 X190.887Y193.215
G1 X191.274Y192.858
G1 X191.63Y192.471
G1 X191.95Y192.061
G1 X192.234Y191.632
G1 X192.482Y191.184
G1 X192.692Y190.721
G1 X192.864Y190.246
G1 X192.999Y189.759
G1 X193.096Y189.264
G1 X193.154Y188.763
G1 X193.173Y188.258
G1 X193.153Y187.753
G1 X193.093Y187.248
G1 X192.994Y186.746
G1 X192.854Y186.251
G1 X192.673Y185.763
G1 X192.45Y185.286
G0 X192.45Y185.286
G0 X191.572Y181.865
G1 X191.602Y182.168
G1 X191.69Y182.449
G1 X191.828Y182.704
G1 X192.011Y182.926
G1 X192.233Y183.109
G1 X192.488Y183.247
G1 X192.769Y183.335
G1 X193.072Y183.365
G1 X193.374Y183.335
G1 X193.656Y183.247
G1 X193.91Y183.109
G1 X194.132Y182.926
G1 X194.316Y182.704
G1 X194.454Y182.449
G1 X194.541Y182.168
G1 X194.572Y181.865
G1 X194.541Y181.563
G1 X194.454Y181.281
G1 X194.316Y181.027
G1 X194.132Y180.805
G1 X193.91Y180.621
G1 X193.656Y180.483
G1 X193.374Y180.396
G1 X193.072Y180.365
G1 X192.769Y180.396
G1 X192.488Y180.483
G1 X192.233Y180.621
G1 X192.011Y180.805
G1 X191.828Y181.027
G1 X191.69Y181.281
G1 X191.602Y181.563
G1 X191.572Y181.865
G0 X183.694Y182.486
G1 X184.235Y182.237
G1 X184.788Y182.042
G1 X185.349Y181.899
G1 X185.916Y181.807
G1 X186.484Y181.766
G1 X187.052Y181.775
G1 X187.614Y181.832
G1 X188.168Y181.938
G1 X188.712Y182.092
G1 X189.24Y182.292
G1 X189.751Y182.539
G1 X190.241Y182.83
G1 X190.706Y183.166
G1 X191.144Y183.546
G1 X191.551Y183.968
G1 X191.923Y184.432
G1 X192.252Y184.929
G1 X192.53Y185.445
G1 X192.758Y185.977
G1 X192.936Y186.523
G1 X193.065Y187.078
G1 X193.143Y187.64
G1 X193.173Y188.204
G1 X193.154Y188.768
G1 X193.086Y189.329
G1 X192.969Y189.882
G1 X192.805Y190.425
G1 X192.592Y190.954
G1 X192.332Y191.465
G1 X192.025Y191.956
G1 X191.67Y192.423
G1 X191.269Y192.863
G1 X190.829Y193.264
G1 X190.362Y193.619
G1 X189.871Y193.926
G1 X189.36Y194.186
G1 X188.831Y194.399
G1 X188.288Y194.563
G1 X187.735Y194.679
G1 X187.174Y194.747
G1 X186.61Y194.767
G1 X186.045Y194.737
G1 X185.484Y194.658
G1 X184.928Y194.53
G1 X184.383Y194.352
G1 X183.85Y194.123
G1 X183.334Y193.845
G1 X182.838Y193.516
G1 X182.374Y193.144
G1 X181.951Y192.737
G1 X181.572Y192.3
G1 X181.236Y191.834
G1 X180.945Y191.344
G1 X180.699Y190.833
G1 X180.498Y190.305
G1 X180.345Y189.761
G1 X180.239Y189.207
G1 X180.181Y188.644
G1 X180.172Y188.077
G1 X180.213Y187.509
G1 X180.305Y186.942
G1 X180.448Y186.381
G1 X180.644Y185.828
G1 X180.892Y185.287
G0 X180.892Y185.287
G1 Y185.284
G0 X180.892Y185.284
G1 X179.601Y183.993
G0 X179.601Y183.993
G1 X179.348Y183.682
G1 X179.166Y183.338
G1 X179.058Y182.971
G1 X179.021Y182.593
G1 X179.058Y182.214
G1 X179.166Y181.848
G1 X179.348Y181.503
G1 X179.601Y181.193
G1 X179.912Y180.939
G1 X180.256Y180.758
G1 X180.623Y180.649
G1 X181.001Y180.613
G1 X181.38Y180.649
G1 X181.746Y180.758
G1 X182.091Y180.939
G1 X182.401Y181.193
G0 X182.401Y181.193
G1 X183.694Y182.486
G0 X173.45Y185.286
G0 X173.45Y185.286
G1 X173.673Y185.763
G1 X173.854Y186.251
G1 X173.994Y186.746
G1 X174.093Y187.248
G1 X174.153Y187.753
G1 X174.173Y188.258
G1 X174.154Y188.763
G1 X174.096Y189.264
G1 X173.999Y189.759
G1 X173.864Y190.246
G1 X173.692Y190.721
G1 X173.482Y191.184
G1 X173.234Y191.632
G1 X172.95Y192.061
G1 X172.63Y192.471
G1 X172.274Y192.858
G1 X171.887Y193.215
G1 X171.478Y193.536
G1 X171.049Y193.821
G1 X170.602Y194.069
G1 X170.14Y194.28
G1 X169.664Y194.454
G1 X169.178Y194.59
G1 X168.683Y194.688
G1 X168.182Y194.747
G1 X167.678Y194.767
G1 X167.172Y194.748
G1 X166.667Y194.689
G1 X166.165Y194.59
G1 X165.669Y194.451
G1 X165.182Y194.271
G1 X164.704Y194.05
G0 X159.772Y194.665
G1 X159.802Y194.968
G1 X159.89Y195.249
G1 X160.028Y195.504
G1 X160.211Y195.726
G1 X160.433Y195.909
G1 X160.688Y196.047
G1 X160.969Y196.135
G1 X161.272Y196.165
G1 X161.574Y196.135
G1 X161.856Y196.047
G1 X162.11Y195.909
G1 X162.332Y195.726
G1 X162.516Y195.504
G1 X162.654Y195.249
G1 X162.741Y194.968
G1 X162.772Y194.665
G1 X162.741Y194.363
G1 X162.654Y194.081
G1 X162.516Y193.827
G1 X162.332Y193.605
G1 X162.11Y193.421
G1 X161.856Y193.283
G1 X161.574Y193.196
G1 X161.272Y193.165
G1 X160.969Y193.196
G1 X160.688Y193.283
G1 X160.433Y193.421
G1 X160.211Y193.605
G1 X160.028Y193.827
G1 X159.89Y194.081
G1 X159.802Y194.363
G1 X159.772Y194.665
G0 X163.401Y200.193
G1 X163.091Y199.939
G1 X162.746Y199.758
G1 X162.38Y199.649
G1 X162.001Y199.613
G1 X161.623Y199.649
G1 X161.256Y199.758
G1 X160.912Y199.939
G1 X160.601Y200.193
G1 X160.348Y200.503
G1 X160.166Y200.848
G1 X160.058Y201.214
G1 X160.021Y201.593
G1 X160.058Y201.971
G1 X160.166Y202.338
G1 X160.348Y202.682
G1 X160.601Y202.993
G0 X160.601Y202.993
G1 X161.892Y204.284
G0 X161.892Y204.284
G1 Y204.287
G0 X161.892Y204.287
G1 X161.644Y204.828
G1 X161.448Y205.381
G1 X161.305Y205.942
G1 X161.213Y206.509
G1 X161.172Y207.077
G1 X161.181Y207.644
G1 X161.239Y208.207
G1 X161.345Y208.761
G1 X161.498Y209.305
G1 X161.699Y209.833
G1 X161.945Y210.344
G1 X162.236Y210.834
G1 X162.572Y211.3
G1 X162.951Y211.737
G1 X163.374Y212.144
G1 X163.838Y212.516
G1 X164.334Y212.845
G1 X164.85Y213.123
G1 X165.383Y213.352
G1 X165.928Y213.53
G1 X166.484Y213.658
G1 X167.045Y213.737
G1 X167.61Y213.767
G1 X168.174Y213.747
G1 X168.735Y213.679
G1 X169.288Y213.563
G1 X169.831Y213.399
G1 X170.36Y213.186
G1 X170.871Y212.926
G1 X171.362Y212.619
G1 X171.829Y212.264
G1 X172.269Y211.863
G1 X172.67Y211.423
G1 X173.025Y210.956
G1 X173.332Y210.465
G1 X173.592Y209.954
G1 X173.805Y209.425
G1 X173.969Y208.882
G1 X174.086Y208.329
G1 X174.154Y207.768
G1 X174.173Y207.204
G1 X174.143Y206.64
G1 X174.065Y206.078
G1 X173.936Y205.523
G1 X173.758Y204.977
G1 X173.53Y204.445
G1 X173.252Y203.929
G1 X172.923Y203.432
G1 X172.551Y202.968
G1 X172.144Y202.546
G1 X171.706Y202.166
G1 X171.241Y201.83
G1 X170.751Y201.539
G1 X170.24Y201.292
G1 X169.712Y201.092
G1 X169.168Y200.938
G1 X168.614Y200.832
G1 X168.052Y200.775
G1 X167.484Y200.766
G1 X166.916Y200.807
G1 X166.349Y200.899
G1 X165.788Y201.042
G1 X165.235Y201.237
G1 X164.694Y201.486
G0 X164.694Y201.486
G1 X163.401Y200.193
G0 X153.572Y200.865
G1 X153.602Y201.168
G1 X153.69Y201.449
G1 X153.828Y201.704
G1 X154.011Y201.926
G1 X154.233Y202.109
G1 X154.488Y202.247
G1 X154.769Y202.335
G1 X155.072Y202.365
G1 X155.374Y202.335
G1 X155.656Y202.247
G1 X155.91Y202.109
G1 X156.132Y201.926
G1 X156.316Y201.704
G1 X156.454Y201.449
G1 X156.541Y201.168
G1 X156.572Y200.865
G1 X156.541Y200.563
G1 X156.454Y200.281
G1 X156.316Y200.027
G1 X156.132Y199.805
G1 X155.91Y199.621
G1 X155.656Y199.483
G1 X155.374Y199.396
G1 X155.072Y199.365
G1 X154.769Y199.396
G1 X154.488Y199.483
G1 X154.233Y199.621
G1 X154.011Y199.805
G1 X153.828Y200.027
G1 X153.69Y200.281
G1 X153.602Y200.563
G1 X153.572Y200.865
G0 X154.45Y204.286
G0 X145.694Y201.486
G1 X146.235Y201.237
G1 X146.788Y201.042
G1 X147.349Y200.899
G1 X147.916Y200.807
G1 X148.484Y200.766
G1 X149.052Y200.775
G1 X149.614Y200.832
G1 X150.168Y200.938
G1 X150.712Y201.092
G1 X151.24Y201.292
G1 X151.751Y201.539
G1 X152.241Y201.83
G1 X152.706Y202.166
G1 X153.144Y202.546
G1 X153.551Y202.968
G1 X153.923Y203.432
G1 X154.252Y203.929
G1 X154.53Y204.445
G1 X154.758Y204.977
G1 X154.936Y205.523
G1 X155.065Y206.078
G1 X155.143Y206.64
G1 X155.173Y207.204
G1 X155.154Y207.768
G1 X155.086Y208.329
G1 X154.969Y208.882
G1 X154.805Y209.425
G1 X154.592Y209.954
G1 X154.332Y210.465
G1 X154.025Y210.956
G1 X153.67Y211.423
G1 X153.269Y211.863
G1 X152.829Y212.264
G1 X152.362Y212.619
G1 X151.871Y212.926
G1 X151.36Y213.186
G1 X150.831Y213.399
G1 X150.288Y213.563
G1 X149.735Y213.679
G1 X149.174Y213.747
G1 X148.61Y213.767
G1 X148.045Y213.737
G1 X147.484Y213.658
G1 X146.928Y213.53
G1 X146.383Y213.352
G1 X145.85Y213.123
G1 X145.334Y212.845
G1 X144.838Y212.516
G1 X144.374Y212.144
G1 X143.951Y211.737
G1 X143.572Y211.3
G1 X143.236Y210.834
G1 X142.945Y210.344
G1 X142.699Y209.833
G1 X142.498Y209.305
G1 X142.345Y208.761
G1 X142.239Y208.207
G1 X142.181Y207.644
G1 X142.172Y207.077
G1 X142.213Y206.509
G1 X142.305Y205.942
G1 X142.448Y205.381
G1 X142.644Y204.828
G1 X142.892Y204.287
G0 X140.772Y194.665
G1 X140.802Y194.968
G1 X140.89Y195.249
G1 X141.028Y195.504
G1 X141.211Y195.726
G1 X141.433Y195.909
G1 X141.688Y196.047
G1 X141.969Y196.135
G1 X142.272Y196.165
G1 X142.574Y196.135
G1 X142.856Y196.047
G1 X143.11Y195.909
G1 X143.332Y195.726
G1 X143.516Y195.504
G1 X143.654Y195.249
G1 X143.741Y194.968
G1 X143.772Y194.665
G1 X143.741Y194.363
G1 X143.654Y194.081
G1 X143.516Y193.827
G1 X143.332Y193.605
G1 X143.11Y193.421
G1 X142.856Y193.283
G1 X142.574Y193.196
G1 X142.272Y193.165
G1 X141.969Y193.196
G1 X141.688Y193.283
G1 X141.433Y193.421
G1 X141.211Y193.605
G1 X141.028Y193.827
G1 X140.89Y194.081
G1 X140.802Y194.363
G1 X140.772Y194.665
G0 X145.704Y194.05
G1 X146.182Y194.271
G1 X146.669Y194.451
G1 X147.165Y194.59
G1 X147.667Y194.689
G1 X148.172Y194.748
G1 X148.678Y194.767
G1 X149.182Y194.747
G1 X149.683Y194.688
G1 X150.178Y194.59
G1 X150.664Y194.454
G1 X151.14Y194.28
G1 X151.602Y194.069
G1 X152.049Y193.821
G1 X152.478Y193.536
G1 X152.887Y193.215
G1 X153.274Y192.858
G1 X153.63Y192.471
G1 X153.95Y192.061
G1 X154.234Y191.632
G1 X154.482Y191.184
G1 X154.692Y190.721
G1 X154.864Y190.246
G1 X154.999Y189.759
G1 X155.096Y189.264
G1 X155.154Y188.763
G1 X155.173Y188.258
G1 X155.153Y187.753
G1 X155.093Y187.248
G1 X154.994Y186.746
G1 X154.854Y186.251
G1 X154.673Y185.763
G1 X154.45Y185.286
G0 X154.45Y185.286
G0 X153.572Y181.865
G1 X153.602Y182.168
G1 X153.69Y182.449
G1 X153.828Y182.704
G1 X154.011Y182.926
G1 X154.233Y183.109
G1 X154.488Y183.247
G1 X154.769Y183.335
G1 X155.072Y183.365
G1 X155.374Y183.335
G1 X155.656Y183.247
G1 X155.91Y183.109
G1 X156.132Y182.926
G1 X156.316Y182.704
G1 X156.454Y182.449
G1 X156.541Y182.168
G1 X156.572Y181.865
G1 X156.541Y181.563
G1 X156.454Y181.281
G1 X156.316Y181.027
G1 X156.132Y180.805
G1 X155.91Y180.621
G1 X155.656Y180.483
G1 X155.374Y180.396
G1 X155.072Y180.365
G1 X154.769Y180.396
G1 X154.488Y180.483
G1 X154.233Y180.621
G1 X154.011Y180.805
G1 X153.828Y181.027
G1 X153.69Y181.281
G1 X153.602Y181.563
G1 X153.572Y181.865
G0 X160.601Y183.993
G1 X160.348Y183.682
G1 X160.166Y183.338
G1 X160.058Y182.971
G1 X160.021Y182.593
G1 X160.058Y182.214
G1 X160.166Y181.848
G1 X160.348Y181.503
G1 X160.601Y181.193
G1 X160.912Y180.939
G1 X161.256Y180.758
G1 X161.623Y180.649
G1 X162.001Y180.613
G1 X162.38Y180.649
G1 X162.746Y180.758
G1 X163.091Y180.939
G1 X163.401Y181.193
G0 X163.401Y181.193
G1 X164.694Y182.486
G0 X164.694Y182.486
G1 X165.235Y182.237
G1 X165.788Y182.042
G1 X166.349Y181.899
G1 X166.916Y181.807
G1 X167.484Y181.766
G1 X168.052Y181.775
G1 X168.614Y181.832
G1 X169.168Y181.938
G1 X169.712Y182.092
G1 X170.24Y182.292
G1 X170.751Y182.539
G1 X171.241Y182.83
G1 X171.706Y183.166
G1 X172.144Y183.546
G1 X172.551Y183.968
G1 X172.923Y184.432
G1 X173.252Y184.929
G1 X173.53Y185.445
G1 X173.758Y185.977
G1 X173.936Y186.523
G1 X174.065Y187.078
G1 X174.143Y187.64
G1 X174.173Y188.204
G1 X174.154Y188.768
G1 X174.086Y189.329
G1 X173.969Y189.882
G1 X173.805Y190.425
G1 X173.592Y190.954
G1 X173.332Y191.465
G1 X173.025Y191.956
G1 X172.67Y192.423
G1 X172.269Y192.863
G1 X171.829Y193.264
G1 X171.362Y193.619
G1 X170.871Y193.926
G1 X170.36Y194.186
G1 X169.831Y194.399
G1 X169.288Y194.563
G1 X168.735Y194.679
G1 X168.174Y194.747
G1 X167.61Y194.767
G1 X167.045Y194.737
G1 X166.484Y194.658
G1 X165.928Y194.53
G1 X165.383Y194.352
G1 X164.85Y194.123
G1 X164.334Y193.845
G1 X163.838Y193.516
G1 X163.374Y193.144
G1 X162.951Y192.737
G1 X162.572Y192.3
G1 X162.236Y191.834
G1 X161.945Y191.344
G1 X161.699Y190.833
G1 X161.498Y190.305
G1 X161.345Y189.761
G1 X161.239Y189.207
G1 X161.181Y188.644
G1 X161.172Y188.077
G1 X161.213Y187.509
G1 X161.305Y186.942
G1 X161.448Y186.381
G1 X161.644Y185.828
G1 X161.892Y185.287
G0 X161.892Y185.287
G1 Y185.284
G0 X161.892Y185.284
G1 X160.601Y183.993
G0 X172.572Y181.865
G1 X172.602Y182.168
G1 X172.69Y182.449
G1 X172.828Y182.704
G1 X173.011Y182.926
G1 X173.233Y183.109
G1 X173.488Y183.247
G1 X173.769Y183.335
G1 X174.072Y183.365
G1 X174.374Y183.335
G1 X174.656Y183.247
G1 X174.91Y183.109
G1 X175.132Y182.926
G1 X175.316Y182.704
G1 X175.454Y182.449
G1 X175.541Y182.168
G1 X175.572Y181.865
G1 X175.541Y181.563
G1 X175.454Y181.281
G1 X175.316Y181.027
G1 X175.132Y180.805
G1 X174.91Y180.621
G1 X174.656Y180.483
G1 X174.374Y180.396
G1 X174.072Y180.365
G1 X173.769Y180.396
G1 X173.488Y180.483
G1 X173.233Y180.621
G1 X173.011Y180.805
G1 X172.828Y181.027
G1 X172.69Y181.281
G1 X172.602Y181.563
G1 X172.572Y181.865
G0 X178.772Y175.665
G1 X178.802Y175.968
G1 X178.89Y176.249
G1 X179.028Y176.504
G1 X179.211Y176.726
G1 X179.433Y176.909
G1 X179.688Y177.047
G1 X179.969Y177.135
G1 X180.272Y177.165
G1 X180.574Y177.135
G1 X180.856Y177.047
G1 X181.11Y176.909
G1 X181.332Y176.726
G1 X181.516Y176.504
G1 X181.654Y176.249
G1 X181.741Y175.968
G1 X181.772Y175.665
G1 X181.741Y175.363
G1 X181.654Y175.081
G1 X181.516Y174.827
G1 X181.332Y174.605
G1 X181.11Y174.421
G1 X180.856Y174.283
G1 X180.574Y174.196
G1 X180.272Y174.165
G1 X179.969Y174.196
G1 X179.688Y174.283
G1 X179.433Y174.421
G1 X179.211Y174.605
G1 X179.028Y174.827
G1 X178.89Y175.081
G1 X178.802Y175.363
G1 X178.772Y175.665
G0 X183.704Y175.05
G1 X184.182Y175.271
G1 X184.669Y175.451
G1 X185.165Y175.59
G1 X185.667Y175.689
G1 X186.172Y175.748
G1 X186.678Y175.767
G1 X187.182Y175.747
G1 X187.683Y175.688
G1 X188.178Y175.59
G1 X188.664Y175.454
G1 X189.14Y175.28
G1 X189.602Y175.069
G1 X190.049Y174.821
G1 X190.478Y174.536
G1 X190.887Y174.215
G1 X191.274Y173.858
G1 X191.63Y173.471
G1 X191.95Y173.061
G1 X192.234Y172.632
G1 X192.482Y172.184
G1 X192.692Y171.721
G1 X192.864Y171.246
G1 X192.999Y170.759
G1 X193.096Y170.264
G1 X193.154Y169.763
G1 X193.173Y169.258
G1 X193.153Y168.753
G1 X193.093Y168.248
G1 X192.994Y167.746
G1 X192.854Y167.251
G1 X192.673Y166.763
G1 X192.45Y166.286
G0 X192.45Y166.286
G0 X191.572Y162.865
G1 X191.602Y163.168
G1 X191.69Y163.449
G1 X191.828Y163.704
G1 X192.011Y163.926
G1 X192.233Y164.109
G1 X192.488Y164.247
G1 X192.769Y164.335
G1 X193.072Y164.365
G1 X193.374Y164.335
G1 X193.656Y164.247
G1 X193.91Y164.109
G1 X194.132Y163.926
G1 X194.316Y163.704
G1 X194.454Y163.449
G1 X194.541Y163.168
G1 X194.572Y162.865
G1 X194.541Y162.563
G1 X194.454Y162.281
G1 X194.316Y162.027
G1 X194.132Y161.805
G1 X193.91Y161.621
G1 X193.656Y161.483
G1 X193.374Y161.396
G1 X193.072Y161.365
G1 X192.769Y161.396
G1 X192.488Y161.483
G1 X192.233Y161.621
G1 X192.011Y161.805
G1 X191.828Y162.027
G1 X191.69Y162.281
G1 X191.602Y162.563
G1 X191.572Y162.865
G0 X183.694Y163.486
G1 X184.235Y163.237
G1 X184.788Y163.042
G1 X185.349Y162.899
G1 X185.916Y162.807
G1 X186.484Y162.766
G1 X187.052Y162.775
G1 X187.614Y162.832
G1 X188.168Y162.938
G1 X188.712Y163.092
G1 X189.24Y163.292
G1 X189.751Y163.539
G1 X190.241Y163.83
G1 X190.706Y164.166
G1 X191.144Y164.546
G1 X191.551Y164.968
G1 X191.923Y165.432
G1 X192.252Y165.929
G1 X192.53Y166.445
G1 X192.758Y166.977
G1 X192.936Y167.523
G1 X193.065Y168.078
G1 X193.143Y168.64
G1 X193.173Y169.204
G1 X193.154Y169.768
G1 X193.086Y170.329
G1 X192.969Y170.882
G1 X192.805Y171.425
G1 X192.592Y171.954
G1 X192.332Y172.465
G1 X192.025Y172.956
G1 X191.67Y173.423
G1 X191.269Y173.863
G1 X190.829Y174.264
G1 X190.362Y174.619
G1 X189.871Y174.926
G1 X189.36Y175.186
G1 X188.831Y175.399
G1 X188.288Y175.563
G1 X187.735Y175.679
G1 X187.174Y175.747
G1 X186.61Y175.767
G1 X186.045Y175.737
G1 X185.484Y175.658
G1 X184.928Y175.53
G1 X184.383Y175.352
G1 X183.85Y175.123
G1 X183.334Y174.845
G1 X182.838Y174.516
G1 X182.374Y174.144
G1 X181.951Y173.737
G1 X181.572Y173.3
G1 X181.236Y172.834
G1 X180.945Y172.344
G1 X180.699Y171.833
G1 X180.498Y171.305
G1 X180.345Y170.761
G1 X180.239Y170.207
G1 X180.181Y169.644
G1 X180.172Y169.077
G1 X180.213Y168.509
G1 X180.305Y167.942
G1 X180.448Y167.381
G1 X180.644Y166.828
G1 X180.892Y166.287
G0 X180.892Y166.287
G1 Y166.284
G0 X180.892Y166.284
G1 X179.601Y164.993
G0 X179.601Y164.993
G1 X179.348Y164.682
G1 X179.166Y164.338
G1 X179.058Y163.971
G1 X179.021Y163.593
G1 X179.058Y163.214
G1 X179.166Y162.848
G1 X179.348Y162.503
G1 X179.601Y162.193
G1 X179.912Y161.939
G1 X180.256Y161.758
G1 X180.623Y161.649
G1 X181.001Y161.613
G1 X181.38Y161.649
G1 X181.746Y161.758
G1 X182.091Y161.939
G1 X182.401Y162.193
G0 X182.401Y162.193
G1 X183.694Y163.486
G0 X173.45Y166.286
G0 X173.45Y166.286
G1 X173.673Y166.763
G1 X173.854Y167.251
G1 X173.994Y167.746
G1 X174.093Y168.248
G1 X174.153Y168.753
G1 X174.173Y169.258
G1 X174.154Y169.763
G1 X174.096Y170.264
G1 X173.999Y170.759
G1 X173.864Y171.246
G1 X173.692Y171.721
G1 X173.482Y172.184
G1 X173.234Y172.632
G1 X172.95Y173.061
G1 X172.63Y173.471
G1 X172.274Y173.858
G1 X171.887Y174.215
G1 X171.478Y174.536
G1 X171.049Y174.821
G1 X170.602Y175.069
G1 X170.14Y175.28
G1 X169.664Y175.454
G1 X169.178Y175.59
G1 X168.683Y175.688
G1 X168.182Y175.747
G1 X167.678Y175.767
G1 X167.172Y175.748
G1 X166.667Y175.689
G1 X166.165Y175.59
G1 X165.669Y175.451
G1 X165.182Y175.271
G1 X164.704Y175.05
G0 X159.772Y175.665
G1 X159.802Y175.968
G1 X159.89Y176.249
G1 X160.028Y176.504
G1 X160.211Y176.726
G1 X160.433Y176.909
G1 X160.688Y177.047
G1 X160.969Y177.135
G1 X161.272Y177.165
G1 X161.574Y177.135
G1 X161.856Y177.047
G1 X162.11Y176.909
G1 X162.332Y176.726
G1 X162.516Y176.504
G1 X162.654Y176.249
G1 X162.741Y175.968
G1 X162.772Y175.665
G1 X162.741Y175.363
G1 X162.654Y175.081
G1 X162.516Y174.827
G1 X162.332Y174.605
G1 X162.11Y174.421
G1 X161.856Y174.283
G1 X161.574Y174.196
G1 X161.272Y174.165
G1 X160.969Y174.196
G1 X160.688Y174.283
G1 X160.433Y174.421
G1 X160.211Y174.605
G1 X160.028Y174.827
G1 X159.89Y175.081
G1 X159.802Y175.363
G1 X159.772Y175.665
G0 X145.704Y175.05
G1 X146.182Y175.271
G1 X146.669Y175.451
G1 X147.165Y175.59
G1 X147.667Y175.689
G1 X148.172Y175.748
G1 X148.678Y175.767
G1 X149.182Y175.747
G1 X149.683Y175.688
G1 X150.178Y175.59
G1 X150.664Y175.454
G1 X151.14Y175.28
G1 X151.602Y175.069
G1 X152.049Y174.821
G1 X152.478Y174.536
G1 X152.887Y174.215
G1 X153.274Y173.858
G1 X153.63Y173.471
G1 X153.95Y173.061
G1 X154.234Y172.632
G1 X154.482Y172.184
G1 X154.692Y171.721
G1 X154.864Y171.246
G1 X154.999Y170.759
G1 X155.096Y170.264
G1 X155.154Y169.763
G1 X155.173Y169.258
G1 X155.153Y168.753
G1 X155.093Y168.248
G1 X154.994Y167.746
G1 X154.854Y167.251
G1 X154.673Y166.763
G1 X154.45Y166.286
G0 X154.45Y166.286
G0 X153.572Y162.865
G1 X153.602Y163.168
G1 X153.69Y163.449
G1 X153.828Y163.704
G1 X154.011Y163.926
G1 X154.233Y164.109
G1 X154.488Y164.247
G1 X154.769Y164.335
G1 X155.072Y164.365
G1 X155.374Y164.335
G1 X155.656Y164.247
G1 X155.91Y164.109
G1 X156.132Y163.926
G1 X156.316Y163.704
G1 X156.454Y163.449
G1 X156.541Y163.168
G1 X156.572Y162.865
G1 X156.541Y162.563
G1 X156.454Y162.281
G1 X156.316Y162.027
G1 X156.132Y161.805
G1 X155.91Y161.621
G1 X155.656Y161.483
G1 X155.374Y161.396
G1 X155.072Y161.365
G1 X154.769Y161.396
G1 X154.488Y161.483
G1 X154.233Y161.621
G1 X154.011Y161.805
G1 X153.828Y162.027
G1 X153.69Y162.281
G1 X153.602Y162.563
G1 X153.572Y162.865
G0 X160.601Y164.993
G1 X160.348Y164.682
G1 X160.166Y164.338
G1 X160.058Y163.971
G1 X160.021Y163.593
G1 X160.058Y163.214
G1 X160.166Y162.848
G1 X160.348Y162.503
G1 X160.601Y162.193
G1 X160.912Y161.939
G1 X161.256Y161.758
G1 X161.623Y161.649
G1 X162.001Y161.613
G1 X162.38Y161.649
G1 X162.746Y161.758
G1 X163.091Y161.939
G1 X163.401Y162.193
G0 X163.401Y162.193
G1 X164.694Y163.486
G0 X164.694Y163.486
G1 X165.235Y163.237
G1 X165.788Y163.042
G1 X166.349Y162.899
G1 X166.916Y162.807
G1 X167.484Y162.766
G1 X168.052Y162.775
G1 X168.614Y162.832
G1 X169.168Y162.938
G1 X169.712Y163.092
G1 X170.24Y163.292
G1 X170.751Y163.539
G1 X171.241Y163.83
G1 X171.706Y164.166
G1 X172.144Y164.546
G1 X172.551Y164.968
G1 X172.923Y165.432
G1 X173.252Y165.929
G1 X173.53Y166.445
G1 X173.758Y166.977
G1 X173.936Y167.523
G1 X174.065Y168.078
G1 X174.143Y168.64
G1 X174.173Y169.204
G1 X174.154Y169.768
G1 X174.086Y170.329
G1 X173.969Y170.882
G1 X173.805Y171.425
G1 X173.592Y171.954
G1 X173.332Y172.465
G1 X173.025Y172.956
G1 X172.67Y173.423
G1 X172.269Y173.863
G1 X171.829Y174.264
G1 X171.362Y174.619
G1 X170.871Y174.926
G1 X170.36Y175.186
G1 X169.831Y175.399
G1 X169.288Y175.563
G1 X168.735Y175.679
G1 X168.174Y175.747
G1 X167.61Y175.767
G1 X167.045Y175.737
G1 X166.484Y175.658
G1 X165.928Y175.53
G1 X165.383Y175.352
G1 X164.85Y175.123
G1 X164.334Y174.845
G1 X163.838Y174.516
G1 X163.374Y174.144
G1 X162.951Y173.737
G1 X162.572Y173.3
G1 X162.236Y172.834
G1 X161.945Y172.344
G1 X161.699Y171.833
G1 X161.498Y171.305
G1 X161.345Y170.761
G1 X161.239Y170.207
G1 X161.181Y169.644
G1 X161.172Y169.077
G1 X161.213Y168.509
G1 X161.305Y167.942
G1 X161.448Y167.381
G1 X161.644Y166.828
G1 X161.892Y166.287
G0 X161.892Y166.287
G1 Y166.284
G0 X161.892Y166.284
G1 X160.601Y164.993
G0 X172.572Y162.865
G1 X172.602Y163.168
G1 X172.69Y163.449
G1 X172.828Y163.704
G1 X173.011Y163.926
G1 X173.233Y164.109
G1 X173.488Y164.247
G1 X173.769Y164.335
G1 X174.072Y164.365
G1 X174.374Y164.335
G1 X174.656Y164.247
G1 X174.91Y164.109
G1 X175.132Y163.926
G1 X175.316Y163.704
G1 X175.454Y163.449
G1 X175.541Y163.168
G1 X175.572Y162.865
G1 X175.541Y162.563
G1 X175.454Y162.281
G1 X175.316Y162.027
G1 X175.132Y161.805
G1 X174.91Y161.621
G1 X174.656Y161.483
G1 X174.374Y161.396
G1 X174.072Y161.365
G1 X173.769Y161.396
G1 X173.488Y161.483
G1 X173.233Y161.621
G1 X173.011Y161.805
G1 X172.828Y162.027
G1 X172.69Y162.281
G1 X172.602Y162.563
G1 X172.572Y162.865
G0 X178.772Y156.665
G1 X178.802Y156.968
G1 X178.89Y157.249
G1 X179.028Y157.504
G1 X179.211Y157.726
G1 X179.433Y157.909
G1 X179.688Y158.047
G1 X179.969Y158.135
G1 X180.272Y158.165
G1 X180.574Y158.135
G1 X180.856Y158.047
G1 X181.11Y157.909
G1 X181.332Y157.726
G1 X181.516Y157.504
G1 X181.654Y157.249
G1 X181.741Y156.968
G1 X181.772Y156.665
G1 X181.741Y156.363
G1 X181.654Y156.081
G1 X181.516Y155.827
G1 X181.332Y155.605
G1 X181.11Y155.421
G1 X180.856Y155.283
G1 X180.574Y155.196
G1 X180.272Y155.165
G1 X179.969Y155.196
G1 X179.688Y155.283
G1 X179.433Y155.421
G1 X179.211Y155.605
G1 X179.028Y155.827
G1 X178.89Y156.081
G1 X178.802Y156.363
G1 X178.772Y156.665
G0 X183.704Y156.05
G1 X184.182Y156.271
G1 X184.669Y156.451
G1 X185.165Y156.59
G1 X185.667Y156.689
G1 X186.172Y156.748
G1 X186.678Y156.767
G1 X187.182Y156.747
G1 X187.683Y156.688
G1 X188.178Y156.59
G1 X188.664Y156.454
G1 X189.14Y156.28
G1 X189.602Y156.069
G1 X190.049Y155.821
G1 X190.478Y155.536
G1 X190.887Y155.215
G1 X191.274Y154.858
G1 X191.63Y154.471
G1 X191.95Y154.061
G1 X192.234Y153.632
G1 X192.482Y153.184
G1 X192.692Y152.721
G1 X192.864Y152.246
G1 X192.999Y151.759
G1 X193.096Y151.264
G1 X193.154Y150.763
G1 X193.173Y150.258
G1 X193.153Y149.753
G1 X193.093Y149.248
G1 X192.994Y148.746
G1 X192.854Y148.251
G1 X192.673Y147.763
G1 X192.45Y147.286
G0 X192.45Y147.286
G0 X191.572Y143.865
G1 X191.602Y144.168
G1 X191.69Y144.449
G1 X191.828Y144.704
G1 X192.011Y144.926
G1 X192.233Y145.109
G1 X192.488Y145.247
G1 X192.769Y145.335
G1 X193.072Y145.365
G1 X193.374Y145.335
G1 X193.656Y145.247
G1 X193.91Y145.109
G1 X194.132Y144.926
G1 X194.316Y144.704
G1 X194.454Y144.449
G1 X194.541Y144.168
G1 X194.572Y143.865
G1 X194.541Y143.563
G1 X194.454Y143.281
G1 X194.316Y143.027
G1 X194.132Y142.805
G1 X193.91Y142.621
G1 X193.656Y142.483
G1 X193.374Y142.396
G1 X193.072Y142.365
G1 X192.769Y142.396
G1 X192.488Y142.483
G1 X192.233Y142.621
G1 X192.011Y142.805
G1 X191.828Y143.027
G1 X191.69Y143.281
G1 X191.602Y143.563
G1 X191.572Y143.865
G0 X183.694Y144.486
G1 X184.235Y144.237
G1 X184.788Y144.042
G1 X185.349Y143.899
G1 X185.916Y143.807
G1 X186.484Y143.766
G1 X187.052Y143.775
G1 X187.614Y143.832
G1 X188.168Y143.938
G1 X188.712Y144.092
G1 X189.24Y144.292
G1 X189.751Y144.539
G1 X190.241Y144.83
G1 X190.706Y145.166
G1 X191.144Y145.546
G1 X191.551Y145.968
G1 X191.923Y146.432
G1 X192.252Y146.929
G1 X192.53Y147.445
G1 X192.758Y147.977
G1 X192.936Y148.523
G1 X193.065Y149.078
G1 X193.143Y149.64
G1 X193.173Y150.204
G1 X193.154Y150.768
G1 X193.086Y151.329
G1 X192.969Y151.882
G1 X192.805Y152.425
G1 X192.592Y152.954
G1 X192.332Y153.465
G1 X192.025Y153.956
G1 X191.67Y154.423
G1 X191.269Y154.863
G1 X190.829Y155.264
G1 X190.362Y155.619
G1 X189.871Y155.926
G1 X189.36Y156.186
G1 X188.831Y156.399
G1 X188.288Y156.563
G1 X187.735Y156.679
G1 X187.174Y156.747
G1 X186.61Y156.767
G1 X186.045Y156.737
G1 X185.484Y156.658
G1 X184.928Y156.53
G1 X184.383Y156.352
G1 X183.85Y156.123
G1 X183.334Y155.845
G1 X182.838Y155.516
G1 X182.374Y155.144
G1 X181.951Y154.737
G1 X181.572Y154.3
G1 X181.236Y153.834
G1 X180.945Y153.344
G1 X180.699Y152.833
G1 X180.498Y152.305
G1 X180.345Y151.761
G1 X180.239Y151.207
G1 X180.181Y150.644
G1 X180.172Y150.077
G1 X180.213Y149.509
G1 X180.305Y148.942
G1 X180.448Y148.381
G1 X180.644Y147.828
G1 X180.892Y147.287
G0 X180.892Y147.287
G1 Y147.284
G0 X180.892Y147.284
G1 X179.601Y145.993
G0 X179.601Y145.993
G1 X179.348Y145.682
G1 X179.166Y145.338
G1 X179.058Y144.971
G1 X179.021Y144.593
G1 X179.058Y144.214
G1 X179.166Y143.848
G1 X179.348Y143.503
G1 X179.601Y143.193
G1 X179.912Y142.939
G1 X180.256Y142.758
G1 X180.623Y142.649
G1 X181.001Y142.613
G1 X181.38Y142.649
G1 X181.746Y142.758
G1 X182.091Y142.939
G1 X182.401Y143.193
G0 X182.401Y143.193
G1 X183.694Y144.486
G0 X173.45Y147.287
G0 X173.45Y147.288
G1 X173.673Y147.765
G1 X173.853Y148.252
G1 X173.994Y148.748
G1 X174.093Y149.249
G1 X174.153Y149.754
G1 X174.173Y150.26
G1 X174.154Y150.765
G1 X174.096Y151.266
G1 X173.999Y151.761
G1 X173.864Y152.247
G1 X173.692Y152.723
G1 X173.481Y153.186
G1 X173.234Y153.633
G1 X172.95Y154.063
G1 X172.63Y154.473
G1 X172.273Y154.86
G1 X171.887Y155.217
G1 X171.478Y155.538
G1 X171.049Y155.823
G1 X170.602Y156.071
G1 X170.14Y156.282
G1 X169.664Y156.456
G1 X169.178Y156.592
G1 X168.683Y156.689
G1 X168.182Y156.748
G1 X167.678Y156.769
G1 X167.172Y156.749
G1 X166.667Y156.691
G1 X166.165Y156.592
G1 X165.669Y156.453
G1 X165.182Y156.273
G1 X164.704Y156.052
G0 X159.772Y156.667
G1 X159.802Y156.969
G1 X159.89Y157.251
G1 X160.028Y157.506
G1 X160.211Y157.728
G1 X160.433Y157.911
G1 X160.688Y158.049
G1 X160.969Y158.137
G1 X161.272Y158.167
G1 X161.574Y158.137
G1 X161.856Y158.049
G1 X162.11Y157.911
G1 X162.332Y157.728
G1 X162.516Y157.506
G1 X162.654Y157.251
G1 X162.741Y156.969
G1 X162.772Y156.667
G1 X162.741Y156.365
G1 X162.654Y156.083
G1 X162.516Y155.828
G1 X162.332Y155.606
G1 X162.11Y155.423
G1 X161.856Y155.285
G1 X161.574Y155.197
G1 X161.272Y155.167
G1 X160.969Y155.197
G1 X160.688Y155.285
G1 X160.433Y155.423
G1 X160.211Y155.606
G1 X160.028Y155.828
G1 X159.89Y156.083
G1 X159.802Y156.365
G1 X159.772Y156.667
G0 X145.704Y156.05
G1 X146.182Y156.271
G1 X146.669Y156.451
G1 X147.165Y156.59
G1 X147.667Y156.689
G1 X148.172Y156.748
G1 X148.678Y156.767
G1 X149.182Y156.747
G1 X149.683Y156.688
G1 X150.178Y156.59
G1 X150.664Y156.454
G1 X151.14Y156.28
G1 X151.602Y156.069
G1 X152.049Y155.821
G1 X152.478Y155.536
G1 X152.887Y155.215
G1 X153.274Y154.858
G1 X153.63Y154.471
G1 X153.95Y154.061
G1 X154.234Y153.632
G1 X154.482Y153.184
G1 X154.692Y152.721
G1 X154.864Y152.246
G1 X154.999Y151.759
G1 X155.096Y151.264
G1 X155.154Y150.763
G1 X155.173Y150.258
G1 X155.153Y149.753
G1 X155.093Y149.248
G1 X154.994Y148.746
G1 X154.854Y148.251
G1 X154.673Y147.763
G1 X154.45Y147.286
G0 X154.45Y147.286
G0 X153.572Y143.865
G1 X153.602Y144.168
G1 X153.69Y144.449
G1 X153.828Y144.704
G1 X154.011Y144.926
G1 X154.233Y145.109
G1 X154.488Y145.247
G1 X154.769Y145.335
G1 X155.072Y145.365
G1 X155.374Y145.335
G1 X155.656Y145.247
G1 X155.91Y145.109
G1 X156.132Y144.926
G1 X156.316Y144.704
G1 X156.454Y144.449
G1 X156.541Y144.168
G1 X156.572Y143.865
G1 X156.541Y143.563
G1 X156.454Y143.281
G1 X156.316Y143.027
G1 X156.132Y142.805
G1 X155.91Y142.621
G1 X155.656Y142.483
G1 X155.374Y142.396
G1 X155.072Y142.365
G1 X154.769Y142.396
G1 X154.488Y142.483
G1 X154.233Y142.621
G1 X154.011Y142.805
G1 X153.828Y143.027
G1 X153.69Y143.281
G1 X153.602Y143.563
G1 X153.572Y143.865
G0 X160.601Y145.994
G1 X160.348Y145.684
G1 X160.166Y145.339
G1 X160.058Y144.972
G1 X160.021Y144.594
G1 X160.058Y144.216
G1 X160.166Y143.849
G1 X160.348Y143.505
G1 X160.601Y143.194
G1 X160.912Y142.941
G1 X161.256Y142.759
G1 X161.623Y142.651
G1 X162.001Y142.614
G1 X162.38Y142.651
G1 X162.746Y142.759
G1 X163.091Y142.941
G1 X163.401Y143.194
G0 X163.401Y143.194
G1 X164.694Y144.487
G0 X164.694Y144.487
G1 X165.235Y144.239
G1 X165.788Y144.043
G1 X166.349Y143.9
G1 X166.916Y143.809
G1 X167.484Y143.767
G1 X168.052Y143.776
G1 X168.614Y143.834
G1 X169.168Y143.94
G1 X169.712Y144.094
G1 X170.24Y144.294
G1 X170.751Y144.54
G1 X171.241Y144.832
G1 X171.706Y145.168
G1 X172.144Y145.547
G1 X172.551Y145.969
G1 X172.923Y146.434
G1 X173.252Y146.93
G1 X173.53Y147.446
G1 X173.758Y147.979
G1 X173.936Y148.524
G1 X174.065Y149.08
G1 X174.143Y149.641
G1 X174.173Y150.206
G1 X174.154Y150.77
G1 X174.086Y151.33
G1 X173.969Y151.884
G1 X173.805Y152.427
G1 X173.592Y152.955
G1 X173.332Y153.467
G1 X173.025Y153.958
G1 X172.67Y154.425
G1 X172.269Y154.864
G1 X171.829Y155.266
G1 X171.362Y155.62
G1 X170.871Y155.928
G1 X170.36Y156.188
G1 X169.831Y156.4
G1 X169.288Y156.565
G1 X168.735Y156.681
G1 X168.174Y156.749
G1 X167.61Y156.768
G1 X167.045Y156.738
G1 X166.484Y156.66
G1 X165.928Y156.531
G1 X165.383Y156.353
G1 X164.85Y156.125
G1 X164.334Y155.847
G1 X163.838Y155.518
G1 X163.374Y155.146
G1 X162.951Y154.739
G1 X162.572Y154.301
G1 X162.236Y153.836
G1 X161.945Y153.346
G1 X161.699Y152.835
G1 X161.498Y152.306
G1 X161.345Y151.763
G1 X161.239Y151.209
G1 X161.181Y150.646
G1 X161.172Y150.079
G1 X161.213Y149.511
G1 X161.305Y148.944
G1 X161.448Y148.383
G1 X161.644Y147.83
G1 X161.892Y147.289
G0 X161.892Y147.289
G1 Y147.285
G0 X161.892Y147.285
G1 X160.601Y145.994
G0 X172.572Y143.867
G1 X172.602Y144.169
G1 X172.69Y144.451
G1 X172.828Y144.706
G1 X173.011Y144.928
G1 X173.233Y145.111
G1 X173.488Y145.249
G1 X173.769Y145.337
G1 X174.072Y145.367
G1 X174.374Y145.337
G1 X174.656Y145.249
G1 X174.91Y145.111
G1 X175.132Y144.928
G1 X175.316Y144.706
G1 X175.454Y144.451
G1 X175.541Y144.169
G1 X175.572Y143.867
G1 X175.541Y143.565
G1 X175.454Y143.283
G1 X175.316Y143.028
G1 X175.132Y142.806
G1 X174.91Y142.623
G1 X174.656Y142.485
G1 X174.374Y142.397
G1 X174.072Y142.367
G1 X173.769Y142.397
G1 X173.488Y142.485
G1 X173.233Y142.623
G1 X173.011Y142.806
G1 X172.828Y143.028
G1 X172.69Y143.283
G1 X172.602Y143.565
G1 X172.572Y143.867
G0 X178.772Y137.665
G1 X178.802Y137.968
G1 X178.89Y138.249
G1 X179.028Y138.504
G1 X179.211Y138.726
G1 X179.433Y138.909
G1 X179.688Y139.047
G1 X179.969Y139.135
G1 X180.272Y139.165
G1 X180.574Y139.135
G1 X180.856Y139.047
G1 X181.11Y138.909
G1 X181.332Y138.726
G1 X181.516Y138.504
G1 X181.654Y138.249
G1 X181.741Y137.968
G1 X181.772Y137.665
G1 X181.741Y137.363
G1 X181.654Y137.081
G1 X181.516Y136.827
G1 X181.332Y136.605
G1 X181.11Y136.421
G1 X180.856Y136.283
G1 X180.574Y136.196
G1 X180.272Y136.165
G1 X179.969Y136.196
G1 X179.688Y136.283
G1 X179.433Y136.421
G1 X179.211Y136.605
G1 X179.028Y136.827
G1 X178.89Y137.081
G1 X178.802Y137.363
G1 X178.772Y137.665
G0 X183.704Y137.05
G1 X184.182Y137.271
G1 X184.669Y137.451
G1 X185.165Y137.59
G1 X185.667Y137.689
G1 X186.172Y137.748
G1 X186.678Y137.767
G1 X187.182Y137.747
G1 X187.683Y137.688
G1 X188.178Y137.59
G1 X188.664Y137.454
G1 X189.14Y137.28
G1 X189.602Y137.069
G1 X190.049Y136.821
G1 X190.478Y136.536
G1 X190.887Y136.215
G1 X191.274Y135.858
G1 X191.63Y135.471
G1 X191.95Y135.061
G1 X192.234Y134.632
G1 X192.482Y134.184
G1 X192.692Y133.721
G1 X192.864Y133.246
G1 X192.999Y132.759
G1 X193.096Y132.264
G1 X193.154Y131.763
G1 X193.173Y131.258
G1 X193.153Y130.753
G1 X193.093Y130.248
G1 X192.994Y129.746
G1 X192.854Y129.251
G1 X192.673Y128.763
G1 X192.45Y128.286
G0 X192.45Y128.286
G0 X191.572Y124.865
G1 X191.602Y125.168
G1 X191.69Y125.449
G1 X191.828Y125.704
G1 X192.011Y125.926
G1 X192.233Y126.109
G1 X192.488Y126.247
G1 X192.769Y126.335
G1 X193.072Y126.365
G1 X193.374Y126.335
G1 X193.656Y126.247
G1 X193.91Y126.109
G1 X194.132Y125.926
G1 X194.316Y125.704
G1 X194.454Y125.449
G1 X194.541Y125.168
G1 X194.572Y124.865
G1 X194.541Y124.563
G1 X194.454Y124.281
G1 X194.316Y124.027
G1 X194.132Y123.805
G1 X193.91Y123.621
G1 X193.656Y123.483
G1 X193.374Y123.396
G1 X193.072Y123.365
G1 X192.769Y123.396
G1 X192.488Y123.483
G1 X192.233Y123.621
G1 X192.011Y123.805
G1 X191.828Y124.027
G1 X191.69Y124.281
G1 X191.602Y124.563
G1 X191.572Y124.865
G0 X183.694Y125.486
G1 X184.235Y125.237
G1 X184.788Y125.042
G1 X185.349Y124.899
G1 X185.916Y124.807
G1 X186.484Y124.766
G1 X187.052Y124.775
G1 X187.614Y124.832
G1 X188.168Y124.938
G1 X188.712Y125.092
G1 X189.24Y125.292
G1 X189.751Y125.539
G1 X190.241Y125.83
G1 X190.706Y126.166
G1 X191.144Y126.546
G1 X191.551Y126.968
G1 X191.923Y127.432
G1 X192.252Y127.929
G1 X192.53Y128.445
G1 X192.758Y128.977
G1 X192.936Y129.523
G1 X193.065Y130.078
G1 X193.143Y130.64
G1 X193.173Y131.204
G1 X193.154Y131.768
G1 X193.086Y132.329
G1 X192.969Y132.882
G1 X192.805Y133.425
G1 X192.592Y133.954
G1 X192.332Y134.465
G1 X192.025Y134.956
G1 X191.67Y135.423
G1 X191.269Y135.863
G1 X190.829Y136.264
G1 X190.362Y136.619
G1 X189.871Y136.926
G1 X189.36Y137.186
G1 X188.831Y137.399
G1 X188.288Y137.563
G1 X187.735Y137.679
G1 X187.174Y137.747
G1 X186.61Y137.767
G1 X186.045Y137.737
G1 X185.484Y137.658
G1 X184.928Y137.53
G1 X184.383Y137.352
G1 X183.85Y137.123
G1 X183.334Y136.845
G1 X182.838Y136.516
G1 X182.374Y136.144
G1 X181.951Y135.737
G1 X181.572Y135.3
G1 X181.236Y134.834
G1 X180.945Y134.344
G1 X180.699Y133.833
G1 X180.498Y133.305
G1 X180.345Y132.761
G1 X180.239Y132.207
G1 X180.181Y131.644
G1 X180.172Y131.077
G1 X180.213Y130.509
G1 X180.305Y129.942
G1 X180.448Y129.381
G1 X180.644Y128.828
G1 X180.892Y128.287
G0 X180.892Y128.287
G1 Y128.284
G0 X180.892Y128.284
G1 X179.601Y126.993
G0 X179.601Y126.993
G1 X179.348Y126.682
G1 X179.166Y126.338
G1 X179.058Y125.971
G1 X179.021Y125.593
G1 X179.058Y125.214
G1 X179.166Y124.848
G1 X179.348Y124.503
G1 X179.601Y124.193
G1 X179.912Y123.939
G1 X180.256Y123.758
G1 X180.623Y123.649
G1 X181.001Y123.613
G1 X181.38Y123.649
G1 X181.746Y123.758
G1 X182.091Y123.939
G1 X182.401Y124.193
G0 X182.401Y124.193
G1 X183.694Y125.486
G0 X173.45Y128.287
G0 X173.45Y128.288
G1 X173.673Y128.765
G1 X173.853Y129.252
G1 X173.994Y129.748
G1 X174.093Y130.249
G1 X174.153Y130.754
G1 X174.173Y131.26
G1 X174.154Y131.765
G1 X174.096Y132.266
G1 X173.999Y132.761
G1 X173.864Y133.247
G1 X173.692Y133.723
G1 X173.481Y134.186
G1 X173.234Y134.633
G1 X172.95Y135.063
G1 X172.63Y135.473
G1 X172.273Y135.86
G1 X171.887Y136.217
G1 X171.478Y136.538
G1 X171.049Y136.823
G1 X170.602Y137.071
G1 X170.14Y137.282
G1 X169.664Y137.456
G1 X169.178Y137.592
G1 X168.683Y137.689
G1 X168.182Y137.748
G1 X167.678Y137.769
G1 X167.172Y137.749
G1 X166.667Y137.691
G1 X166.165Y137.592
G1 X165.669Y137.453
G1 X165.182Y137.273
G1 X164.704Y137.052
G0 X159.772Y137.667
G1 X159.802Y137.969
G1 X159.89Y138.251
G1 X160.028Y138.506
G1 X160.211Y138.728
G1 X160.433Y138.911
G1 X160.688Y139.049
G1 X160.969Y139.137
G1 X161.272Y139.167
G1 X161.574Y139.137
G1 X161.856Y139.049
G1 X162.11Y138.911
G1 X162.332Y138.728
G1 X162.516Y138.506
G1 X162.654Y138.251
G1 X162.741Y137.969
G1 X162.772Y137.667
G1 X162.741Y137.365
G1 X162.654Y137.083
G1 X162.516Y136.828
G1 X162.332Y136.606
G1 X162.11Y136.423
G1 X161.856Y136.285
G1 X161.574Y136.197
G1 X161.272Y136.167
G1 X160.969Y136.197
G1 X160.688Y136.285
G1 X160.433Y136.423
G1 X160.211Y136.606
G1 X160.028Y136.828
G1 X159.89Y137.083
G1 X159.802Y137.365
G1 X159.772Y137.667
G0 X145.704Y137.053
G1 X146.182Y137.275
G1 X146.669Y137.454
G1 X147.165Y137.594
G1 X147.667Y137.692
G1 X148.172Y137.751
G1 X148.678Y137.77
G1 X149.182Y137.75
G1 X149.683Y137.691
G1 X150.178Y137.593
G1 X150.664Y137.457
G1 X151.14Y137.284
G1 X151.602Y137.073
G1 X152.049Y136.824
G1 X152.478Y136.54
G1 X152.887Y136.218
G1 X153.274Y135.861
G1 X153.63Y135.474
G1 X153.95Y135.065
G1 X154.234Y134.635
G1 X154.482Y134.188
G1 X154.692Y133.725
G1 X154.864Y133.249
G1 X154.999Y132.762
G1 X155.096Y132.267
G1 X155.154Y131.766
G1 X155.173Y131.262
G1 X155.153Y130.756
G1 X155.093Y130.251
G1 X154.994Y129.75
G1 X154.854Y129.254
G1 X154.673Y128.767
G1 X154.45Y128.29
G0 X154.45Y128.29
G0 X153.572Y124.869
G1 X153.602Y125.171
G1 X153.69Y125.452
G1 X153.828Y125.707
G1 X154.011Y125.929
G1 X154.233Y126.112
G1 X154.488Y126.251
G1 X154.769Y126.338
G1 X155.072Y126.369
G1 X155.374Y126.338
G1 X155.656Y126.251
G1 X155.91Y126.112
G1 X156.132Y125.929
G1 X156.316Y125.707
G1 X156.454Y125.452
G1 X156.541Y125.171
G1 X156.572Y124.869
G1 X156.541Y124.566
G1 X156.454Y124.285
G1 X156.316Y124.03
G1 X156.132Y123.808
G1 X155.91Y123.625
G1 X155.656Y123.486
G1 X155.374Y123.399
G1 X155.072Y123.369
G1 X154.769Y123.399
G1 X154.488Y123.486
G1 X154.233Y123.625
G1 X154.011Y123.808
G1 X153.828Y124.03
G1 X153.69Y124.285
G1 X153.602Y124.566
G1 X153.572Y124.869
G0 X160.601Y126.994
G1 X160.348Y126.684
G1 X160.166Y126.339
G1 X160.058Y125.972
G1 X160.021Y125.594
G1 X160.058Y125.216
G1 X160.166Y124.849
G1 X160.348Y124.505
G1 X160.601Y124.194
G1 X160.912Y123.941
G1 X161.256Y123.759
G1 X161.623Y123.651
G1 X162.001Y123.614
G1 X162.38Y123.651
G1 X162.746Y123.759
G1 X163.091Y123.941
G1 X163.401Y124.194
G0 X163.401Y124.194
G1 X164.694Y125.487
G0 X164.694Y125.487
G1 X165.235Y125.239
G1 X165.788Y125.044
G1 X166.349Y124.9
G1 X166.916Y124.809
G1 X167.484Y124.767
G1 X168.052Y124.776
G1 X168.614Y124.834
G1 X169.168Y124.94
G1 X169.712Y125.094
G1 X170.24Y125.294
G1 X170.751Y125.54
G1 X171.241Y125.832
G1 X171.706Y126.168
G1 X172.144Y126.547
G1 X172.551Y126.969
G1 X172.923Y127.434
G1 X173.252Y127.93
G1 X173.53Y128.446
G1 X173.758Y128.979
G1 X173.936Y129.524
G1 X174.065Y130.08
G1 X174.143Y130.641
G1 X174.173Y131.206
G1 X174.154Y131.77
G1 X174.086Y132.33
G1 X173.969Y132.884
G1 X173.805Y133.427
G1 X173.592Y133.955
G1 X173.332Y134.467
G1 X173.025Y134.958
G1 X172.67Y135.425
G1 X172.269Y135.864
G1 X171.829Y136.266
G1 X171.362Y136.62
G1 X170.871Y136.928
G1 X170.36Y137.188
G1 X169.831Y137.4
G1 X169.288Y137.565
G1 X168.735Y137.681
G1 X168.174Y137.749
G1 X167.61Y137.768
G1 X167.045Y137.738
G1 X166.484Y137.66
G1 X165.928Y137.531
G1 X165.383Y137.353
G1 X164.85Y137.125
G1 X164.334Y136.847
G1 X163.838Y136.518
G1 X163.374Y136.146
G1 X162.951Y135.739
G1 X162.572Y135.301
G1 X162.236Y134.836
G1 X161.945Y134.346
G1 X161.699Y133.835
G1 X161.498Y133.306
G1 X161.345Y132.763
G1 X161.239Y132.209
G1 X161.181Y131.646
G1 X161.172Y131.079
G1 X161.213Y130.511
G1 X161.305Y129.944
G1 X161.448Y129.383
G1 X161.644Y128.83
G1 X161.892Y128.289
G0 X161.892Y128.289
G1 Y128.285
G0 X161.892Y128.285
G1 X160.601Y126.994
G0 X172.572Y124.867
G1 X172.602Y125.169
G1 X172.69Y125.451
G1 X172.828Y125.706
G1 X173.011Y125.928
G1 X173.233Y126.111
G1 X173.488Y126.249
G1 X173.769Y126.337
G1 X174.072Y126.367
G1 X174.374Y126.337
G1 X174.656Y126.249
G1 X174.91Y126.111
G1 X175.132Y125.928
G1 X175.316Y125.706
G1 X175.454Y125.451
G1 X175.541Y125.169
G1 X175.572Y124.867
G1 X175.541Y124.565
G1 X175.454Y124.283
G1 X175.316Y124.028
G1 X175.132Y123.806
G1 X174.91Y123.623
G1 X174.656Y123.485
G1 X174.374Y123.397
G1 X174.072Y123.367
G1 X173.769Y123.397
G1 X173.488Y123.485
G1 X173.233Y123.623
G1 X173.011Y123.806
G1 X172.828Y124.028
G1 X172.69Y124.283
G1 X172.602Y124.565
G1 X172.572Y124.867
G0 X145.694Y125.489
G1 X146.235Y125.241
G1 X146.788Y125.045
G1 X147.349Y124.902
G1 X147.916Y124.81
G1 X148.484Y124.769
G1 X149.052Y124.778
G1 X149.614Y124.836
G1 X150.168Y124.942
G1 X150.712Y125.095
G1 X151.24Y125.296
G1 X151.751Y125.542
G1 X152.241Y125.833
G1 X152.706Y126.169
G1 X153.144Y126.549
G1 X153.551Y126.971
G1 X153.923Y127.436
G1 X154.252Y127.932
G1 X154.53Y128.448
G1 X154.758Y128.98
G1 X154.936Y129.526
G1 X155.065Y130.081
G1 X155.143Y130.643
G1 X155.173Y131.208
G1 X155.154Y131.772
G1 X155.086Y132.332
G1 X154.969Y132.886
G1 X154.805Y133.428
G1 X154.592Y133.957
G1 X154.332Y134.469
G1 X154.025Y134.96
G1 X153.67Y135.427
G1 X153.269Y135.866
G1 X152.829Y136.268
G1 X152.362Y136.622
G1 X151.871Y136.929
G1 X151.36Y137.189
G1 X150.831Y137.402
G1 X150.288Y137.566
G1 X149.735Y137.683
G1 X149.174Y137.751
G1 X148.61Y137.77
G1 X148.045Y137.74
G1 X147.484Y137.661
G1 X146.928Y137.533
G1 X146.383Y137.355
G1 X145.85Y137.127
G1 X145.334Y136.848
G1 X144.838Y136.52
G1 X144.374Y136.147
G1 X143.951Y135.741
G1 X143.572Y135.303
G1 X143.236Y134.837
G1 X142.945Y134.348
G1 X142.698Y133.837
G1 X142.498Y133.308
G1 X142.345Y132.765
G1 X142.239Y132.21
G1 X142.181Y131.648
G1 X142.172Y131.081
G1 X142.213Y130.512
G1 X142.305Y129.946
G1 X142.448Y129.384
G1 X142.644Y128.832
G1 X142.892Y128.291
G0 X142.892Y128.291
G1 Y128.287
G0 X142.892Y128.287
G1 X141.601Y126.996
G0 X141.601Y126.996
G1 X141.349Y126.685
G1 X141.168Y126.341
G1 X141.06Y125.974
G1 X141.024Y125.597
G1 X141.061Y125.219
G1 X141.17Y124.853
G1 X141.351Y124.509
G1 X141.604Y124.199
G1 X141.914Y123.945
G1 X142.258Y123.764
G1 X142.625Y123.655
G1 X143.002Y123.619
G1 X143.38Y123.655
G1 X143.747Y123.763
G1 X144.091Y123.943
G1 X144.401Y124.196
G0 X144.401Y124.196
G1 X145.694Y125.489
G0 X140.772Y137.669
G1 X140.802Y137.971
G1 X140.89Y138.252
G1 X141.028Y138.507
G1 X141.211Y138.729
G1 X141.433Y138.912
G1 X141.688Y139.051
G1 X141.969Y139.138
G1 X142.272Y139.169
G1 X142.574Y139.138
G1 X142.856Y139.051
G1 X143.11Y138.912
G1 X143.332Y138.729
G1 X143.516Y138.507
G1 X143.654Y138.252
G1 X143.741Y137.971
G1 X143.772Y137.669
G1 X143.741Y137.366
G1 X143.654Y137.085
G1 X143.516Y136.83
G1 X143.332Y136.608
G1 X143.11Y136.425
G1 X142.856Y136.286
G1 X142.574Y136.199
G1 X142.272Y136.169
G1 X141.969Y136.199
G1 X141.688Y136.286
G1 X141.433Y136.425
G1 X141.211Y136.608
G1 X141.028Y136.83
G1 X140.89Y137.085
G1 X140.802Y137.366
G1 X140.772Y137.669
G0 X144.401Y143.193
G1 X144.091Y142.939
G1 X143.746Y142.758
G1 X143.38Y142.649
G1 X143.001Y142.613
G1 X142.623Y142.649
G1 X142.256Y142.758
G1 X141.912Y142.939
G1 X141.601Y143.193
G1 X141.348Y143.503
G1 X141.166Y143.848
G1 X141.058Y144.214
G1 X141.021Y144.593
G1 X141.058Y144.971
G1 X141.166Y145.338
G1 X141.348Y145.682
G1 X141.601Y145.993
G0 X141.601Y145.993
G1 X142.892Y147.284
G0 X142.892Y147.284
G1 Y147.287
G0 X142.892Y147.287
G1 X142.644Y147.828
G1 X142.448Y148.381
G1 X142.305Y148.942
G1 X142.213Y149.509
G1 X142.172Y150.077
G1 X142.181Y150.644
G1 X142.239Y151.207
G1 X142.345Y151.761
G1 X142.498Y152.305
G1 X142.699Y152.833
G1 X142.945Y153.344
G1 X143.236Y153.834
G1 X143.572Y154.3
G1 X143.951Y154.737
G1 X144.374Y155.144
G1 X144.838Y155.516
G1 X145.334Y155.845
G1 X145.85Y156.123
G1 X146.383Y156.352
G1 X146.928Y156.53
G1 X147.484Y156.658
G1 X148.045Y156.737
G1 X148.61Y156.767
G1 X149.174Y156.747
G1 X149.735Y156.679
G1 X150.288Y156.563
G1 X150.831Y156.399
G1 X151.36Y156.186
G1 X151.871Y155.926
G1 X152.362Y155.619
G1 X152.829Y155.264
G1 X153.269Y154.863
G1 X153.67Y154.423
G1 X154.025Y153.956
G1 X154.332Y153.465
G1 X154.592Y152.954
G1 X154.805Y152.425
G1 X154.969Y151.882
G1 X155.086Y151.329
G1 X155.154Y150.768
G1 X155.173Y150.204
G1 X155.143Y149.64
G1 X155.065Y149.078
G1 X154.936Y148.523
G1 X154.758Y147.977
G1 X154.53Y147.445
G1 X154.252Y146.929
G1 X153.923Y146.432
G1 X153.551Y145.968
G1 X153.144Y145.546
G1 X152.706Y145.166
G1 X152.241Y144.83
G1 X151.751Y144.539
G1 X151.24Y144.292
G1 X150.712Y144.092
G1 X150.168Y143.938
G1 X149.614Y143.832
G1 X149.052Y143.775
G1 X148.484Y143.766
G1 X147.916Y143.807
G1 X147.349Y143.899
G1 X146.788Y144.042
G1 X146.235Y144.237
G1 X145.694Y144.486
G0 X145.694Y144.486
G1 X144.401Y143.193
G0 X126.694Y144.486
G1 X127.235Y144.237
G1 X127.788Y144.042
G1 X128.349Y143.899
G1 X128.916Y143.807
G1 X129.484Y143.766
G1 X130.052Y143.775
G1 X130.614Y143.832
G1 X131.168Y143.938
G1 X131.712Y144.092
G1 X132.24Y144.292
G1 X132.751Y144.539
G1 X133.241Y144.83
G1 X133.706Y145.166
G1 X134.144Y145.546
G1 X134.551Y145.968
G1 X134.923Y146.432
G1 X135.252Y146.929
G1 X135.53Y147.445
G1 X135.758Y147.977
G1 X135.936Y148.523
G1 X136.065Y149.078
G1 X136.143Y149.64
G1 X136.173Y150.204
G1 X136.154Y150.768
G1 X136.086Y151.329
G1 X135.969Y151.882
G1 X135.805Y152.425
G1 X135.592Y152.954
G1 X135.332Y153.465
G1 X135.025Y153.956
G1 X134.67Y154.423
G1 X134.269Y154.863
G1 X133.829Y155.264
G1 X133.362Y155.619
G1 X132.871Y155.926
G1 X132.36Y156.186
G1 X131.831Y156.399
G1 X131.288Y156.563
G1 X130.735Y156.679
G1 X130.174Y156.747
G1 X129.61Y156.767
G1 X129.045Y156.737
G1 X128.484Y156.658
G1 X127.928Y156.53
G1 X127.383Y156.352
G1 X126.85Y156.123
G1 X126.334Y155.845
G1 X125.838Y155.516
G1 X125.374Y155.144
G1 X124.951Y154.737
G1 X124.572Y154.3
G1 X124.236Y153.834
G1 X123.945Y153.344
G1 X123.699Y152.833
G1 X123.498Y152.305
G1 X123.345Y151.761
G1 X123.239Y151.207
G1 X123.181Y150.644
G1 X123.172Y150.077
G1 X123.213Y149.509
G1 X123.305Y148.942
G1 X123.448Y148.381
G1 X123.644Y147.828
G1 X123.892Y147.287
G0 X140.772Y156.665
G1 X140.802Y156.968
G1 X140.89Y157.249
G1 X141.028Y157.504
G1 X141.211Y157.726
G1 X141.433Y157.909
G1 X141.688Y158.047
G1 X141.969Y158.135
G1 X142.272Y158.165
G1 X142.574Y158.135
G1 X142.856Y158.047
G1 X143.11Y157.909
G1 X143.332Y157.726
G1 X143.516Y157.504
G1 X143.654Y157.249
G1 X143.741Y156.968
G1 X143.772Y156.665
G1 X143.741Y156.363
G1 X143.654Y156.081
G1 X143.516Y155.827
G1 X143.332Y155.605
G1 X143.11Y155.421
G1 X142.856Y155.283
G1 X142.574Y155.196
G1 X142.272Y155.165
G1 X141.969Y155.196
G1 X141.688Y155.283
G1 X141.433Y155.421
G1 X141.211Y155.605
G1 X141.028Y155.827
G1 X140.89Y156.081
G1 X140.802Y156.363
G1 X140.772Y156.665
G0 X144.401Y162.193
G1 X144.091Y161.939
G1 X143.746Y161.758
G1 X143.38Y161.649
G1 X143.001Y161.613
G1 X142.623Y161.649
G1 X142.256Y161.758
G1 X141.912Y161.939
G1 X141.601Y162.193
G1 X141.348Y162.503
G1 X141.166Y162.848
G1 X141.058Y163.214
G1 X141.021Y163.593
G1 X141.058Y163.971
G1 X141.166Y164.338
G1 X141.348Y164.682
G1 X141.601Y164.993
G0 X141.601Y164.993
G1 X142.892Y166.284
G0 X142.892Y166.284
G1 Y166.287
G0 X142.892Y166.287
G1 X142.644Y166.828
G1 X142.448Y167.381
G1 X142.305Y167.942
G1 X142.213Y168.509
G1 X142.172Y169.077
G1 X142.181Y169.644
G1 X142.239Y170.207
G1 X142.345Y170.761
G1 X142.498Y171.305
G1 X142.699Y171.833
G1 X142.945Y172.344
G1 X143.236Y172.834
G1 X143.572Y173.3
G1 X143.951Y173.737
G1 X144.374Y174.144
G1 X144.838Y174.516
G1 X145.334Y174.845
G1 X145.85Y175.123
G1 X146.383Y175.352
G1 X146.928Y175.53
G1 X147.484Y175.658
G1 X148.045Y175.737
G1 X148.61Y175.767
G1 X149.174Y175.747
G1 X149.735Y175.679
G1 X150.288Y175.563
G1 X150.831Y175.399
G1 X151.36Y175.186
G1 X151.871Y174.926
G1 X152.362Y174.619
G1 X152.829Y174.264
G1 X153.269Y173.863
G1 X153.67Y173.423
G1 X154.025Y172.956
G1 X154.332Y172.465
G1 X154.592Y171.954
G1 X154.805Y171.425
G1 X154.969Y170.882
G1 X155.086Y170.329
G1 X155.154Y169.768
G1 X155.173Y169.204
G1 X155.143Y168.64
G1 X155.065Y168.078
G1 X154.936Y167.523
G1 X154.758Y166.977
G1 X154.53Y166.445
G1 X154.252Y165.929
G1 X153.923Y165.432
G1 X153.551Y164.968
G1 X153.144Y164.546
G1 X152.706Y164.166
G1 X152.241Y163.83
G1 X151.751Y163.539
G1 X151.24Y163.292
G1 X150.712Y163.092
G1 X150.168Y162.938
G1 X149.614Y162.832
G1 X149.052Y162.775
G1 X148.484Y162.766
G1 X147.916Y162.807
G1 X147.349Y162.899
G1 X146.788Y163.042
G1 X146.235Y163.237
G1 X145.694Y163.486
G0 X145.694Y163.486
G1 X144.401Y162.193
G0 X126.694Y163.486
G1 X127.235Y163.237
G1 X127.788Y163.042
G1 X128.349Y162.899
G1 X128.916Y162.807
G1 X129.484Y162.766
G1 X130.052Y162.775
G1 X130.614Y162.832
G1 X131.168Y162.938
G1 X131.712Y163.092
G1 X132.24Y163.292
G1 X132.751Y163.539
G1 X133.241Y163.83
G1 X133.706Y164.166
G1 X134.144Y164.546
G1 X134.551Y164.968
G1 X134.923Y165.432
G1 X135.252Y165.929
G1 X135.53Y166.445
G1 X135.758Y166.977
G1 X135.936Y167.523
G1 X136.065Y168.078
G1 X136.143Y168.64
G1 X136.173Y169.204
G1 X136.154Y169.768
G1 X136.086Y170.329
G1 X135.969Y170.882
G1 X135.805Y171.425
G1 X135.592Y171.954
G1 X135.332Y172.465
G1 X135.025Y172.956
G1 X134.67Y173.423
G1 X134.269Y173.863
G1 X133.829Y174.264
G1 X133.362Y174.619
G1 X132.871Y174.926
G1 X132.36Y175.186
G1 X131.831Y175.399
G1 X131.288Y175.563
G1 X130.735Y175.679
G1 X130.174Y175.747
G1 X129.61Y175.767
G1 X129.045Y175.737
G1 X128.484Y175.658
G1 X127.928Y175.53
G1 X127.383Y175.352
G1 X126.85Y175.123
G1 X126.334Y174.845
G1 X125.838Y174.516
G1 X125.374Y174.144
G1 X124.951Y173.737
G1 X124.572Y173.3
G1 X124.236Y172.834
G1 X123.945Y172.344
G1 X123.699Y171.833
G1 X123.498Y171.305
G1 X123.345Y170.761
G1 X123.239Y170.207
G1 X123.181Y169.644
G1 X123.172Y169.077
G1 X123.213Y168.509
G1 X123.305Y167.942
G1 X123.448Y167.381
G1 X123.644Y166.828
G1 X123.892Y166.287
G0 X140.772Y175.665
G1 X140.802Y175.968
G1 X140.89Y176.249
G1 X141.028Y176.504
G1 X141.211Y176.726
G1 X141.433Y176.909
G1 X141.688Y177.047
G1 X141.969Y177.135
G1 X142.272Y177.165
G1 X142.574Y177.135
G1 X142.856Y177.047
G1 X143.11Y176.909
G1 X143.332Y176.726
G1 X143.516Y176.504
G1 X143.654Y176.249
G1 X143.741Y175.968
G1 X143.772Y175.665
G1 X143.741Y175.363
G1 X143.654Y175.081
G1 X143.516Y174.827
G1 X143.332Y174.605
G1 X143.11Y174.421
G1 X142.856Y174.283
G1 X142.574Y174.196
G1 X142.272Y174.165
G1 X141.969Y174.196
G1 X141.688Y174.283
G1 X141.433Y174.421
G1 X141.211Y174.605
G1 X141.028Y174.827
G1 X140.89Y175.081
G1 X140.802Y175.363
G1 X140.772Y175.665
G0 X144.401Y181.193
G1 X144.091Y180.939
G1 X143.746Y180.758
G1 X143.38Y180.649
G1 X143.001Y180.613
G1 X142.623Y180.649
G1 X142.256Y180.758
G1 X141.912Y180.939
G1 X141.601Y181.193
G1 X141.348Y181.503
G1 X141.166Y181.848
G1 X141.058Y182.214
G1 X141.021Y182.593
G1 X141.058Y182.971
G1 X141.166Y183.338
G1 X141.348Y183.682
G1 X141.601Y183.993
G0 X141.601Y183.993
G1 X142.892Y185.284
G0 X142.892Y185.284
G1 Y185.287
G0 X142.892Y185.287
G1 X142.644Y185.828
G1 X142.448Y186.381
G1 X142.305Y186.942
G1 X142.213Y187.509
G1 X142.172Y188.077
G1 X142.181Y188.644
G1 X142.239Y189.207
G1 X142.345Y189.761
G1 X142.498Y190.305
G1 X142.699Y190.833
G1 X142.945Y191.344
G1 X143.236Y191.834
G1 X143.572Y192.3
G1 X143.951Y192.737
G1 X144.374Y193.144
G1 X144.838Y193.516
G1 X145.334Y193.845
G1 X145.85Y194.123
G1 X146.383Y194.352
G1 X146.928Y194.53
G1 X147.484Y194.658
G1 X148.045Y194.737
G1 X148.61Y194.767
G1 X149.174Y194.747
G1 X149.735Y194.679
G1 X150.288Y194.563
G1 X150.831Y194.399
G1 X151.36Y194.186
G1 X151.871Y193.926
G1 X152.362Y193.619
G1 X152.829Y193.264
G1 X153.269Y192.863
G1 X153.67Y192.423
G1 X154.025Y191.956
G1 X154.332Y191.465
G1 X154.592Y190.954
G1 X154.805Y190.425
G1 X154.969Y189.882
G1 X155.086Y189.329
G1 X155.154Y188.768
G1 X155.173Y188.204
G1 X155.143Y187.64
G1 X155.065Y187.078
G1 X154.936Y186.523
G1 X154.758Y185.977
G1 X154.53Y185.445
G1 X154.252Y184.929
G1 X153.923Y184.432
G1 X153.551Y183.968
G1 X153.144Y183.546
G1 X152.706Y183.166
G1 X152.241Y182.83
G1 X151.751Y182.539
G1 X151.24Y182.292
G1 X150.712Y182.092
G1 X150.168Y181.938
G1 X149.614Y181.832
G1 X149.052Y181.775
G1 X148.484Y181.766
G1 X147.916Y181.807
G1 X147.349Y181.899
G1 X146.788Y182.042
G1 X146.235Y182.237
G1 X145.694Y182.486
G0 X145.694Y182.486
G1 X144.401Y181.193
G0 X126.694Y182.486
G1 X127.235Y182.237
G1 X127.788Y182.042
G1 X128.349Y181.899
G1 X128.916Y181.807
G1 X129.484Y181.766
G1 X130.052Y181.775
G1 X130.614Y181.832
G1 X131.168Y181.938
G1 X131.712Y182.092
G1 X132.24Y182.292
G1 X132.751Y182.539
G1 X133.241Y182.83
G1 X133.706Y183.166
G1 X134.144Y183.546
G1 X134.551Y183.968
G1 X134.923Y184.432
G1 X135.252Y184.929
G1 X135.53Y185.445
G1 X135.758Y185.977
G1 X135.936Y186.523
G1 X136.065Y187.078
G1 X136.143Y187.64
G1 X136.173Y188.204
G1 X136.154Y188.768
G1 X136.086Y189.329
G1 X135.969Y189.882
G1 X135.805Y190.425
G1 X135.592Y190.954
G1 X135.332Y191.465
G1 X135.025Y191.956
G1 X134.67Y192.423
G1 X134.269Y192.863
G1 X133.829Y193.264
G1 X133.362Y193.619
G1 X132.871Y193.926
G1 X132.36Y194.186
G1 X131.831Y194.399
G1 X131.288Y194.563
G1 X130.735Y194.679
G1 X130.174Y194.747
G1 X129.61Y194.767
G1 X129.045Y194.737
G1 X128.484Y194.658
G1 X127.928Y194.53
G1 X127.383Y194.352
G1 X126.85Y194.123
G1 X126.334Y193.845
G1 X125.838Y193.516
G1 X125.374Y193.144
G1 X124.951Y192.737
G1 X124.572Y192.3
G1 X124.236Y191.834
G1 X123.945Y191.344
G1 X123.699Y190.833
G1 X123.498Y190.305
G1 X123.345Y189.761
G1 X123.239Y189.207
G1 X123.181Y188.644
G1 X123.172Y188.077
G1 X123.213Y187.509
G1 X123.305Y186.942
G1 X123.448Y186.381
G1 X123.644Y185.828
G1 X123.892Y185.287
G0 X123.892Y128.287
G1 X123.644Y128.828
G1 X123.448Y129.381
G1 X123.305Y129.942
G1 X123.213Y130.509
G1 X123.172Y131.077
G1 X123.181Y131.644
G1 X123.239Y132.207
G1 X123.345Y132.761
G1 X123.498Y133.305
G1 X123.699Y133.833
G1 X123.945Y134.344
G1 X124.236Y134.834
G1 X124.572Y135.3
G1 X124.951Y135.737
G1 X125.374Y136.144
G1 X125.838Y136.516
G1 X126.334Y136.845
G1 X126.85Y137.123
G1 X127.383Y137.352
G1 X127.928Y137.53
G1 X128.484Y137.658
G1 X129.045Y137.737
G1 X129.61Y137.767
G1 X130.174Y137.747
G1 X130.735Y137.679
G1 X131.288Y137.563
G1 X131.831Y137.399
G1 X132.36Y137.186
G1 X132.871Y136.926
G1 X133.362Y136.619
G1 X133.829Y136.264
G1 X134.269Y135.863
G1 X134.67Y135.423
G1 X135.025Y134.956
G1 X135.332Y134.465
G1 X135.592Y133.954
G1 X135.805Y133.425
G1 X135.969Y132.882
G1 X136.086Y132.329
G1 X136.154Y131.768
G1 X136.173Y131.204
G1 X136.143Y130.64
G1 X136.065Y130.078
G1 X135.936Y129.523
G1 X135.758Y128.977
G1 X135.53Y128.445
G1 X135.252Y127.929
G1 X134.923Y127.432
G1 X134.551Y126.968
G1 X134.144Y126.546
G1 X133.706Y126.166
G1 X133.241Y125.83
G1 X132.751Y125.539
G1 X132.24Y125.292
G1 X131.712Y125.092
G1 X131.168Y124.938
G1 X130.614Y124.832
G1 X130.052Y124.775
G1 X129.484Y124.766
G1 X128.916Y124.807
G1 X128.349Y124.899
G1 X127.788Y125.042
G1 X127.235Y125.237
G1 X126.694Y125.486
M9
G1 S0
M5
G90
; return to user-defined finish pos
G0 X0Y0
M2
