; LightBurn 1.7.06
; GRBL device profile, absolute coords
; Bounds: X112.5 Y100 to X187.5 Y200
G00 G17 G40 G21 G54
G90
M4
; Cut @ 600 mm/min, 80% power
M9
G0 X115Y100
; Layer C00
G1 X185S800F600
G0 X185Y100
G1 X185.256Y100.013
G1 X185.504Y100.051
G1 X185.743Y100.112
G1 X185.973Y100.196
G1 X186.398Y100.427
G1 X186.768Y100.732
G1 X187.073Y101.102
G1 X187.304Y101.527
G1 X187.388Y101.757
G1 X187.449Y101.996
G1 X187.487Y102.244
G1 X187.5Y102.5
G0 X187.5Y102.5
G1 Y197.5
G0 X187.5Y197.5
G1 X187.487Y197.756
G1 X187.449Y198.004
G1 X187.388Y198.243
G1 X187.304Y198.473
G1 X187.073Y198.898
G1 X186.768Y199.268
G1 X186.398Y199.573
G1 X185.973Y199.804
G1 X185.743Y199.888
G1 X185.504Y199.949
G1 X185.256Y199.987
G1 X185Y200
G0 X185Y200
G1 X115
G0 X115Y200
G1 X114.744Y199.987
G1 X114.496Y199.949
G1 X114.257Y199.888
G1 X114.027Y199.804
G1 X113.602Y199.573
G1 X113.232Y199.268
G1 X112.927Y198.898
G1 X112.696Y198.473
G1 X112.612Y198.243
G1 X112.551Y198.004
G1 X112.513Y197.756
G1 X112.5Y197.5
G0 X112.5Y197.5
G1 Y102.5
G0 X112.5Y102.5
G1 X112.513Y102.244
G1 X112.551Y101.996
G1 X112.612Y101.757
G1 X112.696Y101.527
G1 X112.927Y101.102
G1 X113.232Y100.732
G1 X113.602Y100.427
G1 X114.027Y100.196
G1 X114.257Y100.112
G1 X114.496Y100.051
G1 X114.744Y100.013
G1 X115Y100
G0 X116.601Y105.602
G1 X116.57Y105.904
G1 X116.483Y106.185
G1 X116.345Y106.44
G1 X116.161Y106.662
G1 X115.939Y106.845
G1 X115.685Y106.984
G1 X115.403Y107.071
G1 X115.101Y107.102
G1 X114.798Y107.071
G1 X114.517Y106.984
G1 X114.262Y106.845
G1 X114.04Y106.662
G1 X113.857Y106.44
G1 X113.719Y106.185
G1 X113.631Y105.904
G1 X113.601Y105.602
G1 X113.631Y105.299
G1 X113.719Y105.018
G1 X113.857Y104.763
G1 X114.04Y104.541
G1 X114.262Y104.358
G1 X114.517Y104.219
G1 X114.798Y104.132
G1 X115.101Y104.102
G1 X115.403Y104.132
G1 X115.685Y104.219
G1 X115.939Y104.358
G1 X116.161Y104.541
G1 X116.345Y104.763
G1 X116.483Y105.018
G1 X116.57Y105.299
G1 X116.601Y105.602
G0 X115.722Y109.022
G0 X115.722Y109.023
G1 X115.5Y109.5
G1 X115.319Y109.987
G1 X115.179Y110.483
G1 X115.079Y110.984
G1 X115.019Y111.489
G1 X114.999Y111.995
G1 X115.018Y112.499
G1 X115.076Y113
G1 X115.173Y113.495
G1 X115.308Y113.982
G1 X115.481Y114.458
G1 X115.691Y114.921
G1 X115.938Y115.368
G1 X116.222Y115.798
G1 X116.543Y116.207
G1 X116.899Y116.594
G1 X117.285Y116.951
G1 X117.694Y117.273
G1 X118.123Y117.557
G1 X118.57Y117.806
G1 X119.033Y118.017
G1 X119.508Y118.19
G1 X119.995Y118.326
G1 X120.489Y118.424
G1 X120.99Y118.483
G1 X121.495Y118.503
G1 X122.001Y118.484
G1 X122.506Y118.425
G1 X123.007Y118.327
G1 X123.503Y118.187
G1 X123.991Y118.008
G1 X124.468Y117.786
G0 X129.401Y118.402
G1 X129.37Y118.704
G1 X129.283Y118.985
G1 X129.145Y119.24
G1 X128.961Y119.462
G1 X128.739Y119.645
G1 X128.485Y119.784
G1 X128.203Y119.871
G1 X127.901Y119.902
G1 X127.598Y119.871
G1 X127.317Y119.784
G1 X127.062Y119.645
G1 X126.84Y119.462
G1 X126.657Y119.24
G1 X126.519Y118.985
G1 X126.431Y118.704
G1 X126.401Y118.402
G1 X126.431Y118.099
G1 X126.519Y117.818
G1 X126.657Y117.563
G1 X126.84Y117.341
G1 X127.062Y117.158
G1 X127.317Y117.019
G1 X127.598Y116.932
G1 X127.901Y116.902
G1 X128.203Y116.932
G1 X128.485Y117.019
G1 X128.739Y117.158
G1 X128.961Y117.341
G1 X129.145Y117.563
G1 X129.283Y117.818
G1 X129.37Y118.099
G1 X129.401Y118.402
G0 X125.771Y123.929
G1 X126.082Y123.675
G1 X126.426Y123.494
G1 X126.793Y123.385
G1 X127.171Y123.349
G1 X127.549Y123.385
G1 X127.916Y123.494
G1 X128.26Y123.675
G1 X128.571Y123.929
G1 X128.825Y124.239
G1 X129.006Y124.584
G1 X129.115Y124.951
G1 X129.151Y125.329
G1 X129.115Y125.707
G1 X129.006Y126.074
G1 X128.825Y126.418
G1 X128.571Y126.729
G0 X128.571Y126.729
G1 X127.28Y128.02
G0 X127.28Y128.02
G1 Y128.024
G0 X124.478Y125.222
G1 X125.771Y123.929
G0 X116.601Y124.602
G1 X116.57Y124.904
G1 X116.483Y125.185
G1 X116.345Y125.44
G1 X116.161Y125.662
G1 X115.939Y125.845
G1 X115.685Y125.984
G1 X115.403Y126.071
G1 X115.101Y126.102
G1 X114.798Y126.071
G1 X114.517Y125.984
G1 X114.262Y125.845
G1 X114.04Y125.662
G1 X113.857Y125.44
G1 X113.719Y125.185
G1 X113.631Y124.904
G1 X113.601Y124.602
G1 X113.631Y124.299
G1 X113.719Y124.018
G1 X113.857Y123.763
G1 X114.04Y123.541
G1 X114.262Y123.358
G1 X114.517Y123.219
G1 X114.798Y123.132
G1 X115.101Y123.102
G1 X115.403Y123.132
G1 X115.685Y123.219
G1 X115.939Y123.358
G1 X116.161Y123.541
G1 X116.345Y123.763
G1 X116.483Y124.018
G1 X116.57Y124.299
G1 X116.601Y124.602
G0 X115.722Y128.022
G0 X115.722Y128.023
G1 X115.5Y128.5
G1 X115.319Y128.987
G1 X115.179Y129.483
G1 X115.079Y129.984
G1 X115.019Y130.489
G1 X114.999Y130.995
G1 X115.018Y131.499
G1 X115.076Y132
G1 X115.173Y132.495
G1 X115.308Y132.982
G1 X115.481Y133.458
G1 X115.691Y133.921
G1 X115.938Y134.368
G1 X116.222Y134.798
G1 X116.543Y135.207
G1 X116.899Y135.594
G1 X117.285Y135.951
G1 X117.694Y136.273
G1 X118.123Y136.557
G1 X118.57Y136.806
G1 X119.033Y137.017
G1 X119.508Y137.19
G1 X119.995Y137.326
G1 X120.489Y137.424
G1 X120.99Y137.483
G1 X121.495Y137.503
G1 X122.001Y137.484
G1 X122.506Y137.425
G1 X123.007Y137.327
G1 X123.503Y137.188
G1 X123.991Y137.008
G1 X124.468Y136.786
G0 X129.401Y137.402
G1 X129.37Y137.704
G1 X129.283Y137.985
G1 X129.145Y138.24
G1 X128.961Y138.462
G1 X128.739Y138.645
G1 X128.485Y138.784
G1 X128.203Y138.871
G1 X127.901Y138.902
G1 X127.598Y138.871
G1 X127.317Y138.784
G1 X127.062Y138.645
G1 X126.84Y138.462
G1 X126.657Y138.24
G1 X126.519Y137.985
G1 X126.431Y137.704
G1 X126.401Y137.402
G1 X126.431Y137.099
G1 X126.519Y136.818
G1 X126.657Y136.563
G1 X126.84Y136.341
G1 X127.062Y136.158
G1 X127.317Y136.019
G1 X127.598Y135.932
G1 X127.901Y135.902
G1 X128.203Y135.932
G1 X128.485Y136.019
G1 X128.739Y136.158
G1 X128.961Y136.341
G1 X129.145Y136.563
G1 X129.283Y136.818
G1 X129.37Y137.099
G1 X129.401Y137.402
G0 X125.771Y142.929
G1 X126.082Y142.675
G1 X126.426Y142.494
G1 X126.793Y142.385
G1 X127.171Y142.349
G1 X127.549Y142.385
G1 X127.916Y142.494
G1 X128.26Y142.675
G1 X128.571Y142.929
G1 X128.825Y143.239
G1 X129.006Y143.584
G1 X129.115Y143.951
G1 X129.151Y144.329
G1 X129.115Y144.707
G1 X129.006Y145.074
G1 X128.825Y145.418
G1 X128.571Y145.729
G0 X128.571Y145.729
G1 X127.28Y147.02
G0 X127.28Y147.02
G1 Y147.024
G0 X124.478Y144.222
G1 X125.771Y142.929
G0 X116.601Y143.602
G1 X116.57Y143.904
G1 X116.483Y144.185
G1 X116.345Y144.44
G1 X116.161Y144.662
G1 X115.939Y144.845
G1 X115.685Y144.984
G1 X115.403Y145.071
G1 X115.101Y145.102
G1 X114.798Y145.071
G1 X114.517Y144.984
G1 X114.262Y144.845
G1 X114.04Y144.662
G1 X113.857Y144.44
G1 X113.719Y144.185
G1 X113.631Y143.904
G1 X113.601Y143.602
G1 X113.631Y143.299
G1 X113.719Y143.018
G1 X113.857Y142.763
G1 X114.04Y142.541
G1 X114.262Y142.358
G1 X114.517Y142.219
G1 X114.798Y142.132
G1 X115.101Y142.102
G1 X115.403Y142.132
G1 X115.685Y142.219
G1 X115.939Y142.358
G1 X116.161Y142.541
G1 X116.345Y142.763
G1 X116.483Y143.018
G1 X116.57Y143.299
G1 X116.601Y143.602
G0 X115.722Y147.022
G0 X115.722Y147.023
G1 X115.5Y147.5
G1 X115.319Y147.987
G1 X115.179Y148.483
G1 X115.079Y148.984
G1 X115.019Y149.489
G1 X114.999Y149.995
G1 X115.018Y150.499
G1 X115.076Y151
G1 X115.173Y151.495
G1 X115.308Y151.982
G1 X115.481Y152.458
G1 X115.691Y152.921
G1 X115.938Y153.368
G1 X116.222Y153.798
G1 X116.543Y154.207
G1 X116.899Y154.594
G1 X117.285Y154.951
G1 X117.694Y155.273
G1 X118.123Y155.557
G1 X118.57Y155.806
G1 X119.033Y156.017
G1 X119.508Y156.19
G1 X119.995Y156.326
G1 X120.489Y156.424
G1 X120.99Y156.483
G1 X121.495Y156.503
G1 X122.001Y156.484
G1 X122.506Y156.425
G1 X123.007Y156.327
G1 X123.503Y156.188
G1 X123.991Y156.008
G1 X124.468Y155.786
G0 X129.401Y156.402
G1 X129.37Y156.704
G1 X129.283Y156.985
G1 X129.145Y157.24
G1 X128.961Y157.462
G1 X128.739Y157.645
G1 X128.485Y157.784
G1 X128.203Y157.871
G1 X127.901Y157.902
G1 X127.598Y157.871
G1 X127.317Y157.784
G1 X127.062Y157.645
G1 X126.84Y157.462
G1 X126.657Y157.24
G1 X126.519Y156.985
G1 X126.431Y156.704
G1 X126.401Y156.402
G1 X126.431Y156.099
G1 X126.519Y155.818
G1 X126.657Y155.563
G1 X126.84Y155.341
G1 X127.062Y155.158
G1 X127.317Y155.019
G1 X127.598Y154.932
G1 X127.901Y154.902
G1 X128.203Y154.932
G1 X128.485Y155.019
G1 X128.739Y155.158
G1 X128.961Y155.341
G1 X129.145Y155.563
G1 X129.283Y155.818
G1 X129.37Y156.099
G1 X129.401Y156.402
G0 X125.771Y161.929
G1 X126.082Y161.675
G1 X126.426Y161.494
G1 X126.793Y161.385
G1 X127.171Y161.349
G1 X127.549Y161.385
G1 X127.916Y161.494
G1 X128.26Y161.675
G1 X128.571Y161.929
G1 X128.825Y162.239
G1 X129.006Y162.584
G1 X129.115Y162.951
G1 X129.151Y163.329
G1 X129.115Y163.707
G1 X129.006Y164.074
G1 X128.825Y164.418
G1 X128.571Y164.729
G0 X128.571Y164.729
G1 X127.28Y166.02
G0 X127.28Y166.02
G1 Y166.024
G0 X124.478Y163.222
G1 X125.771Y161.929
G0 X116.601Y162.602
G1 X116.57Y162.904
G1 X116.483Y163.185
G1 X116.345Y163.44
G1 X116.161Y163.662
G1 X115.939Y163.845
G1 X115.685Y163.984
G1 X115.403Y164.071
G1 X115.101Y164.102
G1 X114.798Y164.071
G1 X114.517Y163.984
G1 X114.262Y163.845
G1 X114.04Y163.662
G1 X113.857Y163.44
G1 X113.719Y163.185
G1 X113.631Y162.904
G1 X113.601Y162.602
G1 X113.631Y162.299
G1 X113.719Y162.018
G1 X113.857Y161.763
G1 X114.04Y161.541
G1 X114.262Y161.358
G1 X114.517Y161.219
G1 X114.798Y161.132
G1 X115.101Y161.102
G1 X115.403Y161.132
G1 X115.685Y161.219
G1 X115.939Y161.358
G1 X116.161Y161.541
G1 X116.345Y161.763
G1 X116.483Y162.018
G1 X116.57Y162.299
G1 X116.601Y162.602
G0 X115.722Y166.022
G0 X115.722Y166.023
G1 X115.5Y166.5
G1 X115.319Y166.987
G1 X115.179Y167.483
G1 X115.079Y167.984
G1 X115.019Y168.489
G1 X114.999Y168.995
G1 X115.018Y169.499
G1 X115.076Y170
G1 X115.173Y170.495
G1 X115.308Y170.982
G1 X115.481Y171.458
G1 X115.691Y171.921
G1 X115.938Y172.368
G1 X116.222Y172.798
G1 X116.543Y173.207
G1 X116.899Y173.594
G1 X117.285Y173.951
G1 X117.694Y174.273
G1 X118.123Y174.557
G1 X118.57Y174.806
G1 X119.033Y175.017
G1 X119.508Y175.19
G1 X119.995Y175.326
G1 X120.489Y175.424
G1 X120.99Y175.483
G1 X121.495Y175.503
G1 X122.001Y175.484
G1 X122.506Y175.425
G1 X123.007Y175.327
G1 X123.503Y175.188
G1 X123.991Y175.008
G1 X124.468Y174.786
G0 X129.401Y175.402
G1 X129.37Y175.704
G1 X129.283Y175.985
G1 X129.145Y176.24
G1 X128.961Y176.462
G1 X128.739Y176.645
G1 X128.485Y176.784
G1 X128.203Y176.871
G1 X127.901Y176.902
G1 X127.598Y176.871
G1 X127.317Y176.784
G1 X127.062Y176.645
G1 X126.84Y176.462
G1 X126.657Y176.24
G1 X126.519Y175.985
G1 X126.431Y175.704
G1 X126.401Y175.402
G1 X126.431Y175.099
G1 X126.519Y174.818
G1 X126.657Y174.563
G1 X126.84Y174.341
G1 X127.062Y174.158
G1 X127.317Y174.019
G1 X127.598Y173.932
G1 X127.901Y173.902
G1 X128.203Y173.932
G1 X128.485Y174.019
G1 X128.739Y174.158
G1 X128.961Y174.341
G1 X129.145Y174.563
G1 X129.283Y174.818
G1 X129.37Y175.099
G1 X129.401Y175.402
G0 X125.789Y180.947
G1 X126.1Y180.694
G1 X126.444Y180.514
G1 X126.811Y180.406
G1 X127.188Y180.37
G1 X127.566Y180.407
G1 X127.932Y180.515
G1 X128.276Y180.697
G1 X128.586Y180.95
G1 X128.84Y181.26
G1 X129.021Y181.604
G1 X129.13Y181.97
G1 X129.166Y182.348
G1 X129.13Y182.726
G1 X129.022Y183.092
G1 X128.842Y183.436
G1 X128.589Y183.747
G0 X128.589Y183.747
G1 X127.298Y185.038
G0 X127.298Y185.038
G1 Y185.042
G0 X124.496Y182.24
G1 X125.789Y180.947
G0 X116.619Y181.62
G1 X116.588Y181.922
G1 X116.501Y182.203
G1 X116.363Y182.458
G1 X116.18Y182.68
G1 X115.958Y182.863
G1 X115.703Y183.002
G1 X115.421Y183.089
G1 X115.119Y183.12
G1 X114.817Y183.089
G1 X114.535Y183.002
G1 X114.28Y182.863
G1 X114.058Y182.68
G1 X113.875Y182.458
G1 X113.737Y182.203
G1 X113.649Y181.922
G1 X113.619Y181.62
G1 X113.649Y181.317
G1 X113.737Y181.036
G1 X113.875Y180.781
G1 X114.058Y180.559
G1 X114.28Y180.376
G1 X114.535Y180.237
G1 X114.817Y180.15
G1 X115.119Y180.12
G1 X115.421Y180.15
G1 X115.703Y180.237
G1 X115.958Y180.376
G1 X116.18Y180.559
G1 X116.363Y180.781
G1 X116.501Y181.036
G1 X116.588Y181.317
G1 X116.619Y181.62
G0 X115.74Y185.04
G0 X115.74Y185.041
G1 X115.518Y185.518
G1 X115.337Y186.005
G1 X115.197Y186.501
G1 X115.097Y187.002
G1 X115.037Y187.507
G1 X115.017Y188.013
G1 X115.036Y188.517
G1 X115.094Y189.018
G1 X115.191Y189.513
G1 X115.326Y190
G1 X115.499Y190.476
G1 X115.709Y190.939
G1 X115.956Y191.386
G1 X116.24Y191.816
G1 X116.561Y192.225
G1 X116.917Y192.612
G1 X117.303Y192.969
G1 X117.712Y193.291
G1 X118.141Y193.575
G1 X118.588Y193.824
G1 X119.051Y194.035
G1 X119.526Y194.208
G1 X120.013Y194.344
G1 X120.507Y194.442
G1 X121.008Y194.501
G1 X121.513Y194.521
G1 X122.019Y194.502
G1 X122.524Y194.443
G1 X123.025Y194.345
G1 X123.521Y194.205
G1 X124.009Y194.026
G1 X124.486Y193.804
G0 X129.419Y194.42
G1 X129.388Y194.722
G1 X129.301Y195.003
G1 X129.163Y195.258
G1 X128.98Y195.48
G1 X128.758Y195.663
G1 X128.503Y195.802
G1 X128.221Y195.889
G1 X127.919Y195.92
G1 X127.617Y195.889
G1 X127.335Y195.802
G1 X127.08Y195.663
G1 X126.858Y195.48
G1 X126.675Y195.258
G1 X126.537Y195.003
G1 X126.449Y194.722
G1 X126.419Y194.42
G1 X126.449Y194.117
G1 X126.537Y193.836
G1 X126.675Y193.581
G1 X126.858Y193.359
G1 X127.08Y193.176
G1 X127.335Y193.037
G1 X127.617Y192.95
G1 X127.919Y192.92
G1 X128.221Y192.95
G1 X128.503Y193.037
G1 X128.758Y193.176
G1 X128.98Y193.359
G1 X129.163Y193.581
G1 X129.301Y193.836
G1 X129.388Y194.117
G1 X129.419Y194.42
G0 X143.468Y193.786
G1 X142.991Y194.008
G1 X142.503Y194.188
G1 X142.007Y194.327
G1 X141.506Y194.425
G1 X141.001Y194.484
G1 X140.495Y194.503
G1 X139.99Y194.483
G1 X139.489Y194.424
G1 X138.995Y194.326
G1 X138.508Y194.19
G1 X138.033Y194.017
G1 X137.57Y193.806
G1 X137.123Y193.557
G1 X136.694Y193.273
G1 X136.285Y192.951
G1 X135.899Y192.594
G1 X135.543Y192.207
G1 X135.222Y191.798
G1 X134.938Y191.368
G1 X134.691Y190.921
G1 X134.481Y190.458
G1 X134.308Y189.982
G1 X134.173Y189.495
G1 X134.076Y189
G1 X134.018Y188.499
G1 X133.999Y187.995
G1 X134.019Y187.489
G1 X134.079Y186.984
G1 X134.179Y186.483
G1 X134.319Y185.987
G1 X134.5Y185.5
G1 X134.722Y185.023
G0 X134.722Y185.023
G0 X135.601Y181.602
G1 X135.57Y181.904
G1 X135.483Y182.185
G1 X135.345Y182.44
G1 X135.161Y182.662
G1 X134.939Y182.845
G1 X134.685Y182.984
G1 X134.403Y183.071
G1 X134.101Y183.102
G1 X133.798Y183.071
G1 X133.517Y182.984
G1 X133.262Y182.845
G1 X133.04Y182.662
G1 X132.857Y182.44
G1 X132.719Y182.185
G1 X132.631Y181.904
G1 X132.601Y181.602
G1 X132.631Y181.299
G1 X132.719Y181.018
G1 X132.857Y180.763
G1 X133.04Y180.541
G1 X133.262Y180.358
G1 X133.517Y180.219
G1 X133.798Y180.132
G1 X134.101Y180.102
G1 X134.403Y180.132
G1 X134.685Y180.219
G1 X134.939Y180.358
G1 X135.161Y180.541
G1 X135.345Y180.763
G1 X135.483Y181.018
G1 X135.57Y181.299
G1 X135.601Y181.602
G0 X143.478Y182.222
G1 X142.937Y181.974
G1 X142.384Y181.778
G1 X141.823Y181.635
G1 X141.256Y181.543
G1 X140.688Y181.502
G1 X140.121Y181.511
G1 X139.559Y181.569
G1 X139.004Y181.675
G1 X138.461Y181.828
G1 X137.932Y182.029
G1 X137.421Y182.275
G1 X136.931Y182.566
G1 X136.466Y182.902
G1 X136.028Y183.282
G1 X135.622Y183.704
G1 X135.249Y184.169
G1 X134.921Y184.665
G1 X134.642Y185.181
G1 X134.414Y185.713
G1 X134.236Y186.259
G1 X134.108Y186.814
G1 X134.029Y187.376
G1 X133.999Y187.941
G1 X134.019Y188.505
G1 X134.087Y189.065
G1 X134.203Y189.618
G1 X134.368Y190.161
G1 X134.58Y190.69
G1 X134.84Y191.202
G1 X135.148Y191.693
G1 X135.502Y192.16
G1 X135.904Y192.599
G1 X136.343Y193
G1 X136.81Y193.355
G1 X137.301Y193.662
G1 X137.813Y193.922
G1 X138.342Y194.135
G1 X138.885Y194.299
G1 X139.438Y194.416
G1 X139.998Y194.484
G1 X140.563Y194.503
G1 X141.127Y194.473
G1 X141.689Y194.394
G1 X142.244Y194.266
G1 X142.79Y194.088
G1 X143.322Y193.86
G1 X143.838Y193.581
G1 X144.334Y193.253
G1 X144.799Y192.88
G1 X145.221Y192.474
G1 X145.6Y192.036
G1 X145.936Y191.57
G1 X146.228Y191.081
G1 X146.474Y190.57
G1 X146.674Y190.041
G1 X146.828Y189.498
G1 X146.934Y188.943
G1 X146.992Y188.381
G1 X147Y187.814
G1 X146.959Y187.245
G1 X146.867Y186.679
G1 X146.724Y186.117
G1 X146.529Y185.565
G1 X146.28Y185.024
G0 X146.28Y185.024
G1 Y185.02
G0 X146.28Y185.02
G1 X147.571Y183.729
G0 X147.571Y183.729
G1 X147.825Y183.418
G1 X148.006Y183.074
G1 X148.115Y182.707
G1 X148.151Y182.329
G1 X148.115Y181.951
G1 X148.006Y181.584
G1 X147.825Y181.239
G1 X147.571Y180.929
G1 X147.261Y180.675
G1 X146.916Y180.494
G1 X146.549Y180.385
G1 X146.171Y180.349
G1 X145.793Y180.385
G1 X145.426Y180.494
G1 X145.082Y180.675
G1 X144.771Y180.929
G0 X144.771Y180.929
G1 X143.478Y182.222
G0 X153.722Y185.022
G0 X153.722Y185.023
G1 X153.5Y185.5
G1 X153.319Y185.987
G1 X153.179Y186.483
G1 X153.079Y186.984
G1 X153.019Y187.489
G1 X152.999Y187.995
G1 X153.018Y188.499
G1 X153.076Y189
G1 X153.173Y189.495
G1 X153.308Y189.982
G1 X153.481Y190.458
G1 X153.691Y190.921
G1 X153.938Y191.368
G1 X154.222Y191.798
G1 X154.543Y192.207
G1 X154.899Y192.594
G1 X155.285Y192.951
G1 X155.694Y193.273
G1 X156.123Y193.557
G1 X156.57Y193.806
G1 X157.033Y194.017
G1 X157.508Y194.19
G1 X157.995Y194.326
G1 X158.489Y194.424
G1 X158.99Y194.483
G1 X159.495Y194.503
G1 X160.001Y194.484
G1 X160.506Y194.425
G1 X161.007Y194.327
G1 X161.503Y194.188
G1 X161.991Y194.008
G1 X162.468Y193.786
G0 X167.401Y194.402
G1 X167.37Y194.704
G1 X167.283Y194.985
G1 X167.145Y195.24
G1 X166.961Y195.462
G1 X166.739Y195.645
G1 X166.485Y195.784
G1 X166.203Y195.871
G1 X165.901Y195.902
G1 X165.598Y195.871
G1 X165.317Y195.784
G1 X165.062Y195.645
G1 X164.84Y195.462
G1 X164.657Y195.24
G1 X164.519Y194.985
G1 X164.431Y194.704
G1 X164.401Y194.402
G1 X164.431Y194.099
G1 X164.519Y193.818
G1 X164.657Y193.563
G1 X164.84Y193.341
G1 X165.062Y193.158
G1 X165.317Y193.019
G1 X165.598Y192.932
G1 X165.901Y192.902
G1 X166.203Y192.932
G1 X166.485Y193.019
G1 X166.739Y193.158
G1 X166.961Y193.341
G1 X167.145Y193.563
G1 X167.283Y193.818
G1 X167.37Y194.099
G1 X167.401Y194.402
G0 X181.468Y193.786
G1 X180.991Y194.008
G1 X180.503Y194.188
G1 X180.007Y194.327
G1 X179.506Y194.425
G1 X179.001Y194.484
G1 X178.495Y194.503
G1 X177.99Y194.483
G1 X177.489Y194.424
G1 X176.995Y194.326
G1 X176.508Y194.19
G1 X176.033Y194.017
G1 X175.57Y193.806
G1 X175.123Y193.557
G1 X174.694Y193.273
G1 X174.285Y192.951
G1 X173.899Y192.594
G1 X173.543Y192.207
G1 X173.222Y191.798
G1 X172.938Y191.368
G1 X172.691Y190.921
G1 X172.481Y190.458
G1 X172.308Y189.982
G1 X172.173Y189.495
G1 X172.076Y189
G1 X172.018Y188.499
G1 X171.999Y187.995
G1 X172.019Y187.489
G1 X172.079Y186.984
G1 X172.179Y186.483
G1 X172.319Y185.987
G1 X172.5Y185.5
G1 X172.722Y185.023
G0 X172.722Y185.023
G0 X173.601Y181.602
G1 X173.57Y181.904
G1 X173.483Y182.185
G1 X173.345Y182.44
G1 X173.161Y182.662
G1 X172.939Y182.845
G1 X172.685Y182.984
G1 X172.403Y183.071
G1 X172.101Y183.102
G1 X171.798Y183.071
G1 X171.517Y182.984
G1 X171.262Y182.845
G1 X171.04Y182.662
G1 X170.857Y182.44
G1 X170.719Y182.185
G1 X170.631Y181.904
G1 X170.601Y181.602
G1 X170.631Y181.299
G1 X170.719Y181.018
G1 X170.857Y180.763
G1 X171.04Y180.541
G1 X171.262Y180.358
G1 X171.517Y180.219
G1 X171.798Y180.132
G1 X172.101Y180.102
G1 X172.403Y180.132
G1 X172.685Y180.219
G1 X172.939Y180.358
G1 X173.161Y180.541
G1 X173.345Y180.763
G1 X173.483Y181.018
G1 X173.57Y181.299
G1 X173.601Y181.602
G0 X166.571Y183.729
G1 X166.825Y183.418
G1 X167.006Y183.074
G1 X167.115Y182.707
G1 X167.151Y182.329
G1 X167.115Y181.951
G1 X167.006Y181.584
G1 X166.825Y181.239
G1 X166.571Y180.929
G1 X166.261Y180.675
G1 X165.916Y180.494
G1 X165.549Y180.385
G1 X165.171Y180.349
G1 X164.793Y180.385
G1 X164.426Y180.494
G1 X164.082Y180.675
G1 X163.771Y180.929
G0 X163.771Y180.929
G1 X162.478Y182.222
G0 X162.478Y182.222
G1 X161.937Y181.974
G1 X161.384Y181.778
G1 X160.823Y181.635
G1 X160.256Y181.543
G1 X159.688Y181.502
G1 X159.121Y181.511
G1 X158.559Y181.569
G1 X158.004Y181.675
G1 X157.461Y181.828
G1 X156.932Y182.029
G1 X156.421Y182.275
G1 X155.931Y182.566
G1 X155.466Y182.902
G1 X155.028Y183.282
G1 X154.622Y183.704
G1 X154.249Y184.169
G1 X153.921Y184.665
G1 X153.642Y185.181
G1 X153.414Y185.713
G1 X153.236Y186.259
G1 X153.108Y186.814
G1 X153.029Y187.376
G1 X152.999Y187.941
G1 X153.019Y188.505
G1 X153.087Y189.065
G1 X153.203Y189.618
G1 X153.368Y190.161
G1 X153.58Y190.69
G1 X153.84Y191.202
G1 X154.148Y191.693
G1 X154.502Y192.16
G1 X154.904Y192.599
G1 X155.343Y193
G1 X155.81Y193.355
G1 X156.301Y193.662
G1 X156.813Y193.922
G1 X157.342Y194.135
G1 X157.885Y194.299
G1 X158.438Y194.416
G1 X158.998Y194.484
G1 X159.563Y194.503
G1 X160.127Y194.473
G1 X160.689Y194.394
G1 X161.244Y194.266
G1 X161.79Y194.088
G1 X162.322Y193.86
G1 X162.838Y193.581
G1 X163.334Y193.253
G1 X163.799Y192.88
G1 X164.221Y192.474
G1 X164.6Y192.036
G1 X164.936Y191.57
G1 X165.228Y191.081
G1 X165.474Y190.57
G1 X165.674Y190.041
G1 X165.828Y189.498
G1 X165.934Y188.943
G1 X165.992Y188.381
G1 X166Y187.814
G1 X165.959Y187.245
G1 X165.867Y186.679
G1 X165.724Y186.117
G1 X165.529Y185.565
G1 X165.28Y185.024
G0 X165.28Y185.024
G1 Y185.02
G0 X165.28Y185.02
G1 X166.571Y183.729
G0 X154.601Y181.602
G1 X154.57Y181.904
G1 X154.483Y182.185
G1 X154.345Y182.44
G1 X154.161Y182.662
G1 X153.939Y182.845
G1 X153.685Y182.984
G1 X153.403Y183.071
G1 X153.101Y183.102
G1 X152.798Y183.071
G1 X152.517Y182.984
G1 X152.262Y182.845
G1 X152.04Y182.662
G1 X151.857Y182.44
G1 X151.719Y182.185
G1 X151.631Y181.904
G1 X151.601Y181.602
G1 X151.631Y181.299
G1 X151.719Y181.018
G1 X151.857Y180.763
G1 X152.04Y180.541
G1 X152.262Y180.358
G1 X152.517Y180.219
G1 X152.798Y180.132
G1 X153.101Y180.102
G1 X153.403Y180.132
G1 X153.685Y180.219
G1 X153.939Y180.358
G1 X154.161Y180.541
G1 X154.345Y180.763
G1 X154.483Y181.018
G1 X154.57Y181.299
G1 X154.601Y181.602
G0 X148.401Y175.402
G1 X148.37Y175.704
G1 X148.283Y175.985
G1 X148.145Y176.24
G1 X147.961Y176.462
G1 X147.739Y176.645
G1 X147.485Y176.784
G1 X147.203Y176.871
G1 X146.901Y176.902
G1 X146.598Y176.871
G1 X146.317Y176.784
G1 X146.062Y176.645
G1 X145.84Y176.462
G1 X145.657Y176.24
G1 X145.519Y175.985
G1 X145.431Y175.704
G1 X145.401Y175.402
G1 X145.431Y175.099
G1 X145.519Y174.818
G1 X145.657Y174.563
G1 X145.84Y174.341
G1 X146.062Y174.158
G1 X146.317Y174.019
G1 X146.598Y173.932
G1 X146.901Y173.902
G1 X147.203Y173.932
G1 X147.485Y174.019
G1 X147.739Y174.158
G1 X147.961Y174.341
G1 X148.145Y174.563
G1 X148.283Y174.818
G1 X148.37Y175.099
G1 X148.401Y175.402
G0 X143.468Y174.786
G1 X142.991Y175.008
G1 X142.503Y175.188
G1 X142.007Y175.327
G1 X141.506Y175.425
G1 X141.001Y175.484
G1 X140.495Y175.503
G1 X139.99Y175.483
G1 X139.489Y175.424
G1 X138.995Y175.326
G1 X138.508Y175.19
G1 X138.033Y175.017
G1 X137.57Y174.806
G1 X137.123Y174.557
G1 X136.694Y174.273
G1 X136.285Y173.951
G1 X135.899Y173.594
G1 X135.543Y173.207
G1 X135.222Y172.798
G1 X134.938Y172.368
G1 X134.691Y171.921
G1 X134.481Y171.458
G1 X134.308Y170.982
G1 X134.173Y170.495
G1 X134.076Y170
G1 X134.018Y169.499
G1 X133.999Y168.995
G1 X134.019Y168.489
G1 X134.079Y167.984
G1 X134.179Y167.483
G1 X134.319Y166.987
G1 X134.5Y166.5
G1 X134.722Y166.023
G0 X134.722Y166.023
G0 X135.601Y162.602
G1 X135.57Y162.904
G1 X135.483Y163.185
G1 X135.345Y163.44
G1 X135.161Y163.662
G1 X134.939Y163.845
G1 X134.685Y163.984
G1 X134.403Y164.071
G1 X134.101Y164.102
G1 X133.798Y164.071
G1 X133.517Y163.984
G1 X133.262Y163.845
G1 X133.04Y163.662
G1 X132.857Y163.44
G1 X132.719Y163.185
G1 X132.631Y162.904
G1 X132.601Y162.602
G1 X132.631Y162.299
G1 X132.719Y162.018
G1 X132.857Y161.763
G1 X133.04Y161.541
G1 X133.262Y161.358
G1 X133.517Y161.219
G1 X133.798Y161.132
G1 X134.101Y161.102
G1 X134.403Y161.132
G1 X134.685Y161.219
G1 X134.939Y161.358
G1 X135.161Y161.541
G1 X135.345Y161.763
G1 X135.483Y162.018
G1 X135.57Y162.299
G1 X135.601Y162.602
G0 X143.478Y163.222
G1 X142.937Y162.974
G1 X142.384Y162.778
G1 X141.823Y162.635
G1 X141.256Y162.543
G1 X140.688Y162.502
G1 X140.121Y162.511
G1 X139.559Y162.569
G1 X139.004Y162.675
G1 X138.461Y162.828
G1 X137.932Y163.029
G1 X137.421Y163.275
G1 X136.931Y163.566
G1 X136.466Y163.902
G1 X136.028Y164.282
G1 X135.622Y164.704
G1 X135.249Y165.169
G1 X134.921Y165.665
G1 X134.642Y166.181
G1 X134.414Y166.713
G1 X134.236Y167.259
G1 X134.108Y167.814
G1 X134.029Y168.376
G1 X133.999Y168.941
G1 X134.019Y169.505
G1 X134.087Y170.065
G1 X134.203Y170.618
G1 X134.368Y171.161
G1 X134.58Y171.69
G1 X134.84Y172.202
G1 X135.148Y172.693
G1 X135.502Y173.16
G1 X135.904Y173.599
G1 X136.343Y174
G1 X136.81Y174.355
G1 X137.301Y174.662
G1 X137.813Y174.922
G1 X138.342Y175.135
G1 X138.885Y175.299
G1 X139.438Y175.416
G1 X139.998Y175.484
G1 X140.563Y175.503
G1 X141.127Y175.473
G1 X141.689Y175.394
G1 X142.244Y175.266
G1 X142.79Y175.088
G1 X143.322Y174.86
G1 X143.838Y174.581
G1 X144.334Y174.253
G1 X144.799Y173.88
G1 X145.221Y173.474
G1 X145.6Y173.036
G1 X145.936Y172.57
G1 X146.228Y172.081
G1 X146.474Y171.57
G1 X146.674Y171.041
G1 X146.828Y170.498
G1 X146.934Y169.943
G1 X146.992Y169.381
G1 X147Y168.814
G1 X146.959Y168.245
G1 X146.867Y167.679
G1 X146.724Y167.117
G1 X146.529Y166.565
G1 X146.28Y166.024
G0 X146.28Y166.024
G1 Y166.02
G0 X146.28Y166.02
G1 X147.571Y164.729
G0 X147.571Y164.729
G1 X147.825Y164.418
G1 X148.006Y164.074
G1 X148.115Y163.707
G1 X148.151Y163.329
G1 X148.115Y162.951
G1 X148.006Y162.584
G1 X147.825Y162.239
G1 X147.571Y161.929
G1 X147.261Y161.675
G1 X146.916Y161.494
G1 X146.549Y161.385
G1 X146.171Y161.349
G1 X145.793Y161.385
G1 X145.426Y161.494
G1 X145.082Y161.675
G1 X144.771Y161.929
G0 X144.771Y161.929
G1 X143.478Y163.222
G0 X153.722Y166.022
G0 X153.722Y166.023
G1 X153.5Y166.5
G1 X153.319Y166.987
G1 X153.179Y167.483
G1 X153.079Y167.984
G1 X153.019Y168.489
G1 X152.999Y168.995
G1 X153.018Y169.499
G1 X153.076Y170
G1 X153.173Y170.495
G1 X153.308Y170.982
G1 X153.481Y171.458
G1 X153.691Y171.921
G1 X153.938Y172.368
G1 X154.222Y172.798
G1 X154.543Y173.207
G1 X154.899Y173.594
G1 X155.285Y173.951
G1 X155.694Y174.273
G1 X156.123Y174.557
G1 X156.57Y174.806
G1 X157.033Y175.017
G1 X157.508Y175.19
G1 X157.995Y175.326
G1 X158.489Y175.424
G1 X158.99Y175.483
G1 X159.495Y175.503
G1 X160.001Y175.484
G1 X160.506Y175.425
G1 X161.007Y175.327
G1 X161.503Y175.188
G1 X161.991Y175.008
G1 X162.468Y174.786
G0 X167.401Y175.402
G1 X167.37Y175.704
G1 X167.283Y175.985
G1 X167.145Y176.24
G1 X166.961Y176.462
G1 X166.739Y176.645
G1 X166.485Y176.784
G1 X166.203Y176.871
G1 X165.901Y176.902
G1 X165.598Y176.871
G1 X165.317Y176.784
G1 X165.062Y176.645
G1 X164.84Y176.462
G1 X164.657Y176.24
G1 X164.519Y175.985
G1 X164.431Y175.704
G1 X164.401Y175.402
G1 X164.431Y175.099
G1 X164.519Y174.818
G1 X164.657Y174.563
G1 X164.84Y174.341
G1 X165.062Y174.158
G1 X165.317Y174.019
G1 X165.598Y173.932
G1 X165.901Y173.902
G1 X166.203Y173.932
G1 X166.485Y174.019
G1 X166.739Y174.158
G1 X166.961Y174.341
G1 X167.145Y174.563
G1 X167.283Y174.818
G1 X167.37Y175.099
G1 X167.401Y175.402
G0 X181.468Y174.786
G1 X180.991Y175.008
G1 X180.503Y175.188
G1 X180.007Y175.327
G1 X179.506Y175.425
G1 X179.001Y175.484
G1 X178.495Y175.503
G1 X177.99Y175.483
G1 X177.489Y175.424
G1 X176.995Y175.326
G1 X176.508Y175.19
G1 X176.033Y175.017
G1 X175.57Y174.806
G1 X175.123Y174.557
G1 X174.694Y174.273
G1 X174.285Y173.951
G1 X173.899Y173.594
G1 X173.543Y173.207
G1 X173.222Y172.798
G1 X172.938Y172.368
G1 X172.691Y171.921
G1 X172.481Y171.458
G1 X172.308Y170.982
G1 X172.173Y170.495
G1 X172.076Y170
G1 X172.018Y169.499
G1 X171.999Y168.995
G1 X172.019Y168.489
G1 X172.079Y167.984
G1 X172.179Y167.483
G1 X172.319Y166.987
G1 X172.5Y166.5
G1 X172.722Y166.023
G0 X172.722Y166.023
G0 X173.601Y162.602
G1 X173.57Y162.904
G1 X173.483Y163.185
G1 X173.345Y163.44
G1 X173.161Y163.662
G1 X172.939Y163.845
G1 X172.685Y163.984
G1 X172.403Y164.071
G1 X172.101Y164.102
G1 X171.798Y164.071
G1 X171.517Y163.984
G1 X171.262Y163.845
G1 X171.04Y163.662
G1 X170.857Y163.44
G1 X170.719Y163.185
G1 X170.631Y162.904
G1 X170.601Y162.602
G1 X170.631Y162.299
G1 X170.719Y162.018
G1 X170.857Y161.763
G1 X171.04Y161.541
G1 X171.262Y161.358
G1 X171.517Y161.219
G1 X171.798Y161.132
G1 X172.101Y161.102
G1 X172.403Y161.132
G1 X172.685Y161.219
G1 X172.939Y161.358
G1 X173.161Y161.541
G1 X173.345Y161.763
G1 X173.483Y162.018
G1 X173.57Y162.299
G1 X173.601Y162.602
G0 X166.571Y164.729
G1 X166.825Y164.418
G1 X167.006Y164.074
G1 X167.115Y163.707
G1 X167.151Y163.329
G1 X167.115Y162.951
G1 X167.006Y162.584
G1 X166.825Y162.239
G1 X166.571Y161.929
G1 X166.261Y161.675
G1 X165.916Y161.494
G1 X165.549Y161.385
G1 X165.171Y161.349
G1 X164.793Y161.385
G1 X164.426Y161.494
G1 X164.082Y161.675
G1 X163.771Y161.929
G0 X163.771Y161.929
G1 X162.478Y163.222
G0 X162.478Y163.222
G1 X161.937Y162.974
G1 X161.384Y162.778
G1 X160.823Y162.635
G1 X160.256Y162.543
G1 X159.688Y162.502
G1 X159.121Y162.511
G1 X158.559Y162.569
G1 X158.004Y162.675
G1 X157.461Y162.828
G1 X156.932Y163.029
G1 X156.421Y163.275
G1 X155.931Y163.566
G1 X155.466Y163.902
G1 X155.028Y164.282
G1 X154.622Y164.704
G1 X154.249Y165.169
G1 X153.921Y165.665
G1 X153.642Y166.181
G1 X153.414Y166.713
G1 X153.236Y167.259
G1 X153.108Y167.814
G1 X153.029Y168.376
G1 X152.999Y168.941
G1 X153.019Y169.505
G1 X153.087Y170.065
G1 X153.203Y170.618
G1 X153.368Y171.161
G1 X153.58Y171.69
G1 X153.84Y172.202
G1 X154.148Y172.693
G1 X154.502Y173.16
G1 X154.904Y173.599
G1 X155.343Y174
G1 X155.81Y174.355
G1 X156.301Y174.662
G1 X156.813Y174.922
G1 X157.342Y175.135
G1 X157.885Y175.299
G1 X158.438Y175.416
G1 X158.998Y175.484
G1 X159.563Y175.503
G1 X160.127Y175.473
G1 X160.689Y175.394
G1 X161.244Y175.266
G1 X161.79Y175.088
G1 X162.322Y174.86
G1 X162.838Y174.581
G1 X163.334Y174.253
G1 X163.799Y173.88
G1 X164.221Y173.474
G1 X164.6Y173.036
G1 X164.936Y172.57
G1 X165.228Y172.081
G1 X165.474Y171.57
G1 X165.674Y171.041
G1 X165.828Y170.498
G1 X165.934Y169.943
G1 X165.992Y169.381
G1 X166Y168.814
G1 X165.959Y168.245
G1 X165.867Y167.679
G1 X165.724Y167.117
G1 X165.529Y166.565
G1 X165.28Y166.024
G0 X165.28Y166.024
G1 Y166.02
G0 X165.28Y166.02
G1 X166.571Y164.729
G0 X154.601Y162.602
G1 X154.57Y162.904
G1 X154.483Y163.185
G1 X154.345Y163.44
G1 X154.161Y163.662
G1 X153.939Y163.845
G1 X153.685Y163.984
G1 X153.403Y164.071
G1 X153.101Y164.102
G1 X152.798Y164.071
G1 X152.517Y163.984
G1 X152.262Y163.845
G1 X152.04Y163.662
G1 X151.857Y163.44
G1 X151.719Y163.185
G1 X151.631Y162.904
G1 X151.601Y162.602
G1 X151.631Y162.299
G1 X151.719Y162.018
G1 X151.857Y161.763
G1 X152.04Y161.541
G1 X152.262Y161.358
G1 X152.517Y161.219
G1 X152.798Y161.132
G1 X153.101Y161.102
G1 X153.403Y161.132
G1 X153.685Y161.219
G1 X153.939Y161.358
G1 X154.161Y161.541
G1 X154.345Y161.763
G1 X154.483Y162.018
G1 X154.57Y162.299
G1 X154.601Y162.602
G0 X148.401Y156.402
G1 X148.37Y156.704
G1 X148.283Y156.985
G1 X148.145Y157.24
G1 X147.961Y157.462
G1 X147.739Y157.645
G1 X147.485Y157.784
G1 X147.203Y157.871
G1 X146.901Y157.902
G1 X146.598Y157.871
G1 X146.317Y157.784
G1 X146.062Y157.645
G1 X145.84Y157.462
G1 X145.657Y157.24
G1 X145.519Y156.985
G1 X145.431Y156.704
G1 X145.401Y156.402
G1 X145.431Y156.099
G1 X145.519Y155.818
G1 X145.657Y155.563
G1 X145.84Y155.341
G1 X146.062Y155.158
G1 X146.317Y155.019
G1 X146.598Y154.932
G1 X146.901Y154.902
G1 X147.203Y154.932
G1 X147.485Y155.019
G1 X147.739Y155.158
G1 X147.961Y155.341
G1 X148.145Y155.563
G1 X148.283Y155.818
G1 X148.37Y156.099
G1 X148.401Y156.402
G0 X143.468Y155.786
G1 X142.991Y156.008
G1 X142.503Y156.188
G1 X142.007Y156.327
G1 X141.506Y156.425
G1 X141.001Y156.484
G1 X140.495Y156.503
G1 X139.99Y156.483
G1 X139.489Y156.424
G1 X138.995Y156.326
G1 X138.508Y156.19
G1 X138.033Y156.017
G1 X137.57Y155.806
G1 X137.123Y155.557
G1 X136.694Y155.273
G1 X136.285Y154.951
G1 X135.899Y154.594
G1 X135.543Y154.207
G1 X135.222Y153.798
G1 X134.938Y153.368
G1 X134.691Y152.921
G1 X134.481Y152.458
G1 X134.308Y151.982
G1 X134.173Y151.495
G1 X134.076Y151
G1 X134.018Y150.499
G1 X133.999Y149.995
G1 X134.019Y149.489
G1 X134.079Y148.984
G1 X134.179Y148.483
G1 X134.319Y147.987
G1 X134.5Y147.5
G1 X134.722Y147.023
G0 X134.722Y147.023
G0 X135.601Y143.602
G1 X135.57Y143.904
G1 X135.483Y144.185
G1 X135.345Y144.44
G1 X135.161Y144.662
G1 X134.939Y144.845
G1 X134.685Y144.984
G1 X134.403Y145.071
G1 X134.101Y145.102
G1 X133.798Y145.071
G1 X133.517Y144.984
G1 X133.262Y144.845
G1 X133.04Y144.662
G1 X132.857Y144.44
G1 X132.719Y144.185
G1 X132.631Y143.904
G1 X132.601Y143.602
G1 X132.631Y143.299
G1 X132.719Y143.018
G1 X132.857Y142.763
G1 X133.04Y142.541
G1 X133.262Y142.358
G1 X133.517Y142.219
G1 X133.798Y142.132
G1 X134.101Y142.102
G1 X134.403Y142.132
G1 X134.685Y142.219
G1 X134.939Y142.358
G1 X135.161Y142.541
G1 X135.345Y142.763
G1 X135.483Y143.018
G1 X135.57Y143.299
G1 X135.601Y143.602
G0 X143.478Y144.222
G1 X142.937Y143.974
G1 X142.384Y143.778
G1 X141.823Y143.635
G1 X141.256Y143.543
G1 X140.688Y143.502
G1 X140.121Y143.511
G1 X139.559Y143.569
G1 X139.004Y143.675
G1 X138.461Y143.828
G1 X137.932Y144.029
G1 X137.421Y144.275
G1 X136.931Y144.566
G1 X136.466Y144.902
G1 X136.028Y145.282
G1 X135.622Y145.704
G1 X135.249Y146.169
G1 X134.921Y146.665
G1 X134.642Y147.181
G1 X134.414Y147.713
G1 X134.236Y148.259
G1 X134.108Y148.814
G1 X134.029Y149.376
G1 X133.999Y149.941
G1 X134.019Y150.505
G1 X134.087Y151.065
G1 X134.203Y151.618
G1 X134.368Y152.161
G1 X134.58Y152.69
G1 X134.84Y153.202
G1 X135.148Y153.693
G1 X135.502Y154.16
G1 X135.904Y154.599
G1 X136.343Y155
G1 X136.81Y155.355
G1 X137.301Y155.662
G1 X137.813Y155.922
G1 X138.342Y156.135
G1 X138.885Y156.299
G1 X139.438Y156.416
G1 X139.998Y156.484
G1 X140.563Y156.503
G1 X141.127Y156.473
G1 X141.689Y156.394
G1 X142.244Y156.266
G1 X142.79Y156.088
G1 X143.322Y155.86
G1 X143.838Y155.581
G1 X144.334Y155.253
G1 X144.799Y154.88
G1 X145.221Y154.474
G1 X145.6Y154.036
G1 X145.936Y153.57
G1 X146.228Y153.081
G1 X146.474Y152.57
G1 X146.674Y152.041
G1 X146.828Y151.498
G1 X146.934Y150.943
G1 X146.992Y150.381
G1 X147Y149.814
G1 X146.959Y149.245
G1 X146.867Y148.679
G1 X146.724Y148.117
G1 X146.529Y147.565
G1 X146.28Y147.024
G0 X146.28Y147.024
G1 Y147.02
G0 X146.28Y147.02
G1 X147.571Y145.729
G0 X147.571Y145.729
G1 X147.825Y145.418
G1 X148.006Y145.074
G1 X148.115Y144.707
G1 X148.151Y144.329
G1 X148.115Y143.951
G1 X148.006Y143.584
G1 X147.825Y143.239
G1 X147.571Y142.929
G1 X147.261Y142.675
G1 X146.916Y142.494
G1 X146.549Y142.385
G1 X146.171Y142.349
G1 X145.793Y142.385
G1 X145.426Y142.494
G1 X145.082Y142.675
G1 X144.771Y142.929
G0 X144.771Y142.929
G1 X143.478Y144.222
G0 X153.722Y147.022
G0 X153.722Y147.023
G1 X153.5Y147.5
G1 X153.319Y147.987
G1 X153.179Y148.483
G1 X153.079Y148.984
G1 X153.019Y149.489
G1 X152.999Y149.995
G1 X153.018Y150.499
G1 X153.076Y151
G1 X153.173Y151.495
G1 X153.308Y151.982
G1 X153.481Y152.458
G1 X153.691Y152.921
G1 X153.938Y153.368
G1 X154.222Y153.798
G1 X154.543Y154.207
G1 X154.899Y154.594
G1 X155.285Y154.951
G1 X155.694Y155.273
G1 X156.123Y155.557
G1 X156.57Y155.806
G1 X157.033Y156.017
G1 X157.508Y156.19
G1 X157.995Y156.326
G1 X158.489Y156.424
G1 X158.99Y156.483
G1 X159.495Y156.503
G1 X160.001Y156.484
G1 X160.506Y156.425
G1 X161.007Y156.327
G1 X161.503Y156.188
G1 X161.991Y156.008
G1 X162.468Y155.786
G0 X167.401Y156.402
G1 X167.37Y156.704
G1 X167.283Y156.985
G1 X167.145Y157.24
G1 X166.961Y157.462
G1 X166.739Y157.645
G1 X166.485Y157.784
G1 X166.203Y157.871
G1 X165.901Y157.902
G1 X165.598Y157.871
G1 X165.317Y157.784
G1 X165.062Y157.645
G1 X164.84Y157.462
G1 X164.657Y157.24
G1 X164.519Y156.985
G1 X164.431Y156.704
G1 X164.401Y156.402
G1 X164.431Y156.099
G1 X164.519Y155.818
G1 X164.657Y155.563
G1 X164.84Y155.341
G1 X165.062Y155.158
G1 X165.317Y155.019
G1 X165.598Y154.932
G1 X165.901Y154.902
G1 X166.203Y154.932
G1 X166.485Y155.019
G1 X166.739Y155.158
G1 X166.961Y155.341
G1 X167.145Y155.563
G1 X167.283Y155.818
G1 X167.37Y156.099
G1 X167.401Y156.402
G0 X181.468Y155.786
G1 X180.991Y156.008
G1 X180.503Y156.188
G1 X180.007Y156.327
G1 X179.506Y156.425
G1 X179.001Y156.484
G1 X178.495Y156.503
G1 X177.99Y156.483
G1 X177.489Y156.424
G1 X176.995Y156.326
G1 X176.508Y156.19
G1 X176.033Y156.017
G1 X175.57Y155.806
G1 X175.123Y155.557
G1 X174.694Y155.273
G1 X174.285Y154.951
G1 X173.899Y154.594
G1 X173.543Y154.207
G1 X173.222Y153.798
G1 X172.938Y153.368
G1 X172.691Y152.921
G1 X172.481Y152.458
G1 X172.308Y151.982
G1 X172.173Y151.495
G1 X172.076Y151
G1 X172.018Y150.499
G1 X171.999Y149.995
G1 X172.019Y149.489
G1 X172.079Y148.984
G1 X172.179Y148.483
G1 X172.319Y147.987
G1 X172.5Y147.5
G1 X172.722Y147.023
G0 X172.722Y147.023
G0 X173.601Y143.602
G1 X173.57Y143.904
G1 X173.483Y144.185
G1 X173.345Y144.44
G1 X173.161Y144.662
G1 X172.939Y144.845
G1 X172.685Y144.984
G1 X172.403Y145.071
G1 X172.101Y145.102
G1 X171.798Y145.071
G1 X171.517Y144.984
G1 X171.262Y144.845
G1 X171.04Y144.662
G1 X170.857Y144.44
G1 X170.719Y144.185
G1 X170.631Y143.904
G1 X170.601Y143.602
G1 X170.631Y143.299
G1 X170.719Y143.018
G1 X170.857Y142.763
G1 X171.04Y142.541
G1 X171.262Y142.358
G1 X171.517Y142.219
G1 X171.798Y142.132
G1 X172.101Y142.102
G1 X172.403Y142.132
G1 X172.685Y142.219
G1 X172.939Y142.358
G1 X173.161Y142.541
G1 X173.345Y142.763
G1 X173.483Y143.018
G1 X173.57Y143.299
G1 X173.601Y143.602
G0 X166.571Y145.729
G1 X166.825Y145.418
G1 X167.006Y145.074
G1 X167.115Y144.707
G1 X167.151Y144.329
G1 X167.115Y143.951
G1 X167.006Y143.584
G1 X166.825Y143.239
G1 X166.571Y142.929
G1 X166.261Y142.675
G1 X165.916Y142.494
G1 X165.549Y142.385
G1 X165.171Y142.349
G1 X164.793Y142.385
G1 X164.426Y142.494
G1 X164.082Y142.675
G1 X163.771Y142.929
G0 X163.771Y142.929
G1 X162.478Y144.222
G0 X162.478Y144.222
G1 X161.937Y143.974
G1 X161.384Y143.778
G1 X160.823Y143.635
G1 X160.256Y143.543
G1 X159.688Y143.502
G1 X159.121Y143.511
G1 X158.559Y143.569
G1 X158.004Y143.675
G1 X157.461Y143.828
G1 X156.932Y144.029
G1 X156.421Y144.275
G1 X155.931Y144.566
G1 X155.466Y144.902
G1 X155.028Y145.282
G1 X154.622Y145.704
G1 X154.249Y146.169
G1 X153.921Y146.665
G1 X153.642Y147.181
G1 X153.414Y147.713
G1 X153.236Y148.259
G1 X153.108Y148.814
G1 X153.029Y149.376
G1 X152.999Y149.941
G1 X153.019Y150.505
G1 X153.087Y151.065
G1 X153.203Y151.618
G1 X153.368Y152.161
G1 X153.58Y152.69
G1 X153.84Y153.202
G1 X154.148Y153.693
G1 X154.502Y154.16
G1 X154.904Y154.599
G1 X155.343Y155
G1 X155.81Y155.355
G1 X156.301Y155.662
G1 X156.813Y155.922
G1 X157.342Y156.135
G1 X157.885Y156.299
G1 X158.438Y156.416
G1 X158.998Y156.484
G1 X159.563Y156.503
G1 X160.127Y156.473
G1 X160.689Y156.394
G1 X161.244Y156.266
G1 X161.79Y156.088
G1 X162.322Y155.86
G1 X162.838Y155.581
G1 X163.334Y155.253
G1 X163.799Y154.88
G1 X164.221Y154.474
G1 X164.6Y154.036
G1 X164.936Y153.57
G1 X165.228Y153.081
G1 X165.474Y152.57
G1 X165.674Y152.041
G1 X165.828Y151.498
G1 X165.934Y150.943
G1 X165.992Y150.381
G1 X166Y149.814
G1 X165.959Y149.245
G1 X165.867Y148.679
G1 X165.724Y148.117
G1 X165.529Y147.565
G1 X165.28Y147.024
G0 X165.28Y147.024
G1 Y147.02
G0 X165.28Y147.02
G1 X166.571Y145.729
G0 X154.601Y143.602
G1 X154.57Y143.904
G1 X154.483Y144.185
G1 X154.345Y144.44
G1 X154.161Y144.662
G1 X153.939Y144.845
G1 X153.685Y144.984
G1 X153.403Y145.071
G1 X153.101Y145.102
G1 X152.798Y145.071
G1 X152.517Y144.984
G1 X152.262Y144.845
G1 X152.04Y144.662
G1 X151.857Y144.44
G1 X151.719Y144.185
G1 X151.631Y143.904
G1 X151.601Y143.602
G1 X151.631Y143.299
G1 X151.719Y143.018
G1 X151.857Y142.763
G1 X152.04Y142.541
G1 X152.262Y142.358
G1 X152.517Y142.219
G1 X152.798Y142.132
G1 X153.101Y142.102
G1 X153.403Y142.132
G1 X153.685Y142.219
G1 X153.939Y142.358
G1 X154.161Y142.541
G1 X154.345Y142.763
G1 X154.483Y143.018
G1 X154.57Y143.299
G1 X154.601Y143.602
G0 X148.401Y137.403
G1 X148.37Y137.706
G1 X148.283Y137.987
G1 X148.145Y138.242
G1 X147.961Y138.464
G1 X147.739Y138.647
G1 X147.485Y138.785
G1 X147.203Y138.873
G1 X146.901Y138.903
G1 X146.598Y138.873
G1 X146.317Y138.785
G1 X146.062Y138.647
G1 X145.84Y138.464
G1 X145.657Y138.242
G1 X145.519Y137.987
G1 X145.431Y137.706
G1 X145.401Y137.403
G1 X145.431Y137.101
G1 X145.519Y136.819
G1 X145.657Y136.565
G1 X145.84Y136.343
G1 X146.062Y136.159
G1 X146.317Y136.021
G1 X146.598Y135.934
G1 X146.901Y135.903
G1 X147.203Y135.934
G1 X147.485Y136.021
G1 X147.739Y136.159
G1 X147.961Y136.343
G1 X148.145Y136.565
G1 X148.283Y136.819
G1 X148.37Y137.101
G1 X148.401Y137.403
G0 X143.468Y136.788
G1 X142.991Y137.009
G1 X142.503Y137.189
G1 X142.007Y137.328
G1 X141.506Y137.427
G1 X141.001Y137.486
G1 X140.495Y137.505
G1 X139.99Y137.485
G1 X139.489Y137.426
G1 X138.995Y137.328
G1 X138.508Y137.192
G1 X138.033Y137.018
G1 X137.57Y136.807
G1 X137.123Y136.559
G1 X136.694Y136.274
G1 X136.285Y135.953
G1 X135.899Y135.596
G1 X135.543Y135.209
G1 X135.222Y134.799
G1 X134.938Y134.37
G1 X134.691Y133.922
G1 X134.481Y133.459
G1 X134.308Y132.983
G1 X134.173Y132.497
G1 X134.077Y132.002
G1 X134.018Y131.501
G1 X133.999Y130.996
G1 X134.019Y130.49
G1 X134.079Y129.986
G1 X134.179Y129.484
G1 X134.319Y128.989
G1 X134.5Y128.501
G1 X134.722Y128.024
G0 X134.722Y128.024
G0 X135.601Y124.603
G1 X135.57Y124.906
G1 X135.483Y125.187
G1 X135.345Y125.442
G1 X135.161Y125.664
G1 X134.939Y125.847
G1 X134.685Y125.985
G1 X134.403Y126.073
G1 X134.101Y126.103
G1 X133.798Y126.073
G1 X133.517Y125.985
G1 X133.262Y125.847
G1 X133.04Y125.664
G1 X132.857Y125.442
G1 X132.719Y125.187
G1 X132.631Y124.906
G1 X132.601Y124.603
G1 X132.631Y124.301
G1 X132.719Y124.019
G1 X132.857Y123.765
G1 X133.04Y123.543
G1 X133.262Y123.359
G1 X133.517Y123.221
G1 X133.798Y123.134
G1 X134.101Y123.103
G1 X134.403Y123.134
G1 X134.685Y123.221
G1 X134.939Y123.359
G1 X135.161Y123.543
G1 X135.345Y123.765
G1 X135.483Y124.019
G1 X135.57Y124.301
G1 X135.601Y124.603
G0 X143.478Y125.223
G1 X142.937Y124.975
G1 X142.384Y124.78
G1 X141.823Y124.637
G1 X141.256Y124.545
G1 X140.688Y124.504
G1 X140.121Y124.512
G1 X139.559Y124.57
G1 X139.004Y124.676
G1 X138.461Y124.83
G1 X137.932Y125.03
G1 X137.421Y125.277
G1 X136.931Y125.568
G1 X136.466Y125.904
G1 X136.028Y126.283
G1 X135.622Y126.706
G1 X135.249Y127.17
G1 X134.921Y127.666
G1 X134.642Y128.182
G1 X134.414Y128.715
G1 X134.236Y129.261
G1 X134.108Y129.816
G1 X134.029Y130.378
G1 X133.999Y130.942
G1 X134.019Y131.506
G1 X134.087Y132.067
G1 X134.203Y132.62
G1 X134.368Y133.163
G1 X134.58Y133.692
G1 X134.84Y134.203
G1 X135.148Y134.694
G1 X135.502Y135.161
G1 X135.904Y135.601
G1 X136.343Y136.002
G1 X136.81Y136.357
G1 X137.301Y136.664
G1 X137.813Y136.924
G1 X138.342Y137.136
G1 X138.885Y137.301
G1 X139.438Y137.417
G1 X139.998Y137.485
G1 X140.563Y137.505
G1 X141.127Y137.475
G1 X141.689Y137.396
G1 X142.244Y137.268
G1 X142.79Y137.089
G1 X143.322Y136.861
G1 X143.838Y136.583
G1 X144.334Y136.254
G1 X144.799Y135.882
G1 X145.221Y135.475
G1 X145.6Y135.037
G1 X145.936Y134.572
G1 X146.228Y134.082
G1 X146.474Y133.571
G1 X146.674Y133.043
G1 X146.828Y132.499
G1 X146.934Y131.945
G1 X146.992Y131.382
G1 X147Y130.815
G1 X146.959Y130.247
G1 X146.867Y129.68
G1 X146.724Y129.119
G1 X146.529Y128.566
G1 X146.28Y128.025
G0 X146.28Y128.025
G1 Y128.021
G0 X146.28Y128.021
G1 X147.571Y126.731
G0 X147.571Y126.731
G1 X147.825Y126.42
G1 X148.006Y126.076
G1 X148.115Y125.709
G1 X148.151Y125.331
G1 X148.115Y124.952
G1 X148.006Y124.586
G1 X147.825Y124.241
G1 X147.571Y123.931
G1 X147.261Y123.677
G1 X146.916Y123.496
G1 X146.549Y123.387
G1 X146.171Y123.351
G1 X145.793Y123.387
G1 X145.426Y123.496
G1 X145.082Y123.677
G1 X144.771Y123.931
G0 X144.771Y123.931
G1 X143.478Y125.223
G0 X153.722Y128.022
G0 X153.722Y128.023
G1 X153.5Y128.5
G1 X153.319Y128.987
G1 X153.179Y129.483
G1 X153.079Y129.984
G1 X153.019Y130.489
G1 X152.999Y130.995
G1 X153.018Y131.499
G1 X153.076Y132
G1 X153.173Y132.495
G1 X153.308Y132.982
G1 X153.481Y133.458
G1 X153.691Y133.921
G1 X153.938Y134.368
G1 X154.222Y134.798
G1 X154.543Y135.207
G1 X154.899Y135.594
G1 X155.285Y135.951
G1 X155.694Y136.273
G1 X156.123Y136.557
G1 X156.57Y136.806
G1 X157.033Y137.017
G1 X157.508Y137.19
G1 X157.995Y137.326
G1 X158.489Y137.424
G1 X158.99Y137.483
G1 X159.495Y137.503
G1 X160.001Y137.484
G1 X160.506Y137.425
G1 X161.007Y137.327
G1 X161.503Y137.188
G1 X161.991Y137.008
G1 X162.468Y136.786
G0 X167.401Y137.402
G1 X167.37Y137.704
G1 X167.283Y137.985
G1 X167.145Y138.24
G1 X166.961Y138.462
G1 X166.739Y138.645
G1 X166.485Y138.784
G1 X166.203Y138.871
G1 X165.901Y138.902
G1 X165.598Y138.871
G1 X165.317Y138.784
G1 X165.062Y138.645
G1 X164.84Y138.462
G1 X164.657Y138.24
G1 X164.519Y137.985
G1 X164.431Y137.704
G1 X164.401Y137.402
G1 X164.431Y137.099
G1 X164.519Y136.818
G1 X164.657Y136.563
G1 X164.84Y136.341
G1 X165.062Y136.158
G1 X165.317Y136.019
G1 X165.598Y135.932
G1 X165.901Y135.902
G1 X166.203Y135.932
G1 X166.485Y136.019
G1 X166.739Y136.158
G1 X166.961Y136.341
G1 X167.145Y136.563
G1 X167.283Y136.818
G1 X167.37Y137.099
G1 X167.401Y137.402
G0 X181.468Y136.786
G1 X180.991Y137.008
G1 X180.503Y137.188
G1 X180.007Y137.327
G1 X179.506Y137.425
G1 X179.001Y137.484
G1 X178.495Y137.503
G1 X177.99Y137.483
G1 X177.489Y137.424
G1 X176.995Y137.326
G1 X176.508Y137.19
G1 X176.033Y137.017
G1 X175.57Y136.806
G1 X175.123Y136.557
G1 X174.694Y136.273
G1 X174.285Y135.951
G1 X173.899Y135.594
G1 X173.543Y135.207
G1 X173.222Y134.798
G1 X172.938Y134.368
G1 X172.691Y133.921
G1 X172.481Y133.458
G1 X172.308Y132.982
G1 X172.173Y132.495
G1 X172.076Y132
G1 X172.018Y131.499
G1 X171.999Y130.995
G1 X172.019Y130.489
G1 X172.079Y129.984
G1 X172.179Y129.483
G1 X172.319Y128.987
G1 X172.5Y128.5
G1 X172.722Y128.023
G0 X172.722Y128.023
G0 X173.601Y124.602
G1 X173.57Y124.904
G1 X173.483Y125.185
G1 X173.345Y125.44
G1 X173.161Y125.662
G1 X172.939Y125.845
G1 X172.685Y125.984
G1 X172.403Y126.071
G1 X172.101Y126.102
G1 X171.798Y126.071
G1 X171.517Y125.984
G1 X171.262Y125.845
G1 X171.04Y125.662
G1 X170.857Y125.44
G1 X170.719Y125.185
G1 X170.631Y124.904
G1 X170.601Y124.602
G1 X170.631Y124.299
G1 X170.719Y124.018
G1 X170.857Y123.763
G1 X171.04Y123.541
G1 X171.262Y123.358
G1 X171.517Y123.219
G1 X171.798Y123.132
G1 X172.101Y123.102
G1 X172.403Y123.132
G1 X172.685Y123.219
G1 X172.939Y123.358
G1 X173.161Y123.541
G1 X173.345Y123.763
G1 X173.483Y124.018
G1 X173.57Y124.299
G1 X173.601Y124.602
G0 X166.571Y126.729
G1 X166.825Y126.418
G1 X167.006Y126.074
G1 X167.115Y125.707
G1 X167.151Y125.329
G1 X167.115Y124.951
G1 X167.006Y124.584
G1 X166.825Y124.239
G1 X166.571Y123.929
G1 X166.261Y123.675
G1 X165.916Y123.494
G1 X165.549Y123.385
G1 X165.171Y123.349
G1 X164.793Y123.385
G1 X164.426Y123.494
G1 X164.082Y123.675
G1 X163.771Y123.929
G0 X163.771Y123.929
G1 X162.478Y125.222
G0 X162.478Y125.222
G1 X161.937Y124.974
G1 X161.384Y124.778
G1 X160.823Y124.635
G1 X160.256Y124.543
G1 X159.688Y124.502
G1 X159.121Y124.511
G1 X158.559Y124.569
G1 X158.004Y124.675
G1 X157.461Y124.828
G1 X156.932Y125.029
G1 X156.421Y125.275
G1 X155.931Y125.566
G1 X155.466Y125.902
G1 X155.028Y126.282
G1 X154.622Y126.704
G1 X154.249Y127.169
G1 X153.921Y127.665
G1 X153.642Y128.181
G1 X153.414Y128.713
G1 X153.236Y129.259
G1 X153.108Y129.814
G1 X153.029Y130.376
G1 X152.999Y130.941
G1 X153.019Y131.505
G1 X153.087Y132.065
G1 X153.203Y132.618
G1 X153.368Y133.161
G1 X153.58Y133.69
G1 X153.84Y134.202
G1 X154.148Y134.693
G1 X154.502Y135.16
G1 X154.904Y135.599
G1 X155.343Y136
G1 X155.81Y136.355
G1 X156.301Y136.662
G1 X156.813Y136.922
G1 X157.342Y137.135
G1 X157.885Y137.299
G1 X158.438Y137.416
G1 X158.998Y137.484
G1 X159.563Y137.503
G1 X160.127Y137.473
G1 X160.689Y137.394
G1 X161.244Y137.266
G1 X161.79Y137.088
G1 X162.322Y136.86
G1 X162.838Y136.581
G1 X163.334Y136.253
G1 X163.799Y135.88
G1 X164.221Y135.474
G1 X164.6Y135.036
G1 X164.936Y134.57
G1 X165.228Y134.081
G1 X165.474Y133.57
G1 X165.674Y133.041
G1 X165.828Y132.498
G1 X165.934Y131.943
G1 X165.992Y131.381
G1 X166Y130.814
G1 X165.959Y130.245
G1 X165.867Y129.679
G1 X165.724Y129.117
G1 X165.529Y128.565
G1 X165.28Y128.024
G0 X165.28Y128.024
G1 Y128.02
G0 X165.28Y128.02
G1 X166.571Y126.729
G0 X154.601Y124.602
G1 X154.57Y124.904
G1 X154.483Y125.185
G1 X154.345Y125.44
G1 X154.161Y125.662
G1 X153.939Y125.845
G1 X153.685Y125.984
G1 X153.403Y126.071
G1 X153.101Y126.102
G1 X152.798Y126.071
G1 X152.517Y125.984
G1 X152.262Y125.845
G1 X152.04Y125.662
G1 X151.857Y125.44
G1 X151.719Y125.185
G1 X151.631Y124.904
G1 X151.601Y124.602
G1 X151.631Y124.299
G1 X151.719Y124.018
G1 X151.857Y123.763
G1 X152.04Y123.541
G1 X152.262Y123.358
G1 X152.517Y123.219
G1 X152.798Y123.132
G1 X153.101Y123.102
G1 X153.403Y123.132
G1 X153.685Y123.219
G1 X153.939Y123.358
G1 X154.161Y123.541
G1 X154.345Y123.763
G1 X154.483Y124.018
G1 X154.57Y124.299
G1 X154.601Y124.602
G0 X148.401Y118.403
G1 X148.37Y118.706
G1 X148.283Y118.987
G1 X148.145Y119.242
G1 X147.961Y119.464
G1 X147.739Y119.647
G1 X147.485Y119.785
G1 X147.203Y119.873
G1 X146.901Y119.903
G1 X146.598Y119.873
G1 X146.317Y119.785
G1 X146.062Y119.647
G1 X145.84Y119.464
G1 X145.657Y119.242
G1 X145.519Y118.987
G1 X145.431Y118.706
G1 X145.401Y118.403
G1 X145.431Y118.101
G1 X145.519Y117.819
G1 X145.657Y117.565
G1 X145.84Y117.343
G1 X146.062Y117.159
G1 X146.317Y117.021
G1 X146.598Y116.934
G1 X146.901Y116.903
G1 X147.203Y116.934
G1 X147.485Y117.021
G1 X147.739Y117.159
G1 X147.961Y117.343
G1 X148.145Y117.565
G1 X148.283Y117.819
G1 X148.37Y118.101
G1 X148.401Y118.403
G0 X143.468Y117.788
G1 X142.991Y118.009
G1 X142.503Y118.189
G1 X142.007Y118.328
G1 X141.506Y118.427
G1 X141.001Y118.486
G1 X140.495Y118.505
G1 X139.99Y118.485
G1 X139.489Y118.426
G1 X138.995Y118.328
G1 X138.508Y118.192
G1 X138.033Y118.018
G1 X137.57Y117.807
G1 X137.123Y117.559
G1 X136.694Y117.274
G1 X136.285Y116.953
G1 X135.899Y116.596
G1 X135.543Y116.209
G1 X135.222Y115.799
G1 X134.938Y115.37
G1 X134.691Y114.922
G1 X134.481Y114.459
G1 X134.308Y113.984
G1 X134.173Y113.497
G1 X134.077Y113.002
G1 X134.018Y112.501
G1 X133.999Y111.996
G1 X134.019Y111.49
G1 X134.079Y110.986
G1 X134.179Y110.484
G1 X134.319Y109.989
G1 X134.5Y109.501
G1 X134.722Y109.024
G0 X134.722Y109.024
G0 X135.601Y105.603
G1 X135.57Y105.906
G1 X135.483Y106.187
G1 X135.345Y106.442
G1 X135.161Y106.664
G1 X134.939Y106.847
G1 X134.685Y106.985
G1 X134.403Y107.073
G1 X134.101Y107.103
G1 X133.798Y107.073
G1 X133.517Y106.985
G1 X133.262Y106.847
G1 X133.04Y106.664
G1 X132.857Y106.442
G1 X132.719Y106.187
G1 X132.631Y105.906
G1 X132.601Y105.603
G1 X132.631Y105.301
G1 X132.719Y105.019
G1 X132.857Y104.765
G1 X133.04Y104.543
G1 X133.262Y104.359
G1 X133.517Y104.221
G1 X133.798Y104.134
G1 X134.101Y104.103
G1 X134.403Y104.134
G1 X134.685Y104.221
G1 X134.939Y104.359
G1 X135.161Y104.543
G1 X135.345Y104.765
G1 X135.483Y105.019
G1 X135.57Y105.301
G1 X135.601Y105.603
G0 X128.571Y107.729
G1 X128.825Y107.418
G1 X129.006Y107.074
G1 X129.115Y106.707
G1 X129.151Y106.329
G1 X129.115Y105.951
G1 X129.006Y105.584
G1 X128.825Y105.239
G1 X128.571Y104.929
G1 X128.26Y104.675
G1 X127.916Y104.494
G1 X127.549Y104.385
G1 X127.171Y104.349
G1 X126.793Y104.385
G1 X126.426Y104.494
G1 X126.082Y104.675
G1 X125.771Y104.929
G0 X125.771Y104.929
G1 X124.478Y106.222
G0 X124.478Y106.222
G1 X123.937Y105.974
G1 X123.384Y105.778
G1 X122.823Y105.635
G1 X122.256Y105.543
G1 X121.688Y105.502
G1 X121.121Y105.511
G1 X120.559Y105.569
G1 X120.004Y105.675
G1 X119.461Y105.828
G1 X118.932Y106.029
G1 X118.421Y106.275
G1 X117.931Y106.566
G1 X117.466Y106.902
G1 X117.028Y107.282
G1 X116.622Y107.704
G1 X116.249Y108.169
G1 X115.921Y108.665
G1 X115.642Y109.181
G1 X115.414Y109.713
G1 X115.236Y110.259
G1 X115.108Y110.814
G1 X115.029Y111.376
G1 X114.999Y111.941
G1 X115.019Y112.505
G1 X115.087Y113.065
G1 X115.203Y113.618
G1 X115.368Y114.161
G1 X115.58Y114.69
G1 X115.84Y115.202
G1 X116.148Y115.693
G1 X116.502Y116.16
G1 X116.904Y116.599
G1 X117.343Y117
G1 X117.81Y117.355
G1 X118.301Y117.662
G1 X118.813Y117.922
G1 X119.342Y118.135
G1 X119.885Y118.299
G1 X120.438Y118.416
G1 X120.998Y118.484
G1 X121.563Y118.503
G1 X122.127Y118.473
G1 X122.689Y118.394
G1 X123.244Y118.266
G1 X123.79Y118.088
G1 X124.322Y117.86
G1 X124.838Y117.581
G1 X125.334Y117.253
G1 X125.799Y116.88
G1 X126.221Y116.473
G1 X126.6Y116.036
G1 X126.936Y115.57
G1 X127.228Y115.081
G1 X127.474Y114.57
G1 X127.674Y114.041
G1 X127.828Y113.498
G1 X127.934Y112.943
G1 X127.992Y112.381
G1 X128Y111.814
G1 X127.959Y111.245
G1 X127.867Y110.679
G1 X127.724Y110.117
G1 X127.529Y109.565
G1 X127.28Y109.024
G0 X127.28Y109.024
G1 Y109.02
G0 X127.28Y109.02
G1 X128.571Y107.729
G0 X143.478Y106.223
G1 X142.937Y105.975
G1 X142.384Y105.78
G1 X141.823Y105.637
G1 X141.256Y105.545
G1 X140.688Y105.504
G1 X140.121Y105.512
G1 X139.559Y105.57
G1 X139.004Y105.676
G1 X138.461Y105.83
G1 X137.932Y106.03
G1 X137.421Y106.277
G1 X136.931Y106.568
G1 X136.466Y106.904
G1 X136.028Y107.283
G1 X135.622Y107.706
G1 X135.249Y108.17
G1 X134.921Y108.666
G1 X134.642Y109.182
G1 X134.414Y109.715
G1 X134.236Y110.261
G1 X134.108Y110.816
G1 X134.029Y111.378
G1 X133.999Y111.942
G1 X134.019Y112.506
G1 X134.087Y113.067
G1 X134.203Y113.62
G1 X134.368Y114.163
G1 X134.58Y114.692
G1 X134.84Y115.203
G1 X135.148Y115.694
G1 X135.502Y116.161
G1 X135.904Y116.601
G1 X136.343Y117.002
G1 X136.81Y117.357
G1 X137.301Y117.664
G1 X137.813Y117.924
G1 X138.342Y118.136
G1 X138.885Y118.301
G1 X139.438Y118.417
G1 X139.998Y118.485
G1 X140.563Y118.505
G1 X141.127Y118.475
G1 X141.689Y118.396
G1 X142.244Y118.268
G1 X142.79Y118.089
G1 X143.322Y117.861
G1 X143.838Y117.583
G1 X144.334Y117.254
G1 X144.799Y116.882
G1 X145.221Y116.475
G1 X145.6Y116.037
G1 X145.936Y115.572
G1 X146.228Y115.082
G1 X146.474Y114.571
G1 X146.674Y114.043
G1 X146.828Y113.499
G1 X146.934Y112.945
G1 X146.992Y112.382
G1 X147Y111.815
G1 X146.959Y111.247
G1 X146.867Y110.68
G1 X146.724Y110.119
G1 X146.529Y109.566
G1 X146.28Y109.025
G0 X146.28Y109.025
G1 Y109.021
G0 X146.28Y109.021
G1 X147.571Y107.731
G0 X147.571Y107.731
G1 X147.825Y107.42
G1 X148.006Y107.076
G1 X148.115Y106.709
G1 X148.151Y106.331
G1 X148.115Y105.952
G1 X148.006Y105.586
G1 X147.825Y105.241
G1 X147.571Y104.931
G1 X147.261Y104.677
G1 X146.916Y104.496
G1 X146.549Y104.387
G1 X146.171Y104.351
G1 X145.793Y104.387
G1 X145.426Y104.496
G1 X145.082Y104.677
G1 X144.771Y104.931
G0 X144.771Y104.931
G1 X143.478Y106.223
G0 X153.722Y109.025
G0 X153.722Y109.026
G1 X153.5Y109.503
G1 X153.319Y109.99
G1 X153.179Y110.486
G1 X153.079Y110.987
G1 X153.019Y111.492
G1 X152.999Y111.998
G1 X153.018Y112.503
G1 X153.076Y113.004
G1 X153.173Y113.499
G1 X153.308Y113.985
G1 X153.481Y114.461
G1 X153.691Y114.924
G1 X153.938Y115.371
G1 X154.222Y115.801
G1 X154.543Y116.211
G1 X154.899Y116.598
G1 X155.285Y116.955
G1 X155.694Y117.276
G1 X156.123Y117.561
G1 X156.57Y117.809
G1 X157.033Y118.02
G1 X157.508Y118.194
G1 X157.995Y118.33
G1 X158.489Y118.427
G1 X158.99Y118.486
G1 X159.495Y118.507
G1 X160.001Y118.488
G1 X160.506Y118.429
G1 X161.007Y118.33
G1 X161.503Y118.191
G1 X161.991Y118.011
G1 X162.468Y117.79
G0 X167.401Y118.405
G1 X167.37Y118.707
G1 X167.283Y118.989
G1 X167.145Y119.244
G1 X166.961Y119.466
G1 X166.739Y119.649
G1 X166.485Y119.787
G1 X166.203Y119.874
G1 X165.901Y119.905
G1 X165.598Y119.874
G1 X165.317Y119.787
G1 X165.062Y119.649
G1 X164.84Y119.466
G1 X164.657Y119.244
G1 X164.519Y118.989
G1 X164.431Y118.707
G1 X164.401Y118.405
G1 X164.431Y118.103
G1 X164.519Y117.821
G1 X164.657Y117.566
G1 X164.84Y117.344
G1 X165.062Y117.161
G1 X165.317Y117.023
G1 X165.598Y116.935
G1 X165.901Y116.905
G1 X166.203Y116.935
G1 X166.485Y117.023
G1 X166.739Y117.161
G1 X166.961Y117.344
G1 X167.145Y117.566
G1 X167.283Y117.821
G1 X167.37Y118.103
G1 X167.401Y118.405
G0 X181.468Y117.786
G1 X180.991Y118.008
G1 X180.503Y118.187
G1 X180.007Y118.327
G1 X179.506Y118.425
G1 X179.001Y118.484
G1 X178.495Y118.503
G1 X177.99Y118.483
G1 X177.489Y118.424
G1 X176.995Y118.326
G1 X176.508Y118.19
G1 X176.033Y118.017
G1 X175.57Y117.806
G1 X175.123Y117.557
G1 X174.694Y117.273
G1 X174.285Y116.951
G1 X173.899Y116.594
G1 X173.543Y116.207
G1 X173.222Y115.798
G1 X172.938Y115.368
G1 X172.691Y114.921
G1 X172.481Y114.458
G1 X172.308Y113.982
G1 X172.173Y113.495
G1 X172.076Y113
G1 X172.018Y112.499
G1 X171.999Y111.995
G1 X172.019Y111.489
G1 X172.079Y110.984
G1 X172.179Y110.483
G1 X172.319Y109.987
G1 X172.5Y109.5
G1 X172.722Y109.023
G0 X172.722Y109.023
G0 X173.601Y105.602
G1 X173.57Y105.904
G1 X173.483Y106.185
G1 X173.345Y106.44
G1 X173.161Y106.662
G1 X172.939Y106.845
G1 X172.685Y106.984
G1 X172.403Y107.071
G1 X172.101Y107.102
G1 X171.798Y107.071
G1 X171.517Y106.984
G1 X171.262Y106.845
G1 X171.04Y106.662
G1 X170.857Y106.44
G1 X170.719Y106.185
G1 X170.631Y105.904
G1 X170.601Y105.602
G1 X170.631Y105.299
G1 X170.719Y105.018
G1 X170.857Y104.763
G1 X171.04Y104.541
G1 X171.262Y104.358
G1 X171.517Y104.219
G1 X171.798Y104.132
G1 X172.101Y104.102
G1 X172.403Y104.132
G1 X172.685Y104.219
G1 X172.939Y104.358
G1 X173.161Y104.541
G1 X173.345Y104.763
G1 X173.483Y105.018
G1 X173.57Y105.299
G1 X173.601Y105.602
G0 X166.571Y107.732
G1 X166.824Y107.422
G1 X167.004Y107.077
G1 X167.112Y106.711
G1 X167.148Y106.333
G1 X167.112Y105.955
G1 X167.003Y105.589
G1 X166.822Y105.245
G1 X166.568Y104.935
G1 X166.258Y104.682
G1 X165.914Y104.501
G1 X165.548Y104.392
G1 X165.17Y104.355
G1 X164.793Y104.391
G1 X164.426Y104.499
G1 X164.082Y104.679
G1 X163.771Y104.932
G0 X163.771Y104.932
G1 X162.478Y106.225
G0 X162.478Y106.225
G1 X161.937Y105.977
G1 X161.384Y105.782
G1 X160.823Y105.638
G1 X160.256Y105.547
G1 X159.688Y105.505
G1 X159.121Y105.514
G1 X158.558Y105.572
G1 X158.004Y105.678
G1 X157.461Y105.832
G1 X156.932Y106.032
G1 X156.421Y106.278
G1 X155.931Y106.57
G1 X155.466Y106.906
G1 X155.028Y107.285
G1 X154.622Y107.708
G1 X154.249Y108.172
G1 X153.921Y108.668
G1 X153.642Y109.184
G1 X153.414Y109.717
G1 X153.236Y110.262
G1 X153.108Y110.818
G1 X153.029Y111.379
G1 X152.999Y111.944
G1 X153.019Y112.508
G1 X153.087Y113.069
G1 X153.203Y113.622
G1 X153.368Y114.165
G1 X153.58Y114.693
G1 X153.84Y115.205
G1 X154.148Y115.696
G1 X154.502Y116.163
G1 X154.904Y116.602
G1 X155.343Y117.004
G1 X155.81Y117.358
G1 X156.301Y117.666
G1 X156.813Y117.926
G1 X157.342Y118.138
G1 X157.885Y118.303
G1 X158.438Y118.419
G1 X158.998Y118.487
G1 X159.563Y118.506
G1 X160.127Y118.477
G1 X160.689Y118.398
G1 X161.244Y118.269
G1 X161.79Y118.091
G1 X162.322Y117.863
G1 X162.838Y117.585
G1 X163.334Y117.256
G1 X163.799Y116.884
G1 X164.221Y116.477
G1 X164.6Y116.039
G1 X164.936Y115.574
G1 X165.228Y115.084
G1 X165.474Y114.573
G1 X165.674Y114.044
G1 X165.828Y113.501
G1 X165.934Y112.947
G1 X165.992Y112.384
G1 X166Y111.817
G1 X165.959Y111.249
G1 X165.867Y110.682
G1 X165.724Y110.121
G1 X165.529Y109.568
G1 X165.28Y109.027
G0 X165.28Y109.027
G1 Y109.023
G0 X165.28Y109.023
G1 X166.571Y107.732
G0 X154.601Y105.605
G1 X154.57Y105.907
G1 X154.483Y106.189
G1 X154.345Y106.444
G1 X154.161Y106.666
G1 X153.939Y106.849
G1 X153.685Y106.987
G1 X153.403Y107.074
G1 X153.101Y107.105
G1 X152.798Y107.074
G1 X152.517Y106.987
G1 X152.262Y106.849
G1 X152.04Y106.666
G1 X151.857Y106.444
G1 X151.719Y106.189
G1 X151.631Y105.907
G1 X151.601Y105.605
G1 X151.631Y105.303
G1 X151.719Y105.021
G1 X151.857Y104.766
G1 X152.04Y104.544
G1 X152.262Y104.361
G1 X152.517Y104.223
G1 X152.798Y104.135
G1 X153.101Y104.105
G1 X153.403Y104.135
G1 X153.685Y104.223
G1 X153.939Y104.361
G1 X154.161Y104.544
G1 X154.345Y104.766
G1 X154.483Y105.021
G1 X154.57Y105.303
G1 X154.601Y105.605
G0 X181.478Y106.222
G1 X180.937Y105.974
G1 X180.384Y105.778
G1 X179.823Y105.635
G1 X179.256Y105.543
G1 X178.688Y105.502
G1 X178.121Y105.511
G1 X177.559Y105.569
G1 X177.004Y105.675
G1 X176.461Y105.828
G1 X175.932Y106.029
G1 X175.421Y106.275
G1 X174.931Y106.566
G1 X174.466Y106.902
G1 X174.028Y107.282
G1 X173.622Y107.704
G1 X173.249Y108.169
G1 X172.921Y108.665
G1 X172.642Y109.181
G1 X172.414Y109.713
G1 X172.236Y110.259
G1 X172.108Y110.814
G1 X172.029Y111.376
G1 X171.999Y111.941
G1 X172.019Y112.505
G1 X172.087Y113.065
G1 X172.203Y113.618
G1 X172.368Y114.161
G1 X172.58Y114.69
G1 X172.84Y115.202
G1 X173.148Y115.693
G1 X173.502Y116.16
G1 X173.904Y116.599
G1 X174.343Y117
G1 X174.81Y117.355
G1 X175.301Y117.662
G1 X175.813Y117.922
G1 X176.342Y118.135
G1 X176.885Y118.299
G1 X177.438Y118.416
G1 X177.998Y118.484
G1 X178.563Y118.503
G1 X179.127Y118.473
G1 X179.689Y118.394
G1 X180.244Y118.266
G1 X180.79Y118.088
G1 X181.322Y117.86
G1 X181.838Y117.581
G1 X182.334Y117.253
G1 X182.799Y116.88
G1 X183.221Y116.473
G1 X183.6Y116.036
G1 X183.936Y115.57
G1 X184.228Y115.081
G1 X184.474Y114.57
G1 X184.674Y114.041
G1 X184.828Y113.498
G1 X184.934Y112.943
G1 X184.992Y112.381
G1 X185Y111.814
G1 X184.959Y111.245
G1 X184.867Y110.679
G1 X184.724Y110.117
G1 X184.529Y109.565
G1 X184.28Y109.024
G0 X184.28Y109.024
G1 Y109.02
G0 X184.28Y109.02
G1 X185.571Y107.729
G0 X185.571Y107.729
G1 X185.825Y107.418
G1 X186.006Y107.074
G1 X186.115Y106.707
G1 X186.151Y106.329
G1 X186.115Y105.951
G1 X186.006Y105.584
G1 X185.825Y105.239
G1 X185.571Y104.929
G1 X185.261Y104.675
G1 X184.916Y104.494
G1 X184.549Y104.385
G1 X184.171Y104.349
G1 X183.793Y104.385
G1 X183.426Y104.494
G1 X183.082Y104.675
G1 X182.771Y104.929
G0 X182.771Y104.929
G1 X181.478Y106.222
G0 X186.401Y118.402
G1 X186.37Y118.704
G1 X186.283Y118.985
G1 X186.145Y119.24
G1 X185.961Y119.462
G1 X185.739Y119.645
G1 X185.485Y119.784
G1 X185.203Y119.871
G1 X184.901Y119.902
G1 X184.598Y119.871
G1 X184.317Y119.784
G1 X184.062Y119.645
G1 X183.84Y119.462
G1 X183.657Y119.24
G1 X183.519Y118.985
G1 X183.431Y118.704
G1 X183.401Y118.402
G1 X183.431Y118.099
G1 X183.519Y117.818
G1 X183.657Y117.563
G1 X183.84Y117.341
G1 X184.062Y117.158
G1 X184.317Y117.019
G1 X184.598Y116.932
G1 X184.901Y116.902
G1 X185.203Y116.932
G1 X185.485Y117.019
G1 X185.739Y117.158
G1 X185.961Y117.341
G1 X186.145Y117.563
G1 X186.283Y117.818
G1 X186.37Y118.099
G1 X186.401Y118.402
G0 X182.771Y123.929
G1 X183.082Y123.675
G1 X183.426Y123.494
G1 X183.793Y123.385
G1 X184.171Y123.349
G1 X184.549Y123.385
G1 X184.916Y123.494
G1 X185.261Y123.675
G1 X185.571Y123.929
G1 X185.825Y124.239
G1 X186.006Y124.584
G1 X186.115Y124.951
G1 X186.151Y125.329
G1 X186.115Y125.707
G1 X186.006Y126.074
G1 X185.825Y126.418
G1 X185.571Y126.729
G0 X185.571Y126.729
G1 X184.28Y128.02
G0 X184.28Y128.02
G1 Y128.024
G0 X184.28Y128.024
G1 X184.529Y128.565
G1 X184.724Y129.117
G1 X184.867Y129.679
G1 X184.959Y130.245
G1 X185Y130.814
G1 X184.992Y131.381
G1 X184.934Y131.943
G1 X184.828Y132.498
G1 X184.674Y133.041
G1 X184.474Y133.57
G1 X184.228Y134.081
G1 X183.936Y134.57
G1 X183.6Y135.036
G1 X183.221Y135.474
G1 X182.799Y135.88
G1 X182.334Y136.253
G1 X181.838Y136.581
G1 X181.322Y136.86
G1 X180.79Y137.088
G1 X180.244Y137.266
G1 X179.689Y137.394
G1 X179.127Y137.473
G1 X178.563Y137.503
G1 X177.998Y137.484
G1 X177.438Y137.416
G1 X176.885Y137.299
G1 X176.342Y137.135
G1 X175.813Y136.922
G1 X175.301Y136.662
G1 X174.81Y136.355
G1 X174.343Y136
G1 X173.904Y135.599
G1 X173.502Y135.16
G1 X173.148Y134.693
G1 X172.84Y134.202
G1 X172.58Y133.69
G1 X172.368Y133.161
G1 X172.203Y132.618
G1 X172.087Y132.065
G1 X172.019Y131.505
G1 X171.999Y130.941
G1 X172.029Y130.376
G1 X172.108Y129.814
G1 X172.236Y129.259
G1 X172.414Y128.713
G1 X172.642Y128.181
G1 X172.921Y127.665
G1 X173.249Y127.169
G1 X173.622Y126.704
G1 X174.028Y126.282
G1 X174.466Y125.902
G1 X174.931Y125.566
G1 X175.421Y125.275
G1 X175.932Y125.029
G1 X176.461Y124.828
G1 X177.004Y124.675
G1 X177.559Y124.569
G1 X178.121Y124.511
G1 X178.688Y124.502
G1 X179.256Y124.543
G1 X179.823Y124.635
G1 X180.384Y124.778
G1 X180.937Y124.974
G1 X181.478Y125.222
G0 X181.478Y125.222
G1 X182.771Y123.929
G0 X186.401Y137.402
G1 X186.37Y137.704
G1 X186.283Y137.985
G1 X186.145Y138.24
G1 X185.961Y138.462
G1 X185.739Y138.645
G1 X185.485Y138.784
G1 X185.203Y138.871
G1 X184.901Y138.902
G1 X184.598Y138.871
G1 X184.317Y138.784
G1 X184.062Y138.645
G1 X183.84Y138.462
G1 X183.657Y138.24
G1 X183.519Y137.985
G1 X183.431Y137.704
G1 X183.401Y137.402
G1 X183.431Y137.099
G1 X183.519Y136.818
G1 X183.657Y136.563
G1 X183.84Y136.341
G1 X184.062Y136.158
G1 X184.317Y136.019
G1 X184.598Y135.932
G1 X184.901Y135.902
G1 X185.203Y135.932
G1 X185.485Y136.019
G1 X185.739Y136.158
G1 X185.961Y136.341
G1 X186.145Y136.563
G1 X186.283Y136.818
G1 X186.37Y137.099
G1 X186.401Y137.402
G0 X182.771Y142.929
G1 X183.082Y142.675
G1 X183.426Y142.494
G1 X183.793Y142.385
G1 X184.171Y142.349
G1 X184.549Y142.385
G1 X184.916Y142.494
G1 X185.261Y142.675
G1 X185.571Y142.929
G1 X185.825Y143.239
G1 X186.006Y143.584
G1 X186.115Y143.951
G1 X186.151Y144.329
G1 X186.115Y144.707
G1 X186.006Y145.074
G1 X185.825Y145.418
G1 X185.571Y145.729
G0 X185.571Y145.729
G1 X184.28Y147.02
G0 X184.28Y147.02
G1 Y147.024
G0 X184.28Y147.024
G1 X184.529Y147.565
G1 X184.724Y148.117
G1 X184.867Y148.679
G1 X184.959Y149.245
G1 X185Y149.814
G1 X184.992Y150.381
G1 X184.934Y150.943
G1 X184.828Y151.498
G1 X184.674Y152.041
G1 X184.474Y152.57
G1 X184.228Y153.081
G1 X183.936Y153.57
G1 X183.6Y154.036
G1 X183.221Y154.474
G1 X182.799Y154.88
G1 X182.334Y155.253
G1 X181.838Y155.581
G1 X181.322Y155.86
G1 X180.79Y156.088
G1 X180.244Y156.266
G1 X179.689Y156.394
G1 X179.127Y156.473
G1 X178.563Y156.503
G1 X177.998Y156.484
G1 X177.438Y156.416
G1 X176.885Y156.299
G1 X176.342Y156.135
G1 X175.813Y155.922
G1 X175.301Y155.662
G1 X174.81Y155.355
G1 X174.343Y155
G1 X173.904Y154.599
G1 X173.502Y154.16
G1 X173.148Y153.693
G1 X172.84Y153.202
G1 X172.58Y152.69
G1 X172.368Y152.161
G1 X172.203Y151.618
G1 X172.087Y151.065
G1 X172.019Y150.505
G1 X171.999Y149.941
G1 X172.029Y149.376
G1 X172.108Y148.814
G1 X172.236Y148.259
G1 X172.414Y147.713
G1 X172.642Y147.181
G1 X172.921Y146.665
G1 X173.249Y146.169
G1 X173.622Y145.704
G1 X174.028Y145.282
G1 X174.466Y144.902
G1 X174.931Y144.566
G1 X175.421Y144.275
G1 X175.932Y144.029
G1 X176.461Y143.828
G1 X177.004Y143.675
G1 X177.559Y143.569
G1 X178.121Y143.511
G1 X178.688Y143.502
G1 X179.256Y143.543
G1 X179.823Y143.635
G1 X180.384Y143.778
G1 X180.937Y143.974
G1 X181.478Y144.222
G0 X181.478Y144.222
G1 X182.771Y142.929
G0 X186.401Y156.402
G1 X186.37Y156.704
G1 X186.283Y156.985
G1 X186.145Y157.24
G1 X185.961Y157.462
G1 X185.739Y157.645
G1 X185.485Y157.784
G1 X185.203Y157.871
G1 X184.901Y157.902
G1 X184.598Y157.871
G1 X184.317Y157.784
G1 X184.062Y157.645
G1 X183.84Y157.462
G1 X183.657Y157.24
G1 X183.519Y156.985
G1 X183.431Y156.704
G1 X183.401Y156.402
G1 X183.431Y156.099
G1 X183.519Y155.818
G1 X183.657Y155.563
G1 X183.84Y155.341
G1 X184.062Y155.158
G1 X184.317Y155.019
G1 X184.598Y154.932
G1 X184.901Y154.902
G1 X185.203Y154.932
G1 X185.485Y155.019
G1 X185.739Y155.158
G1 X185.961Y155.341
G1 X186.145Y155.563
G1 X186.283Y155.818
G1 X186.37Y156.099
G1 X186.401Y156.402
G0 X182.771Y161.929
G1 X183.082Y161.675
G1 X183.426Y161.494
G1 X183.793Y161.385
G1 X184.171Y161.349
G1 X184.549Y161.385
G1 X184.916Y161.494
G1 X185.261Y161.675
G1 X185.571Y161.929
G1 X185.825Y162.239
G1 X186.006Y162.584
G1 X186.115Y162.951
G1 X186.151Y163.329
G1 X186.115Y163.707
G1 X186.006Y164.074
G1 X185.825Y164.418
G1 X185.571Y164.729
G0 X185.571Y164.729
G1 X184.28Y166.02
G0 X184.28Y166.02
G1 Y166.024
G0 X184.28Y166.024
G1 X184.529Y166.565
G1 X184.724Y167.117
G1 X184.867Y167.679
G1 X184.959Y168.245
G1 X185Y168.814
G1 X184.992Y169.381
G1 X184.934Y169.943
G1 X184.828Y170.498
G1 X184.674Y171.041
G1 X184.474Y171.57
G1 X184.228Y172.081
G1 X183.936Y172.57
G1 X183.6Y173.036
G1 X183.221Y173.474
G1 X182.799Y173.88
G1 X182.334Y174.253
G1 X181.838Y174.581
G1 X181.322Y174.86
G1 X180.79Y175.088
G1 X180.244Y175.266
G1 X179.689Y175.394
G1 X179.127Y175.473
G1 X178.563Y175.503
G1 X177.998Y175.484
G1 X177.438Y175.416
G1 X176.885Y175.299
G1 X176.342Y175.135
G1 X175.813Y174.922
G1 X175.301Y174.662
G1 X174.81Y174.355
G1 X174.343Y174
G1 X173.904Y173.599
G1 X173.502Y173.16
G1 X173.148Y172.693
G1 X172.84Y172.202
G1 X172.58Y171.69
G1 X172.368Y171.161
G1 X172.203Y170.618
G1 X172.087Y170.065
G1 X172.019Y169.505
G1 X171.999Y168.941
G1 X172.029Y168.376
G1 X172.108Y167.814
G1 X172.236Y167.259
G1 X172.414Y166.713
G1 X172.642Y166.181
G1 X172.921Y165.665
G1 X173.249Y165.169
G1 X173.622Y164.704
G1 X174.028Y164.282
G1 X174.466Y163.902
G1 X174.931Y163.566
G1 X175.421Y163.275
G1 X175.932Y163.029
G1 X176.461Y162.828
G1 X177.004Y162.675
G1 X177.559Y162.569
G1 X178.121Y162.511
G1 X178.688Y162.502
G1 X179.256Y162.543
G1 X179.823Y162.635
G1 X180.384Y162.778
G1 X180.937Y162.974
G1 X181.478Y163.222
G0 X181.478Y163.222
G1 X182.771Y161.929
G0 X186.401Y175.402
G1 X186.37Y175.704
G1 X186.283Y175.985
G1 X186.145Y176.24
G1 X185.961Y176.462
G1 X185.739Y176.645
G1 X185.485Y176.784
G1 X185.203Y176.871
G1 X184.901Y176.902
G1 X184.598Y176.871
G1 X184.317Y176.784
G1 X184.062Y176.645
G1 X183.84Y176.462
G1 X183.657Y176.24
G1 X183.519Y175.985
G1 X183.431Y175.704
G1 X183.401Y175.402
G1 X183.431Y175.099
G1 X183.519Y174.818
G1 X183.657Y174.563
G1 X183.84Y174.341
G1 X184.062Y174.158
G1 X184.317Y174.019
G1 X184.598Y173.932
G1 X184.901Y173.902
G1 X185.203Y173.932
G1 X185.485Y174.019
G1 X185.739Y174.158
G1 X185.961Y174.341
G1 X186.145Y174.563
G1 X186.283Y174.818
G1 X186.37Y175.099
G1 X186.401Y175.402
G0 X182.771Y180.929
G1 X183.082Y180.675
G1 X183.426Y180.494
G1 X183.793Y180.385
G1 X184.171Y180.349
G1 X184.549Y180.385
G1 X184.916Y180.494
G1 X185.261Y180.675
G1 X185.571Y180.929
G1 X185.825Y181.239
G1 X186.006Y181.584
G1 X186.115Y181.951
G1 X186.151Y182.329
G1 X186.115Y182.707
G1 X186.006Y183.074
G1 X185.825Y183.418
G1 X185.571Y183.729
G0 X185.571Y183.729
G1 X184.28Y185.02
G0 X184.28Y185.02
G1 Y185.024
G0 X184.28Y185.024
G1 X184.529Y185.565
G1 X184.724Y186.117
G1 X184.867Y186.679
G1 X184.959Y187.245
G1 X185Y187.814
G1 X184.992Y188.381
G1 X184.934Y188.943
G1 X184.828Y189.498
G1 X184.674Y190.041
G1 X184.474Y190.57
G1 X184.228Y191.081
G1 X183.936Y191.57
G1 X183.6Y192.036
G1 X183.221Y192.474
G1 X182.799Y192.88
G1 X182.334Y193.253
G1 X181.838Y193.581
G1 X181.322Y193.86
G1 X180.79Y194.088
G1 X180.244Y194.266
G1 X179.689Y194.394
G1 X179.127Y194.473
G1 X178.563Y194.503
G1 X177.998Y194.484
G1 X177.438Y194.416
G1 X176.885Y194.299
G1 X176.342Y194.135
G1 X175.813Y193.922
G1 X175.301Y193.662
G1 X174.81Y193.355
G1 X174.343Y193
G1 X173.904Y192.599
G1 X173.502Y192.16
G1 X173.148Y191.693
G1 X172.84Y191.202
G1 X172.58Y190.69
G1 X172.368Y190.161
G1 X172.203Y189.618
G1 X172.087Y189.065
G1 X172.019Y188.505
G1 X171.999Y187.941
G1 X172.029Y187.376
G1 X172.108Y186.814
G1 X172.236Y186.259
G1 X172.414Y185.713
G1 X172.642Y185.181
G1 X172.921Y184.665
G1 X173.249Y184.169
G1 X173.622Y183.704
G1 X174.028Y183.282
G1 X174.466Y182.902
G1 X174.931Y182.566
G1 X175.421Y182.275
G1 X175.932Y182.029
G1 X176.461Y181.828
G1 X177.004Y181.675
G1 X177.559Y181.569
G1 X178.121Y181.511
G1 X178.688Y181.502
G1 X179.256Y181.543
G1 X179.823Y181.635
G1 X180.384Y181.778
G1 X180.937Y181.974
G1 X181.478Y182.222
G0 X181.478Y182.222
G1 X182.771Y180.929
G0 X186.401Y194.402
G1 X186.37Y194.704
G1 X186.283Y194.985
G1 X186.145Y195.24
G1 X185.961Y195.462
G1 X185.739Y195.645
G1 X185.485Y195.784
G1 X185.203Y195.871
G1 X184.901Y195.902
G1 X184.598Y195.871
G1 X184.317Y195.784
G1 X184.062Y195.645
G1 X183.84Y195.462
G1 X183.657Y195.24
G1 X183.519Y194.985
G1 X183.431Y194.704
G1 X183.401Y194.402
G1 X183.431Y194.099
G1 X183.519Y193.818
G1 X183.657Y193.563
G1 X183.84Y193.341
G1 X184.062Y193.158
G1 X184.317Y193.019
G1 X184.598Y192.932
G1 X184.901Y192.902
G1 X185.203Y192.932
G1 X185.485Y193.019
G1 X185.739Y193.158
G1 X185.961Y193.341
G1 X186.145Y193.563
G1 X186.283Y193.818
G1 X186.37Y194.099
G1 X186.401Y194.402
G0 X148.401Y194.402
G1 X148.37Y194.704
G1 X148.283Y194.985
G1 X148.145Y195.24
G1 X147.961Y195.462
G1 X147.739Y195.645
G1 X147.485Y195.784
G1 X147.203Y195.871
G1 X146.901Y195.902
G1 X146.598Y195.871
G1 X146.317Y195.784
G1 X146.062Y195.645
G1 X145.84Y195.462
G1 X145.657Y195.24
G1 X145.519Y194.985
G1 X145.431Y194.704
G1 X145.401Y194.402
G1 X145.431Y194.099
G1 X145.519Y193.818
G1 X145.657Y193.563
G1 X145.84Y193.341
G1 X146.062Y193.158
G1 X146.317Y193.019
G1 X146.598Y192.932
G1 X146.901Y192.902
G1 X147.203Y192.932
G1 X147.485Y193.019
G1 X147.739Y193.158
G1 X147.961Y193.341
G1 X148.145Y193.563
G1 X148.283Y193.818
G1 X148.37Y194.099
G1 X148.401Y194.402
G0 X127.298Y185.042
G1 X127.547Y185.583
G1 X127.742Y186.135
G1 X127.885Y186.697
G1 X127.977Y187.263
G1 X128.018Y187.832
G1 X128.01Y188.399
G1 X127.952Y188.961
G1 X127.846Y189.516
G1 X127.692Y190.059
G1 X127.492Y190.588
G1 X127.246Y191.099
G1 X126.954Y191.588
G1 X126.618Y192.054
G1 X126.239Y192.492
G1 X125.817Y192.898
G1 X125.352Y193.271
G1 X124.856Y193.599
G1 X124.34Y193.878
G1 X123.808Y194.106
G1 X123.262Y194.284
G1 X122.707Y194.412
G1 X122.145Y194.491
G1 X121.581Y194.521
G1 X121.016Y194.502
G1 X120.456Y194.434
G1 X119.903Y194.317
G1 X119.36Y194.153
G1 X118.831Y193.94
G1 X118.319Y193.68
G1 X117.828Y193.373
G1 X117.361Y193.018
G1 X116.922Y192.617
G1 X116.52Y192.178
G1 X116.166Y191.711
G1 X115.858Y191.22
G1 X115.598Y190.708
G1 X115.386Y190.179
G1 X115.221Y189.637
G1 X115.105Y189.083
G1 X115.037Y188.523
G1 X115.017Y187.959
G1 X115.047Y187.394
G1 X115.126Y186.832
G1 X115.254Y186.277
G1 X115.432Y185.731
G1 X115.66Y185.199
G1 X115.939Y184.683
G1 X116.267Y184.187
G1 X116.64Y183.722
G1 X117.046Y183.3
G1 X117.484Y182.92
G1 X117.949Y182.585
G1 X118.439Y182.293
G1 X118.95Y182.047
G1 X119.479Y181.846
G1 X120.022Y181.693
G1 X120.576Y181.587
G1 X121.139Y181.529
G1 X121.706Y181.52
G1 X122.274Y181.561
G1 X122.841Y181.653
G1 X123.402Y181.796
G1 X123.955Y181.992
G1 X124.496Y182.24
G0 X127.28Y166.024
G1 X127.529Y166.565
G1 X127.724Y167.117
G1 X127.867Y167.679
G1 X127.959Y168.245
G1 X128Y168.814
G1 X127.992Y169.381
G1 X127.934Y169.943
G1 X127.828Y170.498
G1 X127.674Y171.041
G1 X127.474Y171.57
G1 X127.228Y172.081
G1 X126.936Y172.57
G1 X126.6Y173.036
G1 X126.221Y173.474
G1 X125.799Y173.88
G1 X125.334Y174.253
G1 X124.838Y174.581
G1 X124.322Y174.86
G1 X123.79Y175.088
G1 X123.244Y175.266
G1 X122.689Y175.394
G1 X122.127Y175.473
G1 X121.563Y175.503
G1 X120.998Y175.484
G1 X120.438Y175.416
G1 X119.885Y175.299
G1 X119.342Y175.135
G1 X118.813Y174.922
G1 X118.301Y174.662
G1 X117.81Y174.355
G1 X117.343Y174
G1 X116.904Y173.599
G1 X116.502Y173.16
G1 X116.148Y172.693
G1 X115.84Y172.202
G1 X115.58Y171.69
G1 X115.368Y171.161
G1 X115.203Y170.618
G1 X115.087Y170.065
G1 X115.019Y169.505
G1 X114.999Y168.941
G1 X115.029Y168.376
G1 X115.108Y167.814
G1 X115.236Y167.259
G1 X115.414Y166.713
G1 X115.642Y166.181
G1 X115.921Y165.665
G1 X116.249Y165.169
G1 X116.622Y164.704
G1 X117.028Y164.282
G1 X117.466Y163.902
G1 X117.931Y163.566
G1 X118.421Y163.275
G1 X118.932Y163.029
G1 X119.461Y162.828
G1 X120.004Y162.675
G1 X120.559Y162.569
G1 X121.121Y162.511
G1 X121.688Y162.502
G1 X122.256Y162.543
G1 X122.823Y162.635
G1 X123.384Y162.778
G1 X123.937Y162.974
G1 X124.478Y163.222
G0 X127.28Y147.024
G1 X127.529Y147.565
G1 X127.724Y148.117
G1 X127.867Y148.679
G1 X127.959Y149.245
G1 X128Y149.814
G1 X127.992Y150.381
G1 X127.934Y150.943
G1 X127.828Y151.498
G1 X127.674Y152.041
G1 X127.474Y152.57
G1 X127.228Y153.081
G1 X126.936Y153.57
G1 X126.6Y154.036
G1 X126.221Y154.474
G1 X125.799Y154.88
G1 X125.334Y155.253
G1 X124.838Y155.581
G1 X124.322Y155.86
G1 X123.79Y156.088
G1 X123.244Y156.266
G1 X122.689Y156.394
G1 X122.127Y156.473
G1 X121.563Y156.503
G1 X120.998Y156.484
G1 X120.438Y156.416
G1 X119.885Y156.299
G1 X119.342Y156.135
G1 X118.813Y155.922
G1 X118.301Y155.662
G1 X117.81Y155.355
G1 X117.343Y155
G1 X116.904Y154.599
G1 X116.502Y154.16
G1 X116.148Y153.693
G1 X115.84Y153.202
G1 X115.58Y152.69
G1 X115.368Y152.161
G1 X115.203Y151.618
G1 X115.087Y151.065
G1 X115.019Y150.505
G1 X114.999Y149.941
G1 X115.029Y149.376
G1 X115.108Y148.814
G1 X115.236Y148.259
G1 X115.414Y147.713
G1 X115.642Y147.181
G1 X115.921Y146.665
G1 X116.249Y146.169
G1 X116.622Y145.704
G1 X117.028Y145.282
G1 X117.466Y144.902
G1 X117.931Y144.566
G1 X118.421Y144.275
G1 X118.932Y144.029
G1 X119.461Y143.828
G1 X120.004Y143.675
G1 X120.559Y143.569
G1 X121.121Y143.511
G1 X121.688Y143.502
G1 X122.256Y143.543
G1 X122.823Y143.635
G1 X123.384Y143.778
G1 X123.937Y143.974
G1 X124.478Y144.222
G0 X127.28Y128.024
G1 X127.529Y128.565
G1 X127.724Y129.117
G1 X127.867Y129.679
G1 X127.959Y130.245
G1 X128Y130.814
G1 X127.992Y131.381
G1 X127.934Y131.943
G1 X127.828Y132.498
G1 X127.674Y133.041
G1 X127.474Y133.57
G1 X127.228Y134.081
G1 X126.936Y134.57
G1 X126.6Y135.036
G1 X126.221Y135.474
G1 X125.799Y135.88
G1 X125.334Y136.253
G1 X124.838Y136.581
G1 X124.322Y136.86
G1 X123.79Y137.088
G1 X123.244Y137.266
G1 X122.689Y137.394
G1 X122.127Y137.473
G1 X121.563Y137.503
G1 X120.998Y137.484
G1 X120.438Y137.416
G1 X119.885Y137.299
G1 X119.342Y137.135
G1 X118.813Y136.922
G1 X118.301Y136.662
G1 X117.81Y136.355
G1 X117.343Y136
G1 X116.904Y135.599
G1 X116.502Y135.16
G1 X116.148Y134.693
G1 X115.84Y134.202
G1 X115.58Y133.69
G1 X115.368Y133.161
G1 X115.203Y132.618
G1 X115.087Y132.065
G1 X115.019Y131.505
G1 X114.999Y130.941
G1 X115.029Y130.376
G1 X115.108Y129.814
G1 X115.236Y129.259
G1 X115.414Y128.713
G1 X115.642Y128.181
G1 X115.921Y127.665
G1 X116.249Y127.169
G1 X116.622Y126.704
G1 X117.028Y126.282
G1 X117.466Y125.902
G1 X117.931Y125.566
G1 X118.421Y125.275
G1 X118.932Y125.029
G1 X119.461Y124.828
G1 X120.004Y124.675
G1 X120.559Y124.569
G1 X121.121Y124.511
G1 X121.688Y124.502
G1 X122.256Y124.543
G1 X122.823Y124.635
G1 X123.384Y124.778
G1 X123.937Y124.974
G1 X124.478Y125.222
M9
G1 S0
M5
G90
; return to user-defined finish pos
G0 X0Y0
M2
