; LightBurn 1.7.06
; GRBL device profile, absolute coords
; Bounds: X67.75 Y100 to X232.25 Y200
G00 G17 G40 G21 G54
G90
M4
; Cut @ 600 mm/min, 95% power
M9
G0 X70.25Y100
; Layer VirtArray
G1 X69.994Y100.013S950F600
G1 X69.746Y100.051
G1 X69.507Y100.112
G1 X69.277Y100.196
G1 X68.852Y100.427
G1 X68.482Y100.732
G1 X68.177Y101.102
G1 X67.946Y101.527
G1 X67.862Y101.757
G1 X67.801Y101.996
G1 X67.763Y102.244
G1 X67.75Y102.5
G0 X67.75Y102.5
G1 Y197.5
G0 X67.75Y197.5
G1 X67.763Y197.756
G1 X67.801Y198.004
G1 X67.862Y198.243
G1 X67.946Y198.473
G1 X68.177Y198.898
G1 X68.482Y199.268
G1 X68.852Y199.573
G1 X69.277Y199.804
G1 X69.507Y199.888
G1 X69.746Y199.949
G1 X69.994Y199.987
G1 X70.25Y200
G0 X70.25Y200
G1 X191.25
G0 X191.25Y200
G1 Y195.5
G0 X191.25Y195.5
G1 X195.25Y191.5
G0 X195.25Y191.5
G1 Y180
G0 X195.25Y180
G1 X204.75Y170.5
G0 X204.75Y170.5
G1 Y157
G0 X204.75Y157
G1 X209.25Y152.5
G0 X209.25Y152.5
G1 Y143
G0 X209.25Y143
G1 X218.75Y133.5
G0 X218.75Y133.5
G1 Y123
G0 X218.75Y123
G1 X232.25Y109.5
G0 X232.25Y109.5
G1 Y100
G0 X232.25Y100
G1 X70.25
G0 X71.75Y110
G1 X71.448Y110.03
G1 X71.166Y110.118
G1 X70.911Y110.256
G1 X70.689Y110.439
G1 X70.506Y110.661
G1 X70.368Y110.916
G1 X70.28Y111.198
G1 X70.25Y111.5
G1 X70.28Y111.802
G1 X70.368Y112.084
G1 X70.506Y112.339
G1 X70.689Y112.561
G1 X70.911Y112.744
G1 X71.166Y112.882
G1 X71.448Y112.97
G1 X71.75Y113
G0 X71.75Y113
G1 X73.75
G0 X73.75Y113
G1 X74.052Y112.97
G1 X74.334Y112.882
G1 X74.589Y112.744
G1 X74.811Y112.561
G1 X74.994Y112.339
G1 X75.132Y112.084
G1 X75.22Y111.802
G1 X75.25Y111.5
G1 X75.22Y111.198
G1 X75.132Y110.916
G1 X74.994Y110.661
G1 X74.811Y110.439
G1 X74.589Y110.256
G1 X74.334Y110.118
G1 X74.052Y110.03
G1 X73.75Y110
G0 X73.75Y110
G1 X71.75
G0 X87.902Y107.702
G1 X87.65Y107.391
G1 X87.469Y107.047
G1 X87.361Y106.68
G1 X87.325Y106.302
G1 X87.362Y105.925
G1 X87.471Y105.558
G1 X87.652Y105.215
G1 X87.905Y104.905
G1 X88.215Y104.651
G1 X88.559Y104.47
G1 X88.926Y104.361
G1 X89.303Y104.325
G1 X89.681Y104.36
G1 X90.047Y104.468
G1 X90.392Y104.649
G1 X90.702Y104.902
G0 X90.702Y104.902
G1 X92.014Y106.214
G0 X92.014Y106.214
G1 Y106.229
G0 X92.014Y106.229
G1 X92.728Y105.912
G1 X93.467Y105.685
G1 X94.222Y105.549
G1 X94.986Y105.502
G1 X95.75Y105.545
G1 X96.506Y105.678
G1 X97.245Y105.901
G1 X97.961Y106.214
G0 X97.961Y106.214
G1 X97.99
G0 X97.99Y106.214
G1 X100.002Y104.202
G0 X100.002Y104.202
G1 X100.313Y103.948
G1 X100.657Y103.767
G1 X101.024Y103.658
G1 X101.402Y103.622
G1 X101.78Y103.658
G1 X102.147Y103.767
G1 X102.492Y103.948
G1 X102.802Y104.202
G1 X103.056Y104.512
G1 X103.237Y104.857
G1 X103.346Y105.223
G1 X103.382Y105.602
G1 X103.346Y105.98
G1 X103.237Y106.347
G1 X103.056Y106.691
G1 X102.802Y107.002
G0 X102.802Y107.002
G0 X102.802Y107.002
G1 X100.78Y109.024
G0 X100.78Y109.024
G1 X101.002Y109.501
G1 X101.183Y109.989
G1 X101.323Y110.484
G1 X101.423Y110.986
G1 X101.483Y111.49
G1 X101.503Y111.996
G1 X101.484Y112.501
G1 X101.426Y113.002
G1 X101.329Y113.497
G1 X101.194Y113.983
G1 X101.022Y114.459
G1 X100.811Y114.922
G1 X100.564Y115.37
G1 X100.28Y115.799
G1 X99.96Y116.209
G1 X99.603Y116.596
G1 X99.217Y116.953
G1 X98.808Y117.274
G1 X98.379Y117.559
G1 X97.932Y117.807
G1 X97.47Y118.018
G1 X96.994Y118.192
G1 X96.508Y118.328
G1 X96.013Y118.426
G1 X95.512Y118.485
G1 X95.008Y118.505
G1 X94.502Y118.486
G1 X93.997Y118.427
G1 X93.495Y118.328
G1 X92.999Y118.189
G1 X92.511Y118.009
G1 X92.034Y117.788
G0 X92.034Y117.788
G1 X92.016
G0 X92.034Y117.77
G1 X90.002Y119.802
G0 X90.002Y119.802
G1 X89.692Y120.054
G1 X89.347Y120.234
G1 X88.981Y120.342
G1 X88.603Y120.378
G1 X88.226Y120.341
G1 X87.86Y120.232
G1 X87.516Y120.051
G1 X87.206Y119.798
G1 X86.953Y119.488
G1 X86.772Y119.144
G1 X86.663Y118.778
G1 X86.626Y118.4
G1 X86.662Y118.023
G1 X86.77Y117.656
G1 X86.95Y117.312
G1 X87.202Y117.002
G0 X87.202Y117.002
G1 X89.226Y114.978
G0 X89.226Y114.989
G1 X88.908Y114.271
G1 X88.681Y113.528
G1 X88.545Y112.768
G1 X88.5Y112
G1 X88.546Y111.232
G1 X88.683Y110.472
G1 X88.91Y109.729
G1 X89.229Y109.011
G0 X89.229Y109.011
G1 X89.212
G0 X89.212Y109.011
G1 X87.902Y107.702
G0 X97.981Y106.224
G0 X100.78Y109.024
G0 X106.902Y107.702
G1 X106.65Y107.391
G1 X106.469Y107.047
G1 X106.361Y106.68
G1 X106.325Y106.302
G1 X106.362Y105.925
G1 X106.471Y105.558
G1 X106.652Y105.215
G1 X106.905Y104.905
G1 X107.215Y104.651
G1 X107.559Y104.47
G1 X107.926Y104.361
G1 X108.303Y104.325
G1 X108.681Y104.36
G1 X109.047Y104.468
G1 X109.392Y104.649
G1 X109.702Y104.902
G0 X109.702Y104.902
G1 X111.014Y106.214
G0 X111.014Y106.214
G1 Y106.229
G0 X111.014Y106.229
G1 X111.728Y105.912
G1 X112.467Y105.685
G1 X113.222Y105.549
G1 X113.986Y105.502
G1 X114.75Y105.545
G1 X115.506Y105.678
G1 X116.245Y105.901
G1 X116.961Y106.214
G0 X116.961Y106.214
G1 X116.99
G0 X116.99Y106.214
G1 X119.002Y104.202
G0 X119.002Y104.202
G1 X119.313Y103.948
G1 X119.657Y103.767
G1 X120.024Y103.658
G1 X120.402Y103.622
G1 X120.78Y103.658
G1 X121.147Y103.767
G1 X121.492Y103.948
G1 X121.802Y104.202
G1 X122.056Y104.512
G1 X122.237Y104.857
G1 X122.346Y105.223
G1 X122.382Y105.602
G1 X122.346Y105.98
G1 X122.237Y106.347
G1 X122.056Y106.691
G1 X121.802Y107.002
G0 X121.802Y107.002
G0 X121.802Y107.002
G1 X119.78Y109.024
G0 X119.78Y109.024
G1 X120.002Y109.501
G1 X120.183Y109.989
G1 X120.323Y110.484
G1 X120.423Y110.986
G1 X120.483Y111.49
G1 X120.503Y111.996
G1 X120.484Y112.501
G1 X120.426Y113.002
G1 X120.329Y113.497
G1 X120.194Y113.983
G1 X120.022Y114.459
G1 X119.811Y114.922
G1 X119.564Y115.37
G1 X119.28Y115.799
G1 X118.96Y116.209
G1 X118.603Y116.596
G1 X118.217Y116.953
G1 X117.808Y117.274
G1 X117.379Y117.559
G1 X116.932Y117.807
G1 X116.47Y118.018
G1 X115.994Y118.192
G1 X115.508Y118.328
G1 X115.013Y118.426
G1 X114.512Y118.485
G1 X114.008Y118.505
G1 X113.502Y118.486
G1 X112.997Y118.427
G1 X112.495Y118.328
G1 X111.999Y118.189
G1 X111.511Y118.009
G1 X111.034Y117.788
G0 X111.034Y117.788
G1 X111.016
G0 X111.034Y117.77
G1 X109.002Y119.802
G0 X109.002Y119.802
G1 X108.692Y120.054
G1 X108.347Y120.234
G1 X107.981Y120.342
G1 X107.603Y120.378
G1 X107.226Y120.341
G1 X106.86Y120.232
G1 X106.516Y120.051
G1 X106.206Y119.798
G1 X105.953Y119.488
G1 X105.772Y119.144
G1 X105.663Y118.778
G1 X105.626Y118.4
G1 X105.662Y118.023
G1 X105.77Y117.656
G1 X105.95Y117.312
G1 X106.202Y117.002
G0 X106.202Y117.002
G1 X108.226Y114.978
G0 X108.226Y114.989
G1 X107.908Y114.271
G1 X107.681Y113.528
G1 X107.545Y112.768
G1 X107.5Y112
G1 X107.546Y111.232
G1 X107.683Y110.472
G1 X107.91Y109.729
G1 X108.229Y109.011
G0 X108.229Y109.011
G1 X108.212
G0 X108.212Y109.011
G1 X106.902Y107.702
G0 X116.981Y106.224
G0 X119.78Y109.024
G0 X125.902Y107.702
G1 X125.65Y107.391
G1 X125.469Y107.047
G1 X125.361Y106.68
G1 X125.325Y106.302
G1 X125.362Y105.925
G1 X125.471Y105.558
G1 X125.652Y105.215
G1 X125.905Y104.905
G1 X126.215Y104.651
G1 X126.559Y104.47
G1 X126.926Y104.361
G1 X127.303Y104.325
G1 X127.681Y104.36
G1 X128.047Y104.468
G1 X128.392Y104.649
G1 X128.702Y104.902
G0 X128.702Y104.902
G1 X130.014Y106.214
G0 X130.014Y106.214
G1 Y106.229
G0 X130.014Y106.229
G1 X130.728Y105.912
G1 X131.467Y105.685
G1 X132.222Y105.549
G1 X132.986Y105.502
G1 X133.75Y105.545
G1 X134.506Y105.678
G1 X135.245Y105.901
G1 X135.961Y106.214
G0 X135.961Y106.214
G1 X135.99
G0 X135.99Y106.214
G1 X138.002Y104.202
G0 X138.002Y104.202
G1 X138.313Y103.948
G1 X138.657Y103.767
G1 X139.024Y103.658
G1 X139.402Y103.622
G1 X139.78Y103.658
G1 X140.147Y103.767
G1 X140.492Y103.948
G1 X140.802Y104.202
G1 X141.056Y104.512
G1 X141.237Y104.857
G1 X141.346Y105.223
G1 X141.382Y105.602
G1 X141.346Y105.98
G1 X141.237Y106.347
G1 X141.056Y106.691
G1 X140.802Y107.002
G0 X140.802Y107.002
G0 X140.802Y107.002
G1 X138.78Y109.024
G0 X138.78Y109.024
G1 X139.002Y109.501
G1 X139.183Y109.989
G1 X139.323Y110.484
G1 X139.423Y110.986
G1 X139.483Y111.49
G1 X139.503Y111.996
G1 X139.484Y112.501
G1 X139.426Y113.002
G1 X139.329Y113.497
G1 X139.194Y113.983
G1 X139.022Y114.459
G1 X138.811Y114.922
G1 X138.564Y115.37
G1 X138.28Y115.799
G1 X137.96Y116.209
G1 X137.603Y116.596
G1 X137.217Y116.953
G1 X136.808Y117.274
G1 X136.379Y117.559
G1 X135.932Y117.807
G1 X135.47Y118.018
G1 X134.994Y118.192
G1 X134.508Y118.328
G1 X134.013Y118.426
G1 X133.512Y118.485
G1 X133.008Y118.505
G1 X132.502Y118.486
G1 X131.997Y118.427
G1 X131.495Y118.328
G1 X130.999Y118.189
G1 X130.511Y118.009
G1 X130.034Y117.788
G0 X130.034Y117.788
G1 X130.016
G0 X130.034Y117.77
G1 X128.002Y119.802
G0 X128.002Y119.802
G1 X127.692Y120.054
G1 X127.347Y120.234
G1 X126.981Y120.342
G1 X126.603Y120.378
G1 X126.226Y120.341
G1 X125.86Y120.232
G1 X125.516Y120.051
G1 X125.206Y119.798
G1 X124.953Y119.488
G1 X124.772Y119.144
G1 X124.663Y118.778
G1 X124.626Y118.4
G1 X124.662Y118.023
G1 X124.77Y117.656
G1 X124.95Y117.312
G1 X125.202Y117.002
G0 X125.202Y117.002
G1 X127.226Y114.978
G0 X127.226Y114.989
G1 X126.908Y114.271
G1 X126.681Y113.528
G1 X126.545Y112.768
G1 X126.5Y112
G1 X126.546Y111.232
G1 X126.683Y110.472
G1 X126.91Y109.729
G1 X127.229Y109.011
G0 X127.229Y109.011
G1 X127.212
G0 X127.212Y109.011
G1 X125.902Y107.702
G0 X135.981Y106.224
G0 X138.78Y109.024
G0 X138.002Y123.202
G1 X138.313Y122.948
G1 X138.657Y122.767
G1 X139.024Y122.658
G1 X139.402Y122.622
G1 X139.78Y122.658
G1 X140.147Y122.767
G1 X140.492Y122.948
G1 X140.802Y123.202
G1 X141.056Y123.512
G1 X141.237Y123.857
G1 X141.346Y124.223
G1 X141.382Y124.602
G1 X141.346Y124.98
G1 X141.237Y125.347
G1 X141.056Y125.691
G1 X140.802Y126.002
G0 X140.802Y126.002
G0 X140.802Y126.002
G1 X138.78Y128.024
G0 X138.78Y128.024
G1 X139.002Y128.501
G1 X139.183Y128.989
G1 X139.323Y129.484
G1 X139.423Y129.986
G1 X139.483Y130.49
G1 X139.503Y130.996
G1 X139.484Y131.501
G1 X139.426Y132.002
G1 X139.329Y132.497
G1 X139.194Y132.983
G1 X139.022Y133.459
G1 X138.811Y133.922
G1 X138.564Y134.37
G1 X138.28Y134.799
G1 X137.96Y135.209
G1 X137.603Y135.596
G1 X137.217Y135.953
G1 X136.808Y136.274
G1 X136.379Y136.559
G1 X135.932Y136.807
G1 X135.47Y137.018
G1 X134.994Y137.192
G1 X134.508Y137.328
G1 X134.013Y137.426
G1 X133.512Y137.485
G1 X133.008Y137.505
G1 X132.502Y137.486
G1 X131.997Y137.427
G1 X131.495Y137.328
G1 X130.999Y137.189
G1 X130.511Y137.009
G1 X130.034Y136.788
G0 X130.034Y136.788
G1 X130.016
G0 X130.034Y136.77
G1 X128.002Y138.802
G0 X128.002Y138.802
G1 X127.692Y139.054
G1 X127.347Y139.234
G1 X126.981Y139.342
G1 X126.603Y139.378
G1 X126.226Y139.341
G1 X125.86Y139.232
G1 X125.516Y139.051
G1 X125.206Y138.798
G1 X124.953Y138.488
G1 X124.772Y138.144
G1 X124.663Y137.778
G1 X124.626Y137.4
G1 X124.662Y137.023
G1 X124.77Y136.656
G1 X124.95Y136.312
G1 X125.202Y136.002
G0 X125.202Y136.002
G1 X127.226Y133.978
G0 X127.226Y133.989
G1 X126.908Y133.271
G1 X126.681Y132.528
G1 X126.545Y131.768
G1 X126.5Y131
G1 X126.546Y130.232
G1 X126.683Y129.472
G1 X126.91Y128.729
G1 X127.229Y128.012
G0 X127.229Y128.012
G1 X127.212
G0 X127.212Y128.012
G1 X125.902Y126.702
G0 X125.902Y126.702
G1 X125.65Y126.391
G1 X125.47Y126.047
G1 X125.362Y125.68
G1 X125.326Y125.303
G1 X125.363Y124.925
G1 X125.472Y124.559
G1 X125.653Y124.215
G1 X125.906Y123.905
G1 X126.216Y123.652
G1 X126.56Y123.471
G1 X126.926Y123.362
G1 X127.303Y123.325
G1 X127.681Y123.361
G1 X128.047Y123.469
G1 X128.392Y123.649
G1 X128.702Y123.902
G0 X128.702Y123.902
G1 X130.014Y125.214
G0 X130.014Y125.214
G1 Y125.229
G0 X130.014Y125.229
G1 X130.728Y124.912
G1 X131.467Y124.685
G1 X132.222Y124.549
G1 X132.986Y124.502
G1 X133.75Y124.545
G1 X134.506Y124.678
G1 X135.245Y124.901
G1 X135.961Y125.214
G0 X135.961Y125.214
G1 X135.99
G0 X135.99Y125.214
G1 X138.002Y123.202
G0 X135.981Y125.223
G0 X138.78Y128.024
G0 X144.902Y126.702
G1 X144.65Y126.391
G1 X144.47Y126.047
G1 X144.362Y125.68
G1 X144.326Y125.303
G1 X144.363Y124.925
G1 X144.472Y124.559
G1 X144.653Y124.215
G1 X144.906Y123.905
G1 X145.216Y123.652
G1 X145.56Y123.471
G1 X145.926Y123.362
G1 X146.303Y123.325
G1 X146.681Y123.361
G1 X147.047Y123.469
G1 X147.392Y123.649
G1 X147.702Y123.902
G0 X147.702Y123.902
G1 X149.014Y125.214
G0 X149.014Y125.214
G1 Y125.229
G0 X149.014Y125.229
G1 X149.728Y124.912
G1 X150.467Y124.685
G1 X151.222Y124.549
G1 X151.986Y124.502
G1 X152.75Y124.545
G1 X153.506Y124.678
G1 X154.245Y124.901
G1 X154.961Y125.214
G0 X154.961Y125.214
G1 X154.99
G0 X154.99Y125.214
G1 X157.002Y123.202
G0 X157.002Y123.202
G1 X157.313Y122.948
G1 X157.657Y122.767
G1 X158.024Y122.658
G1 X158.402Y122.622
G1 X158.78Y122.658
G1 X159.147Y122.767
G1 X159.492Y122.948
G1 X159.802Y123.202
G1 X160.056Y123.512
G1 X160.237Y123.857
G1 X160.346Y124.223
G1 X160.382Y124.602
G1 X160.346Y124.98
G1 X160.237Y125.347
G1 X160.056Y125.691
G1 X159.802Y126.002
G0 X159.802Y126.002
G0 X159.802Y126.002
G1 X157.78Y128.024
G0 X157.78Y128.024
G1 X158.002Y128.501
G1 X158.183Y128.989
G1 X158.323Y129.484
G1 X158.423Y129.986
G1 X158.483Y130.49
G1 X158.503Y130.996
G1 X158.484Y131.501
G1 X158.426Y132.002
G1 X158.329Y132.497
G1 X158.194Y132.983
G1 X158.022Y133.459
G1 X157.811Y133.922
G1 X157.564Y134.37
G1 X157.28Y134.799
G1 X156.96Y135.209
G1 X156.603Y135.596
G1 X156.217Y135.953
G1 X155.808Y136.274
G1 X155.379Y136.559
G1 X154.932Y136.807
G1 X154.47Y137.018
G1 X153.994Y137.192
G1 X153.508Y137.328
G1 X153.013Y137.426
G1 X152.512Y137.485
G1 X152.008Y137.505
G1 X151.502Y137.486
G1 X150.997Y137.427
G1 X150.495Y137.328
G1 X149.999Y137.189
G1 X149.511Y137.009
G1 X149.034Y136.788
G0 X149.034Y136.788
G1 X149.016
G0 X149.034Y136.77
G1 X147.002Y138.802
G0 X147.002Y138.802
G1 X146.692Y139.054
G1 X146.347Y139.234
G1 X145.981Y139.342
G1 X145.603Y139.378
G1 X145.226Y139.341
G1 X144.86Y139.232
G1 X144.516Y139.051
G1 X144.206Y138.798
G1 X143.953Y138.488
G1 X143.772Y138.144
G1 X143.663Y137.778
G1 X143.626Y137.4
G1 X143.662Y137.023
G1 X143.77Y136.656
G1 X143.95Y136.312
G1 X144.202Y136.002
G0 X144.202Y136.002
G1 X146.226Y133.978
G0 X146.226Y133.989
G1 X145.908Y133.271
G1 X145.681Y132.528
G1 X145.545Y131.768
G1 X145.5Y131
G1 X145.546Y130.232
G1 X145.683Y129.472
G1 X145.91Y128.729
G1 X146.229Y128.012
G0 X146.229Y128.012
G1 X146.212
G0 X146.212Y128.012
G1 X144.902Y126.702
G0 X154.981Y125.224
G0 X157.78Y128.024
G0 X163.902Y126.702
G1 X163.65Y126.391
G1 X163.47Y126.047
G1 X163.362Y125.68
G1 X163.326Y125.303
G1 X163.363Y124.925
G1 X163.472Y124.559
G1 X163.653Y124.215
G1 X163.906Y123.905
G1 X164.216Y123.652
G1 X164.56Y123.471
G1 X164.926Y123.362
G1 X165.303Y123.325
G1 X165.681Y123.361
G1 X166.047Y123.469
G1 X166.392Y123.649
G1 X166.702Y123.902
G0 X166.702Y123.902
G1 X168.014Y125.214
G0 X168.014Y125.214
G1 Y125.229
G0 X168.014Y125.229
G1 X168.728Y124.912
G1 X169.467Y124.685
G1 X170.222Y124.549
G1 X170.986Y124.502
G1 X171.75Y124.545
G1 X172.506Y124.678
G1 X173.245Y124.901
G1 X173.961Y125.214
G0 X173.961Y125.214
G1 X173.99
G0 X173.99Y125.214
G1 X176.002Y123.202
G0 X176.002Y123.202
G1 X176.313Y122.948
G1 X176.657Y122.767
G1 X177.024Y122.658
G1 X177.402Y122.622
G1 X177.78Y122.658
G1 X178.147Y122.767
G1 X178.492Y122.948
G1 X178.802Y123.202
G1 X179.056Y123.512
G1 X179.237Y123.857
G1 X179.346Y124.223
G1 X179.382Y124.602
G1 X179.346Y124.98
G1 X179.237Y125.347
G1 X179.056Y125.691
G1 X178.802Y126.002
G0 X178.802Y126.002
G0 X178.802Y126.002
G1 X176.78Y128.024
G0 X176.78Y128.024
G1 X177.002Y128.501
G1 X177.183Y128.989
G1 X177.323Y129.484
G1 X177.423Y129.986
G1 X177.483Y130.49
G1 X177.503Y130.996
G1 X177.484Y131.501
G1 X177.426Y132.002
G1 X177.329Y132.497
G1 X177.194Y132.983
G1 X177.022Y133.459
G1 X176.811Y133.922
G1 X176.564Y134.37
G1 X176.28Y134.799
G1 X175.96Y135.209
G1 X175.603Y135.596
G1 X175.217Y135.953
G1 X174.808Y136.274
G1 X174.379Y136.559
G1 X173.932Y136.807
G1 X173.47Y137.018
G1 X172.994Y137.192
G1 X172.508Y137.328
G1 X172.013Y137.426
G1 X171.512Y137.485
G1 X171.008Y137.505
G1 X170.502Y137.486
G1 X169.997Y137.427
G1 X169.495Y137.328
G1 X168.999Y137.189
G1 X168.511Y137.009
G1 X168.034Y136.788
G0 X168.034Y136.788
G1 X168.016
G0 X168.034Y136.77
G1 X166.002Y138.802
G0 X166.002Y138.802
G1 X165.692Y139.054
G1 X165.347Y139.234
G1 X164.981Y139.342
G1 X164.603Y139.378
G1 X164.226Y139.341
G1 X163.86Y139.232
G1 X163.516Y139.051
G1 X163.206Y138.798
G1 X162.953Y138.488
G1 X162.772Y138.144
G1 X162.663Y137.778
G1 X162.626Y137.4
G1 X162.662Y137.023
G1 X162.77Y136.656
G1 X162.95Y136.312
G1 X163.202Y136.002
G0 X163.202Y136.002
G1 X165.226Y133.978
G0 X165.226Y133.989
G1 X164.908Y133.271
G1 X164.681Y132.528
G1 X164.545Y131.768
G1 X164.5Y131
G1 X164.546Y130.232
G1 X164.683Y129.472
G1 X164.91Y128.729
G1 X165.229Y128.012
G0 X165.229Y128.012
G1 X165.212
G0 X165.212Y128.012
G1 X163.902Y126.702
G0 X173.981Y125.224
G0 X176.78Y128.024
G0 X182.902Y126.702
G1 X182.65Y126.391
G1 X182.47Y126.047
G1 X182.362Y125.68
G1 X182.326Y125.303
G1 X182.363Y124.925
G1 X182.472Y124.559
G1 X182.653Y124.215
G1 X182.906Y123.905
G1 X183.216Y123.652
G1 X183.56Y123.471
G1 X183.926Y123.362
G1 X184.303Y123.325
G1 X184.681Y123.361
G1 X185.047Y123.469
G1 X185.392Y123.649
G1 X185.702Y123.902
G0 X185.702Y123.902
G1 X187.014Y125.214
G0 X187.014Y125.214
G1 Y125.229
G0 X187.014Y125.229
G1 X187.728Y124.912
G1 X188.467Y124.685
G1 X189.222Y124.549
G1 X189.986Y124.502
G1 X190.75Y124.545
G1 X191.506Y124.678
G1 X192.245Y124.901
G1 X192.961Y125.214
G0 X192.961Y125.214
G1 X192.99
G0 X192.99Y125.214
G1 X195.002Y123.202
G0 X195.002Y123.202
G1 X195.313Y122.948
G1 X195.657Y122.767
G1 X196.024Y122.658
G1 X196.402Y122.622
G1 X196.78Y122.658
G1 X197.147Y122.767
G1 X197.492Y122.948
G1 X197.802Y123.202
G1 X198.056Y123.512
G1 X198.237Y123.857
G1 X198.346Y124.223
G1 X198.382Y124.602
G1 X198.346Y124.98
G1 X198.237Y125.347
G1 X198.056Y125.691
G1 X197.802Y126.002
G0 X197.802Y126.002
G0 X197.802Y126.002
G1 X195.78Y128.024
G0 X195.78Y128.024
G1 X196.002Y128.501
G1 X196.183Y128.989
G1 X196.323Y129.484
G1 X196.423Y129.986
G1 X196.483Y130.49
G1 X196.503Y130.996
G1 X196.484Y131.501
G1 X196.426Y132.002
G1 X196.329Y132.497
G1 X196.194Y132.983
G1 X196.022Y133.459
G1 X195.811Y133.922
G1 X195.564Y134.37
G1 X195.28Y134.799
G1 X194.96Y135.209
G1 X194.603Y135.596
G1 X194.217Y135.953
G1 X193.808Y136.274
G1 X193.379Y136.559
G1 X192.932Y136.807
G1 X192.47Y137.018
G1 X191.994Y137.192
G1 X191.508Y137.328
G1 X191.013Y137.426
G1 X190.512Y137.485
G1 X190.008Y137.505
G1 X189.502Y137.486
G1 X188.997Y137.427
G1 X188.495Y137.328
G1 X187.999Y137.189
G1 X187.511Y137.009
G1 X187.034Y136.788
G0 X187.034Y136.788
G1 X187.016
G0 X187.034Y136.77
G1 X185.002Y138.802
G0 X185.002Y138.802
G1 X184.692Y139.054
G1 X184.347Y139.234
G1 X183.981Y139.342
G1 X183.603Y139.378
G1 X183.226Y139.341
G1 X182.86Y139.232
G1 X182.516Y139.051
G1 X182.206Y138.798
G1 X181.953Y138.488
G1 X181.772Y138.144
G1 X181.663Y137.778
G1 X181.626Y137.4
G1 X181.662Y137.023
G1 X181.77Y136.656
G1 X181.95Y136.312
G1 X182.202Y136.002
G0 X182.202Y136.002
G1 X184.226Y133.978
G0 X184.229Y128.012
G1 X184.212
G0 X184.212Y128.012
G1 X182.902Y126.702
G0 X184.229Y128.012
G1 X183.911Y128.729
G1 X183.683Y129.472
G1 X183.546Y130.232
G1 X183.5Y131
G1 X183.545Y131.768
G1 X183.681Y132.528
G1 X183.908Y133.271
G1 X184.226Y133.989
G0 X185.502Y142.202
G1 X185.813Y141.948
G1 X186.157Y141.767
G1 X186.524Y141.658
G1 X186.902Y141.622
G1 X187.28Y141.658
G1 X187.647Y141.767
G1 X187.992Y141.948
G1 X188.302Y142.202
G1 X188.556Y142.512
G1 X188.737Y142.857
G1 X188.846Y143.223
G1 X188.882Y143.602
G1 X188.846Y143.98
G1 X188.737Y144.347
G1 X188.556Y144.691
G1 X188.302Y145.002
G0 X188.302Y145.002
G0 X188.302Y145.002
G1 X186.28Y147.024
G0 X186.28Y147.024
G1 X186.502Y147.501
G1 X186.683Y147.989
G1 X186.823Y148.484
G1 X186.923Y148.986
G1 X186.983Y149.49
G1 X187.003Y149.996
G1 X186.984Y150.501
G1 X186.926Y151.002
G1 X186.829Y151.497
G1 X186.694Y151.983
G1 X186.522Y152.459
G1 X186.311Y152.922
G1 X186.064Y153.37
G1 X185.78Y153.799
G1 X185.46Y154.209
G1 X185.103Y154.596
G1 X184.717Y154.953
G1 X184.308Y155.274
G1 X183.879Y155.559
G1 X183.432Y155.807
G1 X182.97Y156.018
G1 X182.494Y156.192
G1 X182.008Y156.328
G1 X181.513Y156.426
G1 X181.012Y156.485
G1 X180.508Y156.505
G1 X180.002Y156.486
G1 X179.497Y156.427
G1 X178.995Y156.328
G1 X178.499Y156.189
G1 X178.011Y156.009
G1 X177.534Y155.788
G0 X177.534Y155.788
G1 X177.516
G0 X177.534Y155.77
G1 X175.502Y157.802
G0 X175.502Y157.802
G1 X175.192Y158.054
G1 X174.847Y158.234
G1 X174.481Y158.342
G1 X174.103Y158.378
G1 X173.726Y158.341
G1 X173.36Y158.232
G1 X173.016Y158.051
G1 X172.706Y157.798
G1 X172.453Y157.488
G1 X172.272Y157.144
G1 X172.163Y156.778
G1 X172.126Y156.4
G1 X172.162Y156.023
G1 X172.27Y155.656
G1 X172.45Y155.312
G1 X172.702Y155.002
G0 X172.702Y155.002
G1 X174.726Y152.978
G0 X174.729Y147.012
G1 X174.712
G0 X174.712Y147.012
G1 X173.402Y145.702
G0 X173.402Y145.702
G1 X173.15Y145.391
G1 X172.97Y145.047
G1 X172.862Y144.68
G1 X172.826Y144.303
G1 X172.863Y143.925
G1 X172.972Y143.559
G1 X173.153Y143.215
G1 X173.406Y142.905
G1 X173.716Y142.652
G1 X174.06Y142.471
G1 X174.426Y142.362
G1 X174.803Y142.325
G1 X175.181Y142.361
G1 X175.547Y142.469
G1 X175.892Y142.649
G1 X176.202Y142.902
G0 X176.202Y142.902
G1 X177.514Y144.214
G0 X177.514Y144.214
G1 Y144.229
G0 X177.514Y144.229
G1 X178.228Y143.912
G1 X178.967Y143.685
G1 X179.722Y143.549
G1 X180.486Y143.502
G1 X181.25Y143.545
G1 X182.006Y143.678
G1 X182.745Y143.901
G1 X183.461Y144.214
G0 X183.461Y144.214
G1 X183.49
G0 X183.49Y144.214
G1 X185.502Y142.202
G0 X183.481Y144.223
G0 X186.28Y147.024
G0 X192.402Y145.702
G1 X192.149Y145.391
G1 X191.968Y145.047
G1 X191.86Y144.68
G1 X191.824Y144.302
G1 X191.861Y143.924
G1 X191.969Y143.558
G1 X192.151Y143.214
G1 X192.404Y142.903
G1 X192.714Y142.65
G1 X193.058Y142.469
G1 X193.425Y142.36
G1 X193.803Y142.323
G1 X194.181Y142.359
G1 X194.547Y142.468
G1 X194.892Y142.648
G1 X195.202Y142.902
G0 X195.202Y142.902
G1 X196.514Y144.214
G0 X196.514Y144.214
G1 Y144.229
G0 X196.514Y144.229
G1 X197.228Y143.912
G1 X197.967Y143.685
G1 X198.722Y143.549
G1 X199.486Y143.502
G1 X200.25Y143.545
G1 X201.006Y143.678
G1 X201.745Y143.901
G1 X202.461Y144.214
G0 X202.461Y144.214
G1 X202.49
G0 X202.49Y144.214
G1 X204.502Y142.202
G0 X204.502Y142.202
G1 X204.813Y141.948
G1 X205.157Y141.767
G1 X205.524Y141.658
G1 X205.902Y141.622
G1 X206.28Y141.658
G1 X206.647Y141.767
G1 X206.992Y141.948
G1 X207.302Y142.202
G1 X207.556Y142.512
G1 X207.737Y142.857
G1 X207.846Y143.223
G1 X207.882Y143.602
G1 X207.846Y143.98
G1 X207.737Y144.347
G1 X207.556Y144.691
G1 X207.302Y145.002
G0 X207.302Y145.002
G0 X207.302Y145.002
G1 X205.28Y147.024
G0 X205.28Y147.024
G1 X205.502Y147.501
G1 X205.683Y147.989
G1 X205.823Y148.484
G1 X205.923Y148.986
G1 X205.983Y149.49
G1 X206.003Y149.996
G1 X205.984Y150.501
G1 X205.926Y151.002
G1 X205.829Y151.497
G1 X205.694Y151.983
G1 X205.522Y152.459
G1 X205.311Y152.922
G1 X205.064Y153.37
G1 X204.78Y153.799
G1 X204.46Y154.209
G1 X204.103Y154.596
G1 X203.717Y154.953
G1 X203.308Y155.274
G1 X202.879Y155.559
G1 X202.432Y155.807
G1 X201.97Y156.018
G1 X201.494Y156.192
G1 X201.008Y156.328
G1 X200.513Y156.426
G1 X200.012Y156.485
G1 X199.508Y156.505
G1 X199.002Y156.486
G1 X198.497Y156.427
G1 X197.995Y156.328
G1 X197.499Y156.189
G1 X197.011Y156.009
G1 X196.534Y155.788
G0 X196.534Y155.788
G1 X196.516
G0 X196.534Y155.77
G1 X194.502Y157.802
G0 X194.502Y157.802
G1 X194.192Y158.055
G1 X193.847Y158.235
G1 X193.481Y158.344
G1 X193.103Y158.38
G1 X192.725Y158.343
G1 X192.358Y158.235
G1 X192.014Y158.053
G1 X191.704Y157.8
G1 X191.451Y157.49
G1 X191.269Y157.145
G1 X191.161Y156.779
G1 X191.124Y156.401
G1 X191.16Y156.023
G1 X191.268Y155.657
G1 X191.449Y155.312
G1 X191.702Y155.002
G0 X191.702Y155.002
G1 X193.726Y152.978
G0 X193.729Y147.012
G1 X193.712
G0 X193.712Y147.012
G1 X192.402Y145.702
G0 X193.729Y147.012
G1 X193.411Y147.729
G1 X193.183Y148.472
G1 X193.046Y149.232
G1 X193Y150
G1 X193.045Y150.768
G1 X193.181Y151.528
G1 X193.408Y152.271
G1 X193.726Y152.989
G0 X199.752Y161.202
G1 X200.063Y160.948
G1 X200.407Y160.767
G1 X200.774Y160.658
G1 X201.152Y160.622
G1 X201.53Y160.658
G1 X201.897Y160.767
G1 X202.242Y160.948
G1 X202.552Y161.202
G1 X202.806Y161.512
G1 X202.987Y161.857
G1 X203.096Y162.223
G1 X203.132Y162.602
G1 X203.096Y162.98
G1 X202.987Y163.347
G1 X202.806Y163.691
G1 X202.552Y164.002
G0 X202.552Y164.002
G0 X202.552Y164.002
G1 X200.53Y166.024
G0 X200.53Y166.024
G1 X200.752Y166.501
G1 X200.933Y166.989
G1 X201.073Y167.484
G1 X201.173Y167.986
G1 X201.233Y168.49
G1 X201.253Y168.996
G1 X201.234Y169.501
G1 X201.176Y170.002
G1 X201.079Y170.497
G1 X200.944Y170.983
G1 X200.772Y171.459
G1 X200.561Y171.922
G1 X200.314Y172.37
G1 X200.03Y172.799
G1 X199.71Y173.209
G1 X199.353Y173.596
G1 X198.967Y173.953
G1 X198.558Y174.274
G1 X198.129Y174.559
G1 X197.682Y174.807
G1 X197.22Y175.018
G1 X196.744Y175.192
G1 X196.258Y175.328
G1 X195.763Y175.426
G1 X195.262Y175.485
G1 X194.758Y175.505
G1 X194.252Y175.486
G1 X193.747Y175.427
G1 X193.245Y175.328
G1 X192.749Y175.189
G1 X192.261Y175.009
G1 X191.784Y174.788
G0 X191.784Y174.788
G1 X191.766
G0 X191.784Y174.77
G1 X189.752Y176.802
G0 X189.752Y176.802
G1 X189.442Y177.055
G1 X189.097Y177.237
G1 X188.73Y177.345
G1 X188.352Y177.382
G1 X187.974Y177.345
G1 X187.607Y177.237
G1 X187.263Y177.055
G1 X186.952Y176.802
G1 X186.699Y176.491
G1 X186.517Y176.147
G1 X186.409Y175.78
G1 X186.372Y175.402
G1 X186.409Y175.023
G1 X186.517Y174.657
G1 X186.699Y174.312
G1 X186.952Y174.002
G0 X186.952Y174.002
G1 X188.976Y171.978
G0 X188.979Y166.012
G1 X188.962
G0 X188.962Y166.012
G1 X187.652Y164.702
G0 X187.652Y164.702
G1 X187.4Y164.391
G1 X187.22Y164.047
G1 X187.112Y163.68
G1 X187.076Y163.303
G1 X187.113Y162.925
G1 X187.222Y162.559
G1 X187.403Y162.215
G1 X187.656Y161.905
G1 X187.966Y161.652
G1 X188.31Y161.471
G1 X188.676Y161.362
G1 X189.053Y161.325
G1 X189.431Y161.361
G1 X189.797Y161.469
G1 X190.142Y161.649
G1 X190.452Y161.902
G0 X190.452Y161.902
G1 X191.764Y163.214
G0 X191.764Y163.214
G1 Y163.229
G0 X191.764Y163.229
G1 X192.478Y162.912
G1 X193.217Y162.685
G1 X193.972Y162.549
G1 X194.736Y162.502
G1 X195.5Y162.545
G1 X196.256Y162.678
G1 X196.995Y162.901
G1 X197.711Y163.214
G0 X197.711Y163.214
G1 X197.74
G0 X197.74Y163.214
G1 X199.752Y161.202
G0 X197.731Y163.223
G0 X200.53Y166.024
G0 X188.979Y166.012
G1 X188.661Y166.729
G1 X188.433Y167.472
G1 X188.296Y168.232
G1 X188.25Y169
G1 X188.295Y169.768
G1 X188.431Y170.528
G1 X188.658Y171.271
G1 X188.976Y171.989
G0 X181.53Y166.024
G1 X181.752Y166.501
G1 X181.933Y166.989
G1 X182.073Y167.484
G1 X182.173Y167.986
G1 X182.233Y168.49
G1 X182.253Y168.996
G1 X182.234Y169.501
G1 X182.176Y170.002
G1 X182.079Y170.497
G1 X181.944Y170.983
G1 X181.772Y171.459
G1 X181.561Y171.922
G1 X181.314Y172.37
G1 X181.03Y172.799
G1 X180.71Y173.209
G1 X180.353Y173.596
G1 X179.967Y173.953
G1 X179.558Y174.274
G1 X179.129Y174.559
G1 X178.682Y174.807
G1 X178.22Y175.018
G1 X177.744Y175.192
G1 X177.258Y175.328
G1 X176.763Y175.426
G1 X176.262Y175.485
G1 X175.758Y175.505
G1 X175.252Y175.486
G1 X174.747Y175.427
G1 X174.245Y175.328
G1 X173.749Y175.189
G1 X173.261Y175.009
G1 X172.784Y174.788
G0 X172.784Y174.788
G1 X172.766
G0 X172.784Y174.77
G1 X170.752Y176.802
G0 X170.752Y176.802
G1 X170.442Y177.054
G1 X170.097Y177.235
G1 X169.731Y177.343
G1 X169.353Y177.379
G1 X168.975Y177.342
G1 X168.609Y177.233
G1 X168.265Y177.052
G1 X167.955Y176.799
G1 X167.702Y176.489
G1 X167.521Y176.145
G1 X167.412Y175.778
G1 X167.375Y175.401
G1 X167.411Y175.023
G1 X167.519Y174.656
G1 X167.7Y174.312
G1 X167.952Y174.002
G0 X167.952Y174.002
G1 X169.976Y171.978
G0 X169.976Y171.989
G1 X169.658Y171.271
G1 X169.431Y170.528
G1 X169.295Y169.768
G1 X169.25Y169
G1 X169.296Y168.232
G1 X169.433Y167.472
G1 X169.66Y166.729
G1 X169.979Y166.012
G0 X169.979Y166.012
G1 X169.962
G0 X169.962Y166.012
G1 X168.652Y164.702
G0 X168.652Y164.702
G1 X168.4Y164.391
G1 X168.22Y164.047
G1 X168.112Y163.68
G1 X168.076Y163.303
G1 X168.113Y162.925
G1 X168.222Y162.559
G1 X168.403Y162.215
G1 X168.656Y161.905
G1 X168.966Y161.652
G1 X169.31Y161.471
G1 X169.676Y161.362
G1 X170.053Y161.325
G1 X170.431Y161.361
G1 X170.797Y161.469
G1 X171.142Y161.649
G1 X171.452Y161.902
G0 X171.452Y161.902
G1 X172.764Y163.214
G0 X172.764Y163.214
G1 Y163.229
G0 X172.764Y163.229
G1 X173.478Y162.912
G1 X174.217Y162.685
G1 X174.972Y162.549
G1 X175.736Y162.502
G1 X176.5Y162.545
G1 X177.256Y162.678
G1 X177.995Y162.901
G1 X178.711Y163.214
G0 X178.711Y163.214
G1 X178.74
G0 X178.74Y163.214
G1 X180.752Y161.202
G0 X180.752Y161.202
G1 X181.063Y160.948
G1 X181.407Y160.767
G1 X181.774Y160.658
G1 X182.152Y160.622
G1 X182.53Y160.658
G1 X182.897Y160.767
G1 X183.242Y160.948
G1 X183.552Y161.202
G1 X183.806Y161.512
G1 X183.987Y161.857
G1 X184.096Y162.223
G1 X184.132Y162.602
G1 X184.096Y162.98
G1 X183.987Y163.347
G1 X183.806Y163.691
G1 X183.552Y164.002
G0 X183.552Y164.002
G0 X183.552Y164.002
G1 X181.53Y166.024
G0 X181.53Y166.024
G0 X178.731Y163.224
G0 X164.552Y164.002
G1 X164.806Y163.691
G1 X164.987Y163.347
G1 X165.096Y162.98
G1 X165.132Y162.602
G1 X165.096Y162.223
G1 X164.987Y161.857
G1 X164.806Y161.512
G1 X164.552Y161.202
G1 X164.242Y160.948
G1 X163.897Y160.767
G1 X163.53Y160.658
G1 X163.152Y160.622
G1 X162.774Y160.658
G1 X162.407Y160.767
G1 X162.063Y160.948
G1 X161.752Y161.202
G0 X161.752Y161.202
G1 X159.74Y163.214
G0 X159.74Y163.214
G1 X159.711
G0 X159.731Y163.223
G0 X164.552Y164.002
G0 X164.552Y164.002
G1 X162.53Y166.024
G0 X162.53Y166.024
G1 X162.752Y166.501
G1 X162.933Y166.989
G1 X163.073Y167.484
G1 X163.173Y167.986
G1 X163.233Y168.49
G1 X163.253Y168.996
G1 X163.234Y169.501
G1 X163.176Y170.002
G1 X163.079Y170.497
G1 X162.944Y170.983
G1 X162.772Y171.459
G1 X162.561Y171.922
G1 X162.314Y172.37
G1 X162.03Y172.799
G1 X161.71Y173.209
G1 X161.353Y173.596
G1 X160.967Y173.953
G1 X160.558Y174.274
G1 X160.129Y174.559
G1 X159.682Y174.807
G1 X159.22Y175.018
G1 X158.744Y175.192
G1 X158.258Y175.328
G1 X157.763Y175.426
G1 X157.262Y175.485
G1 X156.758Y175.505
G1 X156.252Y175.486
G1 X155.747Y175.427
G1 X155.245Y175.328
G1 X154.749Y175.189
G1 X154.261Y175.009
G1 X153.784Y174.788
G0 X153.784Y174.788
G1 X153.766
G0 X153.784Y174.77
G1 X151.752Y176.802
G0 X151.752Y176.802
G1 X151.442Y177.054
G1 X151.097Y177.235
G1 X150.731Y177.343
G1 X150.353Y177.379
G1 X149.975Y177.342
G1 X149.609Y177.233
G1 X149.265Y177.052
G1 X148.955Y176.799
G1 X148.702Y176.489
G1 X148.521Y176.145
G1 X148.412Y175.778
G1 X148.375Y175.401
G1 X148.411Y175.023
G1 X148.519Y174.656
G1 X148.7Y174.312
G1 X148.952Y174.002
G0 X148.952Y174.002
G1 X150.976Y171.978
G0 X150.976Y171.989
G1 X150.658Y171.271
G1 X150.431Y170.528
G1 X150.295Y169.768
G1 X150.25Y169
G1 X150.296Y168.232
G1 X150.433Y167.472
G1 X150.66Y166.729
G1 X150.979Y166.012
G0 X150.979Y166.012
G1 X150.962
G0 X150.962Y166.012
G1 X149.652Y164.702
G0 X149.652Y164.702
G1 X149.4Y164.391
G1 X149.22Y164.047
G1 X149.112Y163.68
G1 X149.076Y163.303
G1 X149.113Y162.925
G1 X149.222Y162.559
G1 X149.403Y162.215
G1 X149.656Y161.905
G1 X149.966Y161.652
G1 X150.31Y161.471
G1 X150.676Y161.362
G1 X151.053Y161.325
G1 X151.431Y161.361
G1 X151.797Y161.469
G1 X152.142Y161.649
G1 X152.452Y161.902
G0 X152.452Y161.902
G1 X153.764Y163.214
G0 X153.764Y163.214
G1 Y163.229
G0 X153.764Y163.229
G1 X154.478Y162.912
G1 X155.217Y162.685
G1 X155.972Y162.549
G1 X156.736Y162.502
G1 X157.5Y162.545
G1 X158.256Y162.678
G1 X158.995Y162.901
G1 X159.711Y163.214
G0 X162.53Y166.024
G0 X156.502Y157.802
G1 X158.534Y155.77
G0 X158.534Y155.788
G1 X159.011Y156.009
G1 X159.499Y156.189
G1 X159.995Y156.328
G1 X160.497Y156.427
G1 X161.002Y156.486
G1 X161.508Y156.505
G1 X162.012Y156.485
G1 X162.513Y156.426
G1 X163.008Y156.328
G1 X163.494Y156.192
G1 X163.97Y156.018
G1 X164.432Y155.807
G1 X164.879Y155.559
G1 X165.308Y155.274
G1 X165.717Y154.953
G1 X166.103Y154.596
G1 X166.46Y154.209
G1 X166.78Y153.799
G1 X167.064Y153.37
G1 X167.311Y152.922
G1 X167.522Y152.459
G1 X167.694Y151.983
G1 X167.829Y151.497
G1 X167.926Y151.002
G1 X167.984Y150.501
G1 X168.003Y149.996
G1 X167.983Y149.49
G1 X167.923Y148.986
G1 X167.823Y148.484
G1 X167.683Y147.989
G1 X167.502Y147.501
G1 X167.28Y147.024
G0 X167.28Y147.024
G0 X167.28Y147.024
G1 X169.302Y145.002
G0 X169.302Y145.002
G0 X169.302Y145.002
G1 X169.556Y144.691
G1 X169.737Y144.347
G1 X169.846Y143.98
G1 X169.882Y143.602
G1 X169.846Y143.223
G1 X169.737Y142.857
G1 X169.556Y142.512
G1 X169.302Y142.202
G1 X168.992Y141.948
G1 X168.647Y141.767
G1 X168.28Y141.658
G1 X167.902Y141.622
G1 X167.524Y141.658
G1 X167.157Y141.767
G1 X166.813Y141.948
G1 X166.502Y142.202
G0 X166.502Y142.202
G1 X164.49Y144.214
G0 X164.49Y144.214
G1 X164.461
G0 X164.481Y144.223
G0 X158.514Y144.229
G1 Y144.214
G0 X158.514Y144.214
G1 X157.202Y142.902
G0 X157.202Y142.902
G1 X156.892Y142.649
G1 X156.547Y142.469
G1 X156.181Y142.361
G1 X155.803Y142.325
G1 X155.426Y142.362
G1 X155.06Y142.471
G1 X154.716Y142.652
G1 X154.406Y142.905
G1 X154.153Y143.215
G1 X153.972Y143.559
G1 X153.863Y143.925
G1 X153.826Y144.303
G1 X153.862Y144.68
G1 X153.97Y145.047
G1 X154.15Y145.391
G1 X154.402Y145.702
G0 X154.402Y145.702
G1 X155.712Y147.012
G0 X155.712Y147.012
G1 X155.729
G0 X155.729Y147.012
G1 X155.41Y147.729
G1 X155.183Y148.472
G1 X155.046Y149.232
G1 X155Y150
G1 X155.045Y150.768
G1 X155.181Y151.528
G1 X155.408Y152.271
G1 X155.726Y152.989
G0 X155.726Y152.978
G1 X153.702Y155.002
G0 X153.702Y155.002
G1 X153.45Y155.312
G1 X153.27Y155.656
G1 X153.162Y156.023
G1 X153.126Y156.4
G1 X153.163Y156.778
G1 X153.272Y157.144
G1 X153.453Y157.488
G1 X153.706Y157.798
G1 X154.016Y158.051
G1 X154.36Y158.232
G1 X154.726Y158.341
G1 X155.103Y158.378
G1 X155.481Y158.342
G1 X155.847Y158.234
G1 X156.192Y158.054
G1 X156.502Y157.802
G0 X158.516Y155.788
G1 X158.534
G0 X148.28Y147.024
G1 X148.502Y147.501
G1 X148.683Y147.989
G1 X148.823Y148.484
G1 X148.923Y148.986
G1 X148.983Y149.49
G1 X149.003Y149.996
G1 X148.984Y150.501
G1 X148.926Y151.002
G1 X148.829Y151.497
G1 X148.694Y151.983
G1 X148.522Y152.459
G1 X148.311Y152.922
G1 X148.064Y153.37
G1 X147.78Y153.799
G1 X147.46Y154.209
G1 X147.103Y154.596
G1 X146.717Y154.953
G1 X146.308Y155.274
G1 X145.879Y155.559
G1 X145.432Y155.807
G1 X144.97Y156.018
G1 X144.494Y156.192
G1 X144.008Y156.328
G1 X143.513Y156.426
G1 X143.012Y156.485
G1 X142.508Y156.505
G1 X142.002Y156.486
G1 X141.497Y156.427
G1 X140.995Y156.328
G1 X140.499Y156.189
G1 X140.011Y156.009
G1 X139.534Y155.788
G0 X139.534Y155.788
G1 X139.516
G0 X139.534Y155.77
G1 X137.502Y157.802
G0 X137.502Y157.802
G1 X137.192Y158.054
G1 X136.847Y158.234
G1 X136.481Y158.342
G1 X136.103Y158.378
G1 X135.726Y158.341
G1 X135.36Y158.232
G1 X135.016Y158.051
G1 X134.706Y157.798
G1 X134.453Y157.488
G1 X134.272Y157.144
G1 X134.163Y156.778
G1 X134.126Y156.4
G1 X134.162Y156.023
G1 X134.27Y155.656
G1 X134.45Y155.312
G1 X134.702Y155.002
G0 X134.702Y155.002
G1 X136.726Y152.978
G0 X136.726Y152.989
G1 X136.408Y152.271
G1 X136.181Y151.528
G1 X136.045Y150.768
G1 X136Y150
G1 X136.046Y149.232
G1 X136.183Y148.472
G1 X136.41Y147.729
G1 X136.729Y147.012
G0 X136.729Y147.012
G1 X136.712
G0 X136.712Y147.012
G1 X135.402Y145.702
G0 X135.402Y145.702
G1 X135.15Y145.391
G1 X134.97Y145.047
G1 X134.862Y144.68
G1 X134.826Y144.303
G1 X134.863Y143.925
G1 X134.972Y143.559
G1 X135.153Y143.215
G1 X135.406Y142.905
G1 X135.716Y142.652
G1 X136.06Y142.471
G1 X136.426Y142.362
G1 X136.803Y142.325
G1 X137.181Y142.361
G1 X137.547Y142.469
G1 X137.892Y142.649
G1 X138.202Y142.902
G0 X138.202Y142.902
G1 X139.514Y144.214
G0 X139.514Y144.214
G1 Y144.229
G0 X139.514Y144.229
G1 X140.228Y143.912
G1 X140.967Y143.685
G1 X141.722Y143.549
G1 X142.486Y143.502
G1 X143.25Y143.545
G1 X144.006Y143.678
G1 X144.745Y143.901
G1 X145.461Y144.214
G0 X145.461Y144.214
G1 X145.49
G0 X145.49Y144.214
G1 X147.502Y142.202
G0 X147.502Y142.202
G1 X147.813Y141.948
G1 X148.157Y141.767
G1 X148.524Y141.658
G1 X148.902Y141.622
G1 X149.28Y141.658
G1 X149.647Y141.767
G1 X149.992Y141.948
G1 X150.302Y142.202
G1 X150.556Y142.512
G1 X150.737Y142.857
G1 X150.846Y143.223
G1 X150.882Y143.602
G1 X150.846Y143.98
G1 X150.737Y144.347
G1 X150.556Y144.691
G1 X150.302Y145.002
G0 X150.302Y145.002
G0 X150.302Y145.002
G1 X148.28Y147.024
G0 X148.28Y147.024
G0 X145.481Y144.224
G0 X158.514Y144.229
G1 X159.228Y143.912
G1 X159.967Y143.685
G1 X160.722Y143.549
G1 X161.486Y143.502
G1 X162.25Y143.545
G1 X163.006Y143.678
G1 X163.745Y143.901
G1 X164.461Y144.214
G0 X174.729Y147.012
G1 X174.411Y147.729
G1 X174.183Y148.472
G1 X174.046Y149.232
G1 X174Y150
G1 X174.045Y150.768
G1 X174.181Y151.528
G1 X174.408Y152.271
G1 X174.726Y152.989
G0 X202.481Y144.224
G0 X205.28Y147.024
G0 X204.002Y138.802
G1 X206.034Y136.77
G0 X206.034Y136.788
G1 X206.511Y137.009
G1 X206.999Y137.189
G1 X207.495Y137.328
G1 X207.997Y137.427
G1 X208.502Y137.486
G1 X209.008Y137.505
G1 X209.512Y137.485
G1 X210.013Y137.426
G1 X210.508Y137.328
G1 X210.994Y137.192
G1 X211.47Y137.018
G1 X211.932Y136.807
G1 X212.379Y136.559
G1 X212.808Y136.274
G1 X213.217Y135.953
G1 X213.603Y135.596
G1 X213.96Y135.209
G1 X214.28Y134.799
G1 X214.564Y134.37
G1 X214.811Y133.922
G1 X215.022Y133.459
G1 X215.194Y132.983
G1 X215.329Y132.497
G1 X215.426Y132.002
G1 X215.484Y131.501
G1 X215.503Y130.996
G1 X215.483Y130.49
G1 X215.423Y129.986
G1 X215.323Y129.484
G1 X215.183Y128.989
G1 X215.002Y128.501
G1 X214.78Y128.024
G0 X214.78Y128.024
G0 X214.78Y128.024
G1 X216.802Y126.002
G0 X216.802Y126.002
G0 X216.802Y126.002
G1 X217.056Y125.691
G1 X217.237Y125.347
G1 X217.346Y124.98
G1 X217.382Y124.602
G1 X217.346Y124.223
G1 X217.237Y123.857
G1 X217.056Y123.512
G1 X216.802Y123.202
G1 X216.492Y122.948
G1 X216.147Y122.767
G1 X215.78Y122.658
G1 X215.402Y122.622
G1 X215.024Y122.658
G1 X214.657Y122.767
G1 X214.313Y122.948
G1 X214.002Y123.202
G0 X214.002Y123.202
G1 X211.99Y125.214
G0 X211.99Y125.214
G1 X211.961
G0 X211.981Y125.223
G0 X206.014Y125.229
G1 Y125.214
G0 X206.014Y125.214
G1 X204.702Y123.902
G0 X204.702Y123.902
G1 X204.392Y123.648
G1 X204.047Y123.468
G1 X203.681Y123.359
G1 X203.303Y123.323
G1 X202.925Y123.36
G1 X202.558Y123.469
G1 X202.214Y123.65
G1 X201.904Y123.903
G1 X201.651Y124.214
G1 X201.469Y124.558
G1 X201.361Y124.924
G1 X201.324Y125.302
G1 X201.36Y125.68
G1 X201.468Y126.047
G1 X201.649Y126.391
G1 X201.902Y126.702
G0 X201.902Y126.702
G1 X203.212Y128.012
G0 X203.212Y128.012
G1 X203.229
G0 X203.229Y128.012
G1 X202.911Y128.729
G1 X202.683Y129.472
G1 X202.546Y130.232
G1 X202.5Y131
G1 X202.545Y131.768
G1 X202.681Y132.528
G1 X202.908Y133.271
G1 X203.226Y133.989
G0 X203.226Y133.978
G1 X201.202Y136.002
G0 X201.202Y136.002
G1 X200.949Y136.312
G1 X200.768Y136.657
G1 X200.66Y137.023
G1 X200.624Y137.401
G1 X200.661Y137.779
G1 X200.769Y138.145
G1 X200.951Y138.49
G1 X201.204Y138.8
G1 X201.514Y139.053
G1 X201.858Y139.235
G1 X202.225Y139.343
G1 X202.603Y139.38
G1 X202.981Y139.344
G1 X203.347Y139.235
G1 X203.692Y139.055
G1 X204.002Y138.802
G0 X206.016Y136.788
G1 X206.034
G0 X195.78Y128.024
G0 X192.981Y125.224
G0 X206.014Y125.229
G1 X206.728Y124.912
G1 X207.467Y124.685
G1 X208.222Y124.549
G1 X208.986Y124.502
G1 X209.75Y124.545
G1 X210.506Y124.678
G1 X211.245Y124.901
G1 X211.961Y125.214
G0 X213.502Y119.802
G1 X213.192Y120.055
G1 X212.847Y120.235
G1 X212.481Y120.344
G1 X212.103Y120.38
G1 X211.725Y120.343
G1 X211.358Y120.235
G1 X211.014Y120.053
G1 X210.704Y119.8
G1 X210.451Y119.49
G1 X210.269Y119.145
G1 X210.161Y118.779
G1 X210.124Y118.401
G1 X210.16Y118.023
G1 X210.268Y117.657
G1 X210.449Y117.312
G1 X210.702Y117.002
G0 X210.702Y117.002
G1 X212.726Y114.978
G0 X215.534Y117.77
G1 X213.502Y119.802
G0 X215.516Y117.788
G1 X215.534
G0 X215.534Y117.788
G1 X216.011Y118.009
G1 X216.499Y118.189
G1 X216.995Y118.328
G1 X217.497Y118.427
G1 X218.002Y118.486
G1 X218.508Y118.505
G1 X219.012Y118.485
G1 X219.513Y118.426
G1 X220.008Y118.328
G1 X220.494Y118.192
G1 X220.97Y118.018
G1 X221.432Y117.807
G1 X221.879Y117.559
G1 X222.308Y117.274
G1 X222.717Y116.953
G1 X223.103Y116.596
G1 X223.46Y116.209
G1 X223.78Y115.799
G1 X224.064Y115.37
G1 X224.311Y114.922
G1 X224.522Y114.459
G1 X224.694Y113.983
G1 X224.829Y113.497
G1 X224.926Y113.002
G1 X224.984Y112.501
G1 X225.003Y111.996
G1 X224.983Y111.49
G1 X224.923Y110.986
G1 X224.823Y110.484
G1 X224.683Y109.989
G1 X224.502Y109.501
G1 X224.28Y109.024
G0 X224.28Y109.024
G1 X226.302Y107.002
G0 X226.302Y107.002
G0 X226.302Y107.002
G1 X226.556Y106.691
G1 X226.737Y106.347
G1 X226.846Y105.98
G1 X226.882Y105.602
G1 X226.846Y105.223
G1 X226.737Y104.857
G1 X226.556Y104.512
G1 X226.302Y104.202
G1 X225.992Y103.948
G1 X225.647Y103.767
G1 X225.28Y103.658
G1 X224.902Y103.622
G1 X224.524Y103.658
G1 X224.157Y103.767
G1 X223.813Y103.948
G1 X223.502Y104.202
G0 X223.502Y104.202
G1 X221.49Y106.214
G0 X221.49Y106.214
G1 X221.461
G0 X221.481Y106.223
G0 X224.28Y109.024
G0 X215.514Y106.229
G1 Y106.214
G0 X215.514Y106.214
G1 X214.202Y104.902
G0 X214.202Y104.902
G1 X213.892Y104.648
G1 X213.547Y104.467
G1 X213.18Y104.358
G1 X212.802Y104.322
G1 X212.424Y104.358
G1 X212.057Y104.467
G1 X211.713Y104.648
G1 X211.402Y104.902
G1 X211.149Y105.212
G1 X210.967Y105.557
G1 X210.859Y105.923
G1 X210.822Y106.302
G1 X210.859Y106.68
G1 X210.967Y107.047
G1 X211.149Y107.391
G1 X211.402Y107.702
G0 X211.402Y107.702
G1 X212.712Y109.011
G0 X212.712Y109.011
G1 X212.729
G0 X212.729Y109.011
G1 X212.411Y109.729
G1 X212.183Y110.472
G1 X212.046Y111.232
G1 X212Y112
G1 X212.045Y112.768
G1 X212.181Y113.528
G1 X212.408Y114.271
G1 X212.726Y114.989
G0 X215.514Y106.229
G1 X216.228Y105.912
G1 X216.967Y105.685
G1 X217.722Y105.549
G1 X218.486Y105.502
G1 X219.25Y105.545
G1 X220.006Y105.678
G1 X220.745Y105.901
G1 X221.461Y106.214
G0 X176.052Y107.002
G1 X176.306Y106.691
G1 X176.487Y106.347
G1 X176.596Y105.98
G1 X176.632Y105.602
G1 X176.596Y105.223
G1 X176.487Y104.857
G1 X176.306Y104.512
G1 X176.052Y104.202
G1 X175.742Y103.948
G1 X175.397Y103.767
G1 X175.03Y103.658
G1 X174.652Y103.622
G1 X174.274Y103.658
G1 X173.907Y103.767
G1 X173.563Y103.948
G1 X173.252Y104.202
G0 X173.252Y104.202
G1 X160.452Y117.002
G0 X160.452Y117.002
G1 X160.2Y117.312
G1 X160.02Y117.656
G1 X159.912Y118.023
G1 X159.876Y118.4
G1 X159.913Y118.778
G1 X160.022Y119.144
G1 X160.203Y119.488
G1 X160.456Y119.798
G1 X160.766Y120.051
G1 X161.11Y120.232
G1 X161.476Y120.341
G1 X161.853Y120.378
G1 X162.231Y120.342
G1 X162.597Y120.234
G1 X162.942Y120.054
G1 X163.252Y119.802
G0 X163.252Y119.802
G1 X176.052Y107.002
G0 X176.052Y107.002
G0 X117.052Y126.002
G1 X117.306Y125.691
G1 X117.487Y125.347
G1 X117.596Y124.98
G1 X117.632Y124.602
G1 X117.596Y124.223
G1 X117.487Y123.857
G1 X117.306Y123.512
G1 X117.052Y123.202
G1 X116.742Y122.948
G1 X116.397Y122.767
G1 X116.03Y122.658
G1 X115.652Y122.622
G1 X115.274Y122.658
G1 X114.907Y122.767
G1 X114.563Y122.948
G1 X114.252Y123.202
G0 X114.252Y123.202
G1 X112.24Y125.214
G0 X112.24Y125.214
G1 X112.211
G0 X112.231Y125.223
G0 X117.052Y126.002
G0 X117.052Y126.002
G1 X115.03Y128.024
G0 X115.03Y128.024
G1 X115.252Y128.501
G1 X115.433Y128.989
G1 X115.573Y129.484
G1 X115.673Y129.986
G1 X115.733Y130.49
G1 X115.753Y130.996
G1 X115.734Y131.501
G1 X115.676Y132.002
G1 X115.579Y132.497
G1 X115.444Y132.983
G1 X115.272Y133.459
G1 X115.061Y133.922
G1 X114.814Y134.37
G1 X114.53Y134.799
G1 X114.21Y135.209
G1 X113.853Y135.596
G1 X113.467Y135.953
G1 X113.058Y136.274
G1 X112.629Y136.559
G1 X112.182Y136.807
G1 X111.72Y137.018
G1 X111.244Y137.192
G1 X110.758Y137.328
G1 X110.263Y137.426
G1 X109.762Y137.485
G1 X109.258Y137.505
G1 X108.752Y137.486
G1 X108.247Y137.427
G1 X107.745Y137.328
G1 X107.249Y137.189
G1 X106.761Y137.009
G1 X106.284Y136.788
G0 X106.284Y136.788
G1 X106.266
G0 X106.284Y136.77
G1 X104.252Y138.802
G0 X104.252Y138.802
G1 X103.942Y139.054
G1 X103.597Y139.234
G1 X103.231Y139.342
G1 X102.853Y139.378
G1 X102.476Y139.341
G1 X102.11Y139.232
G1 X101.766Y139.051
G1 X101.456Y138.798
G1 X101.203Y138.488
G1 X101.022Y138.144
G1 X100.913Y137.778
G1 X100.876Y137.4
G1 X100.912Y137.023
G1 X101.02Y136.656
G1 X101.2Y136.312
G1 X101.452Y136.002
G0 X101.452Y136.002
G1 X103.476Y133.978
G0 X103.476Y133.989
G1 X103.158Y133.271
G1 X102.931Y132.528
G1 X102.795Y131.768
G1 X102.75Y131
G1 X102.796Y130.232
G1 X102.933Y129.472
G1 X103.16Y128.729
G1 X103.479Y128.012
G0 X103.479Y128.012
G1 X103.462
G0 X103.462Y128.012
G1 X102.152Y126.702
G0 X102.152Y126.702
G1 X101.9Y126.391
G1 X101.72Y126.047
G1 X101.612Y125.68
G1 X101.576Y125.303
G1 X101.613Y124.925
G1 X101.722Y124.559
G1 X101.903Y124.215
G1 X102.156Y123.905
G1 X102.466Y123.652
G1 X102.81Y123.471
G1 X103.176Y123.362
G1 X103.553Y123.325
G1 X103.931Y123.361
G1 X104.297Y123.469
G1 X104.642Y123.649
G1 X104.952Y123.902
G0 X104.952Y123.902
G1 X106.264Y125.214
G0 X106.264Y125.214
G1 Y125.229
G0 X106.264Y125.229
G1 X106.978Y124.912
G1 X107.717Y124.685
G1 X108.472Y124.549
G1 X109.236Y124.502
G1 X110Y124.545
G1 X110.756Y124.678
G1 X111.495Y124.901
G1 X112.211Y125.214
G0 X115.03Y128.024
G0 X109.502Y142.202
G1 X109.813Y141.948
G1 X110.157Y141.767
G1 X110.524Y141.658
G1 X110.902Y141.622
G1 X111.28Y141.658
G1 X111.647Y141.767
G1 X111.992Y141.948
G1 X112.302Y142.202
G1 X112.556Y142.512
G1 X112.737Y142.857
G1 X112.846Y143.223
G1 X112.882Y143.602
G1 X112.846Y143.98
G1 X112.737Y144.347
G1 X112.556Y144.691
G1 X112.302Y145.002
G0 X112.302Y145.002
G0 X112.302Y145.002
G1 X110.28Y147.024
G0 X110.28Y147.024
G1 X110.502Y147.501
G1 X110.683Y147.989
G1 X110.823Y148.484
G1 X110.923Y148.986
G1 X110.983Y149.49
G1 X111.003Y149.996
G1 X110.984Y150.501
G1 X110.926Y151.002
G1 X110.829Y151.497
G1 X110.694Y151.983
G1 X110.522Y152.459
G1 X110.311Y152.922
G1 X110.064Y153.37
G1 X109.78Y153.799
G1 X109.46Y154.209
G1 X109.103Y154.596
G1 X108.717Y154.953
G1 X108.308Y155.274
G1 X107.879Y155.559
G1 X107.432Y155.807
G1 X106.97Y156.018
G1 X106.494Y156.192
G1 X106.008Y156.328
G1 X105.513Y156.426
G1 X105.012Y156.485
G1 X104.508Y156.505
G1 X104.002Y156.486
G1 X103.497Y156.427
G1 X102.995Y156.328
G1 X102.499Y156.189
G1 X102.011Y156.009
G1 X101.534Y155.788
G0 X101.534Y155.788
G1 X101.516
G0 X101.534Y155.77
G1 X99.502Y157.802
G0 X99.502Y157.802
G1 X99.192Y158.054
G1 X98.847Y158.234
G1 X98.481Y158.342
G1 X98.103Y158.378
G1 X97.726Y158.341
G1 X97.36Y158.232
G1 X97.016Y158.051
G1 X96.706Y157.798
G1 X96.453Y157.488
G1 X96.272Y157.144
G1 X96.163Y156.778
G1 X96.126Y156.4
G1 X96.162Y156.023
G1 X96.27Y155.656
G1 X96.45Y155.312
G1 X96.702Y155.002
G0 X96.702Y155.002
G1 X98.726Y152.978
G0 X98.726Y152.989
G1 X98.408Y152.271
G1 X98.181Y151.528
G1 X98.045Y150.768
G1 X98Y150
G1 X98.046Y149.232
G1 X98.183Y148.472
G1 X98.41Y147.729
G1 X98.729Y147.012
G0 X98.729Y147.012
G1 X98.712
G0 X98.712Y147.012
G1 X97.402Y145.702
G0 X97.402Y145.702
G1 X97.15Y145.391
G1 X96.97Y145.047
G1 X96.862Y144.68
G1 X96.826Y144.303
G1 X96.863Y143.925
G1 X96.972Y143.559
G1 X97.153Y143.215
G1 X97.406Y142.905
G1 X97.716Y142.652
G1 X98.06Y142.471
G1 X98.426Y142.362
G1 X98.803Y142.325
G1 X99.181Y142.361
G1 X99.547Y142.469
G1 X99.892Y142.649
G1 X100.202Y142.902
G0 X100.202Y142.902
G1 X101.514Y144.214
G0 X101.514Y144.214
G1 Y144.229
G0 X101.514Y144.229
G1 X102.228Y143.912
G1 X102.967Y143.685
G1 X103.722Y143.549
G1 X104.486Y143.502
G1 X105.25Y143.545
G1 X106.006Y143.678
G1 X106.745Y143.901
G1 X107.461Y144.214
G0 X107.461Y144.214
G1 X107.49
G0 X107.49Y144.214
G1 X109.502Y142.202
G0 X107.481Y144.223
G0 X110.28Y147.024
G0 X116.402Y145.702
G1 X116.15Y145.391
G1 X115.97Y145.047
G1 X115.862Y144.68
G1 X115.826Y144.303
G1 X115.863Y143.925
G1 X115.972Y143.559
G1 X116.153Y143.215
G1 X116.406Y142.905
G1 X116.716Y142.652
G1 X117.06Y142.471
G1 X117.426Y142.362
G1 X117.803Y142.325
G1 X118.181Y142.361
G1 X118.547Y142.469
G1 X118.892Y142.649
G1 X119.202Y142.902
G0 X119.202Y142.902
G1 X120.514Y144.214
G0 X120.514Y144.214
G1 Y144.229
G0 X120.514Y144.229
G1 X121.228Y143.912
G1 X121.967Y143.685
G1 X122.722Y143.549
G1 X123.486Y143.502
G1 X124.25Y143.545
G1 X125.006Y143.678
G1 X125.745Y143.901
G1 X126.461Y144.214
G0 X126.461Y144.214
G1 X126.49
G0 X126.49Y144.214
G1 X128.502Y142.202
G0 X128.502Y142.202
G1 X128.813Y141.948
G1 X129.157Y141.767
G1 X129.524Y141.658
G1 X129.902Y141.622
G1 X130.28Y141.658
G1 X130.647Y141.767
G1 X130.992Y141.948
G1 X131.302Y142.202
G1 X131.556Y142.512
G1 X131.737Y142.857
G1 X131.846Y143.223
G1 X131.882Y143.602
G1 X131.846Y143.98
G1 X131.737Y144.347
G1 X131.556Y144.691
G1 X131.302Y145.002
G0 X131.302Y145.002
G0 X131.302Y145.002
G1 X129.28Y147.024
G0 X129.28Y147.024
G1 X129.502Y147.501
G1 X129.683Y147.989
G1 X129.823Y148.484
G1 X129.923Y148.986
G1 X129.983Y149.49
G1 X130.003Y149.996
G1 X129.984Y150.501
G1 X129.926Y151.002
G1 X129.829Y151.497
G1 X129.694Y151.983
G1 X129.522Y152.459
G1 X129.311Y152.922
G1 X129.064Y153.37
G1 X128.78Y153.799
G1 X128.46Y154.209
G1 X128.103Y154.596
G1 X127.717Y154.953
G1 X127.308Y155.274
G1 X126.879Y155.559
G1 X126.432Y155.807
G1 X125.97Y156.018
G1 X125.494Y156.192
G1 X125.008Y156.328
G1 X124.513Y156.426
G1 X124.012Y156.485
G1 X123.508Y156.505
G1 X123.002Y156.486
G1 X122.497Y156.427
G1 X121.995Y156.328
G1 X121.499Y156.189
G1 X121.011Y156.009
G1 X120.534Y155.788
G0 X120.534Y155.788
G1 X120.516
G0 X120.534Y155.77
G1 X118.502Y157.802
G0 X118.502Y157.802
G1 X118.192Y158.054
G1 X117.847Y158.234
G1 X117.481Y158.342
G1 X117.103Y158.378
G1 X116.726Y158.341
G1 X116.36Y158.232
G1 X116.016Y158.051
G1 X115.706Y157.798
G1 X115.453Y157.488
G1 X115.272Y157.144
G1 X115.163Y156.778
G1 X115.126Y156.4
G1 X115.162Y156.023
G1 X115.27Y155.656
G1 X115.45Y155.312
G1 X115.702Y155.002
G0 X115.702Y155.002
G1 X117.726Y152.978
G0 X117.726Y152.989
G1 X117.408Y152.271
G1 X117.181Y151.528
G1 X117.045Y150.768
G1 X117Y150
G1 X117.046Y149.232
G1 X117.183Y148.472
G1 X117.41Y147.729
G1 X117.729Y147.012
G0 X117.729Y147.012
G1 X117.712
G0 X117.712Y147.012
G1 X116.402Y145.702
G0 X126.481Y144.224
G0 X129.28Y147.024
G0 X123.752Y161.202
G1 X124.063Y160.948
G1 X124.407Y160.767
G1 X124.774Y160.658
G1 X125.152Y160.622
G1 X125.53Y160.658
G1 X125.897Y160.767
G1 X126.242Y160.948
G1 X126.552Y161.202
G1 X126.806Y161.512
G1 X126.987Y161.857
G1 X127.096Y162.223
G1 X127.132Y162.602
G1 X127.096Y162.98
G1 X126.987Y163.347
G1 X126.806Y163.691
G1 X126.552Y164.002
G0 X126.552Y164.002
G0 X126.552Y164.002
G1 X124.53Y166.024
G0 X124.53Y166.024
G1 X124.752Y166.501
G1 X124.933Y166.989
G1 X125.073Y167.484
G1 X125.173Y167.986
G1 X125.233Y168.49
G1 X125.253Y168.996
G1 X125.234Y169.501
G1 X125.176Y170.002
G1 X125.079Y170.497
G1 X124.944Y170.983
G1 X124.772Y171.459
G1 X124.561Y171.922
G1 X124.314Y172.37
G1 X124.03Y172.799
G1 X123.71Y173.209
G1 X123.353Y173.596
G1 X122.967Y173.953
G1 X122.558Y174.274
G1 X122.129Y174.559
G1 X121.682Y174.807
G1 X121.22Y175.018
G1 X120.744Y175.192
G1 X120.258Y175.328
G1 X119.763Y175.426
G1 X119.262Y175.485
G1 X118.758Y175.505
G1 X118.252Y175.486
G1 X117.747Y175.427
G1 X117.245Y175.328
G1 X116.749Y175.189
G1 X116.261Y175.009
G1 X115.784Y174.788
G0 X115.784Y174.788
G1 X115.766
G0 X115.784Y174.77
G1 X113.752Y176.802
G0 X113.752Y176.802
G1 X113.442Y177.054
G1 X113.097Y177.235
G1 X112.731Y177.343
G1 X112.353Y177.379
G1 X111.976Y177.342
G1 X111.609Y177.233
G1 X111.265Y177.052
G1 X110.955Y176.799
G1 X110.702Y176.489
G1 X110.521Y176.145
G1 X110.412Y175.778
G1 X110.375Y175.401
G1 X110.411Y175.023
G1 X110.519Y174.656
G1 X110.7Y174.312
G1 X110.952Y174.002
G0 X110.952Y174.002
G1 X112.976Y171.978
G0 X112.976Y171.989
G1 X112.658Y171.271
G1 X112.431Y170.528
G1 X112.295Y169.768
G1 X112.25Y169
G1 X112.296Y168.232
G1 X112.433Y167.472
G1 X112.66Y166.729
G1 X112.979Y166.012
G0 X112.979Y166.012
G1 X112.962
G0 X112.962Y166.012
G1 X111.652Y164.702
G0 X111.652Y164.702
G1 X111.4Y164.391
G1 X111.22Y164.047
G1 X111.112Y163.68
G1 X111.076Y163.303
G1 X111.113Y162.925
G1 X111.222Y162.559
G1 X111.403Y162.215
G1 X111.656Y161.905
G1 X111.966Y161.652
G1 X112.31Y161.471
G1 X112.676Y161.362
G1 X113.053Y161.325
G1 X113.431Y161.361
G1 X113.797Y161.469
G1 X114.142Y161.649
G1 X114.452Y161.902
G0 X114.452Y161.902
G1 X115.764Y163.214
G0 X115.764Y163.214
G1 Y163.229
G0 X115.764Y163.229
G1 X116.478Y162.912
G1 X117.217Y162.685
G1 X117.972Y162.549
G1 X118.736Y162.502
G1 X119.5Y162.545
G1 X120.256Y162.678
G1 X120.995Y162.901
G1 X121.711Y163.214
G0 X121.711Y163.214
G1 X121.74
G0 X121.74Y163.214
G1 X123.752Y161.202
G0 X121.731Y163.223
G0 X124.53Y166.024
G0 X130.652Y164.702
G1 X130.4Y164.391
G1 X130.22Y164.047
G1 X130.112Y163.68
G1 X130.076Y163.303
G1 X130.113Y162.925
G1 X130.222Y162.559
G1 X130.403Y162.215
G1 X130.656Y161.905
G1 X130.966Y161.652
G1 X131.31Y161.471
G1 X131.676Y161.362
G1 X132.053Y161.325
G1 X132.431Y161.361
G1 X132.797Y161.469
G1 X133.142Y161.649
G1 X133.452Y161.902
G0 X133.452Y161.902
G1 X134.764Y163.214
G0 X134.764Y163.214
G1 Y163.229
G0 X134.764Y163.229
G1 X135.478Y162.912
G1 X136.217Y162.685
G1 X136.972Y162.549
G1 X137.736Y162.502
G1 X138.5Y162.545
G1 X139.256Y162.678
G1 X139.995Y162.901
G1 X140.711Y163.214
G0 X140.711Y163.214
G1 X140.74
G0 X140.74Y163.214
G1 X142.752Y161.202
G0 X142.752Y161.202
G1 X143.063Y160.948
G1 X143.407Y160.767
G1 X143.774Y160.658
G1 X144.152Y160.622
G1 X144.53Y160.658
G1 X144.897Y160.767
G1 X145.242Y160.948
G1 X145.552Y161.202
G1 X145.806Y161.512
G1 X145.987Y161.857
G1 X146.096Y162.223
G1 X146.132Y162.602
G1 X146.096Y162.98
G1 X145.987Y163.347
G1 X145.806Y163.691
G1 X145.552Y164.002
G0 X145.552Y164.002
G0 X145.552Y164.002
G1 X143.53Y166.024
G0 X143.53Y166.024
G1 X143.752Y166.501
G1 X143.933Y166.989
G1 X144.073Y167.484
G1 X144.173Y167.986
G1 X144.233Y168.49
G1 X144.253Y168.996
G1 X144.234Y169.501
G1 X144.176Y170.002
G1 X144.079Y170.497
G1 X143.944Y170.983
G1 X143.772Y171.459
G1 X143.561Y171.922
G1 X143.314Y172.37
G1 X143.03Y172.799
G1 X142.71Y173.209
G1 X142.353Y173.596
G1 X141.967Y173.953
G1 X141.558Y174.274
G1 X141.129Y174.559
G1 X140.682Y174.807
G1 X140.22Y175.018
G1 X139.744Y175.192
G1 X139.258Y175.328
G1 X138.763Y175.426
G1 X138.262Y175.485
G1 X137.758Y175.505
G1 X137.252Y175.486
G1 X136.747Y175.427
G1 X136.245Y175.328
G1 X135.749Y175.189
G1 X135.261Y175.009
G1 X134.784Y174.788
G0 X134.784Y174.788
G1 X134.766
G0 X134.784Y174.77
G1 X132.752Y176.802
G0 X132.752Y176.802
G1 X132.442Y177.054
G1 X132.097Y177.235
G1 X131.731Y177.343
G1 X131.353Y177.379
G1 X130.975Y177.342
G1 X130.609Y177.233
G1 X130.265Y177.052
G1 X129.955Y176.799
G1 X129.702Y176.489
G1 X129.521Y176.145
G1 X129.412Y175.778
G1 X129.375Y175.401
G1 X129.411Y175.023
G1 X129.519Y174.656
G1 X129.7Y174.312
G1 X129.952Y174.002
G0 X129.952Y174.002
G1 X131.976Y171.978
G0 X131.976Y171.989
G1 X131.658Y171.271
G1 X131.431Y170.528
G1 X131.295Y169.768
G1 X131.25Y169
G1 X131.296Y168.232
G1 X131.433Y167.472
G1 X131.66Y166.729
G1 X131.979Y166.012
G0 X131.979Y166.012
G1 X131.962
G0 X131.962Y166.012
G1 X130.652Y164.702
G0 X140.731Y163.224
G0 X143.53Y166.024
G0 X142.952Y180.902
G1 X142.642Y180.649
G1 X142.297Y180.469
G1 X141.931Y180.361
G1 X141.553Y180.325
G1 X141.176Y180.362
G1 X140.809Y180.47
G1 X140.466Y180.652
G1 X140.156Y180.905
G1 X139.902Y181.215
G1 X139.721Y181.559
G1 X139.612Y181.925
G1 X139.576Y182.303
G1 X139.611Y182.68
G1 X139.719Y183.047
G1 X139.9Y183.391
G1 X140.152Y183.702
G0 X140.152Y183.702
G1 X141.462Y185.012
G0 X141.462Y185.012
G1 X141.479
G0 X141.479Y185.012
G1 X141.16Y185.729
G1 X140.933Y186.472
G1 X140.796Y187.232
G1 X140.75Y188
G1 X140.795Y188.768
G1 X140.931Y189.528
G1 X141.158Y190.271
G1 X141.476Y190.989
G0 X141.476Y190.978
G1 X139.452Y193.002
G0 X139.452Y193.002
G1 X139.2Y193.312
G1 X139.019Y193.656
G1 X138.911Y194.023
G1 X138.875Y194.401
G1 X138.912Y194.778
G1 X139.021Y195.145
G1 X139.202Y195.489
G1 X139.455Y195.799
G1 X139.765Y196.052
G1 X140.109Y196.233
G1 X140.475Y196.342
G1 X140.853Y196.379
G1 X141.231Y196.343
G1 X141.597Y196.235
G1 X141.942Y196.054
G1 X142.252Y195.802
G0 X142.252Y195.802
G1 X144.284Y193.77
G0 X144.284Y193.788
G1 X144.761Y194.009
G1 X145.249Y194.189
G1 X145.745Y194.328
G1 X146.247Y194.427
G1 X146.752Y194.486
G1 X147.258Y194.505
G1 X147.762Y194.485
G1 X148.263Y194.426
G1 X148.758Y194.328
G1 X149.244Y194.192
G1 X149.72Y194.018
G1 X150.182Y193.807
G1 X150.629Y193.559
G1 X151.058Y193.274
G1 X151.467Y192.953
G1 X151.853Y192.596
G1 X152.21Y192.209
G1 X152.53Y191.799
G1 X152.814Y191.37
G1 X153.061Y190.922
G1 X153.272Y190.459
G1 X153.444Y189.983
G1 X153.579Y189.497
G1 X153.676Y189.002
G1 X153.734Y188.501
G1 X153.753Y187.996
G1 X153.733Y187.49
G1 X153.673Y186.986
G1 X153.573Y186.484
G1 X153.433Y185.989
G1 X153.252Y185.501
G1 X153.03Y185.024
G0 X153.03Y185.024
G0 X153.03Y185.024
G1 X155.052Y183.002
G0 X155.052Y183.002
G0 X155.052Y183.002
G1 X155.306Y182.691
G1 X155.487Y182.347
G1 X155.596Y181.98
G1 X155.632Y181.602
G1 X155.596Y181.223
G1 X155.487Y180.857
G1 X155.306Y180.512
G1 X155.052Y180.202
G1 X154.742Y179.948
G1 X154.397Y179.767
G1 X154.03Y179.658
G1 X153.652Y179.622
G1 X153.274Y179.658
G1 X152.907Y179.767
G1 X152.563Y179.948
G1 X152.252Y180.202
G0 X152.252Y180.202
G1 X150.24Y182.214
G0 X150.24Y182.214
G1 X150.211
G0 X150.231Y182.223
G0 X144.264Y182.229
G1 Y182.214
G0 X144.264Y182.214
G1 X142.952Y180.902
G0 X144.264Y182.229
G1 X144.978Y181.912
G1 X145.717Y181.685
G1 X146.472Y181.549
G1 X147.236Y181.502
G1 X148Y181.545
G1 X148.756Y181.678
G1 X149.495Y181.901
G1 X150.211Y182.214
G0 X159.152Y183.702
G1 X158.9Y183.391
G1 X158.719Y183.047
G1 X158.611Y182.68
G1 X158.576Y182.303
G1 X158.612Y181.925
G1 X158.721Y181.559
G1 X158.902Y181.215
G1 X159.156Y180.905
G1 X159.466Y180.652
G1 X159.809Y180.47
G1 X160.176Y180.362
G1 X160.553Y180.325
G1 X160.931Y180.361
G1 X161.297Y180.469
G1 X161.642Y180.649
G1 X161.952Y180.902
G0 X161.952Y180.902
G1 X163.264Y182.214
G0 X163.264Y182.214
G1 Y182.229
G0 X163.264Y182.229
G1 X163.978Y181.912
G1 X164.717Y181.685
G1 X165.472Y181.549
G1 X166.236Y181.502
G1 X167Y181.545
G1 X167.756Y181.678
G1 X168.495Y181.901
G1 X169.211Y182.214
G0 X169.211Y182.214
G1 X169.24
G0 X169.24Y182.214
G1 X171.252Y180.202
G0 X171.252Y180.202
G1 X171.563Y179.948
G1 X171.907Y179.767
G1 X172.274Y179.658
G1 X172.652Y179.622
G1 X173.03Y179.658
G1 X173.397Y179.767
G1 X173.742Y179.948
G1 X174.052Y180.202
G1 X174.306Y180.512
G1 X174.487Y180.857
G1 X174.596Y181.223
G1 X174.632Y181.602
G1 X174.596Y181.98
G1 X174.487Y182.347
G1 X174.306Y182.691
G1 X174.052Y183.002
G0 X174.052Y183.002
G0 X174.052Y183.002
G1 X172.03Y185.024
G0 X172.03Y185.024
G1 X172.252Y185.501
G1 X172.433Y185.989
G1 X172.573Y186.484
G1 X172.673Y186.986
G1 X172.733Y187.49
G1 X172.753Y187.996
G1 X172.734Y188.501
G1 X172.676Y189.002
G1 X172.579Y189.497
G1 X172.444Y189.983
G1 X172.272Y190.459
G1 X172.061Y190.922
G1 X171.814Y191.37
G1 X171.53Y191.799
G1 X171.21Y192.209
G1 X170.853Y192.596
G1 X170.467Y192.953
G1 X170.058Y193.274
G1 X169.629Y193.559
G1 X169.182Y193.807
G1 X168.72Y194.018
G1 X168.244Y194.192
G1 X167.758Y194.328
G1 X167.263Y194.426
G1 X166.762Y194.485
G1 X166.258Y194.505
G1 X165.752Y194.486
G1 X165.247Y194.427
G1 X164.745Y194.328
G1 X164.249Y194.189
G1 X163.761Y194.009
G1 X163.284Y193.788
G0 X163.284Y193.788
G1 X163.266
G0 X163.284Y193.77
G1 X161.252Y195.802
G0 X161.252Y195.802
G1 X160.942Y196.054
G1 X160.597Y196.235
G1 X160.231Y196.343
G1 X159.853Y196.379
G1 X159.475Y196.342
G1 X159.109Y196.233
G1 X158.765Y196.052
G1 X158.455Y195.799
G1 X158.202Y195.489
G1 X158.021Y195.145
G1 X157.912Y194.778
G1 X157.875Y194.401
G1 X157.911Y194.023
G1 X158.019Y193.656
G1 X158.2Y193.312
G1 X158.452Y193.002
G0 X158.452Y193.002
G1 X160.476Y190.978
G0 X160.476Y190.989
G1 X160.158Y190.271
G1 X159.931Y189.528
G1 X159.795Y188.768
G1 X159.75Y188
G1 X159.796Y187.232
G1 X159.933Y186.472
G1 X160.16Y185.729
G1 X160.479Y185.012
G0 X160.479Y185.012
G1 X160.462
G0 X160.462Y185.012
G1 X159.152Y183.702
G0 X169.231Y182.224
G0 X172.03Y185.024
G0 X178.152Y183.702
G1 X177.9Y183.391
G1 X177.719Y183.047
G1 X177.611Y182.68
G1 X177.576Y182.303
G1 X177.612Y181.925
G1 X177.721Y181.559
G1 X177.902Y181.215
G1 X178.156Y180.905
G1 X178.466Y180.652
G1 X178.809Y180.47
G1 X179.176Y180.362
G1 X179.553Y180.325
G1 X179.931Y180.361
G1 X180.297Y180.469
G1 X180.642Y180.649
G1 X180.952Y180.902
G0 X180.952Y180.902
G1 X182.264Y182.214
G0 X182.264Y182.214
G1 Y182.229
G0 X182.264Y182.229
G1 X182.978Y181.912
G1 X183.717Y181.685
G1 X184.472Y181.549
G1 X185.236Y181.502
G1 X186Y181.545
G1 X186.756Y181.678
G1 X187.495Y181.901
G1 X188.211Y182.214
G0 X188.211Y182.214
G1 X188.24
G0 X188.24Y182.214
G1 X190.252Y180.202
G0 X190.252Y180.202
G1 X190.563Y179.948
G1 X190.907Y179.767
G1 X191.274Y179.659
G1 X191.652Y179.622
G1 X192.03Y179.659
G1 X192.397Y179.767
G1 X192.741Y179.949
G1 X193.052Y180.202
G1 X193.305Y180.513
G1 X193.486Y180.857
G1 X193.595Y181.224
G1 X193.632Y181.602
G1 X193.595Y181.98
G1 X193.487Y182.347
G1 X193.306Y182.691
G1 X193.052Y183.002
G0 X193.052Y183.002
G0 X193.052Y183.002
G1 X191.03Y185.024
G0 X191.03Y185.024
G1 X191.252Y185.501
G1 X191.433Y185.989
G1 X191.573Y186.484
G1 X191.673Y186.986
G1 X191.733Y187.49
G1 X191.753Y187.996
G1 X191.734Y188.501
G1 X191.676Y189.002
G1 X191.579Y189.497
G1 X191.444Y189.983
G1 X191.272Y190.459
G1 X191.061Y190.922
G1 X190.814Y191.37
G1 X190.53Y191.799
G1 X190.21Y192.209
G1 X189.853Y192.596
G1 X189.467Y192.953
G1 X189.058Y193.274
G1 X188.629Y193.559
G1 X188.182Y193.807
G1 X187.72Y194.018
G1 X187.244Y194.192
G1 X186.758Y194.328
G1 X186.263Y194.426
G1 X185.762Y194.485
G1 X185.258Y194.505
G1 X184.752Y194.486
G1 X184.247Y194.427
G1 X183.745Y194.328
G1 X183.249Y194.189
G1 X182.761Y194.009
G1 X182.284Y193.788
G0 X182.284Y193.788
G1 X182.266
G0 X182.284Y193.77
G1 X180.252Y195.802
G0 X180.252Y195.802
G1 X179.942Y196.054
G1 X179.597Y196.235
G1 X179.231Y196.343
G1 X178.853Y196.379
G1 X178.475Y196.342
G1 X178.109Y196.233
G1 X177.765Y196.052
G1 X177.455Y195.799
G1 X177.202Y195.489
G1 X177.021Y195.145
G1 X176.912Y194.778
G1 X176.875Y194.401
G1 X176.911Y194.023
G1 X177.019Y193.656
G1 X177.2Y193.312
G1 X177.452Y193.002
G0 X177.452Y193.002
G1 X179.476Y190.978
G0 X179.479Y185.012
G1 X179.462
G0 X179.462Y185.012
G1 X178.152Y183.702
G0 X179.479Y185.012
G1 X179.161Y185.729
G1 X178.933Y186.472
G1 X178.796Y187.232
G1 X178.75Y188
G1 X178.795Y188.768
G1 X178.931Y189.528
G1 X179.158Y190.271
G1 X179.476Y190.989
G0 X191.03Y185.024
G0 X188.231Y182.224
G0 X144.284Y193.788
G1 X144.266
G0 X134.03Y185.024
G1 X134.252Y185.501
G1 X134.433Y185.989
G1 X134.573Y186.484
G1 X134.673Y186.986
G1 X134.733Y187.49
G1 X134.753Y187.996
G1 X134.734Y188.501
G1 X134.676Y189.002
G1 X134.579Y189.497
G1 X134.444Y189.983
G1 X134.272Y190.459
G1 X134.061Y190.922
G1 X133.814Y191.37
G1 X133.53Y191.799
G1 X133.21Y192.209
G1 X132.853Y192.596
G1 X132.467Y192.953
G1 X132.058Y193.274
G1 X131.629Y193.559
G1 X131.182Y193.807
G1 X130.72Y194.018
G1 X130.244Y194.192
G1 X129.758Y194.328
G1 X129.263Y194.426
G1 X128.762Y194.485
G1 X128.258Y194.505
G1 X127.752Y194.486
G1 X127.247Y194.427
G1 X126.745Y194.328
G1 X126.249Y194.189
G1 X125.761Y194.009
G1 X125.284Y193.788
G0 X125.284Y193.788
G1 X125.266
G0 X125.284Y193.77
G1 X123.252Y195.802
G0 X123.252Y195.802
G1 X122.942Y196.054
G1 X122.597Y196.235
G1 X122.231Y196.343
G1 X121.853Y196.379
G1 X121.476Y196.342
G1 X121.109Y196.233
G1 X120.765Y196.052
G1 X120.455Y195.799
G1 X120.202Y195.489
G1 X120.021Y195.145
G1 X119.912Y194.778
G1 X119.875Y194.401
G1 X119.911Y194.023
G1 X120.019Y193.656
G1 X120.2Y193.312
G1 X120.452Y193.002
G0 X120.452Y193.002
G1 X122.476Y190.978
G0 X122.476Y190.989
G1 X122.158Y190.271
G1 X121.931Y189.528
G1 X121.795Y188.768
G1 X121.75Y188
G1 X121.796Y187.232
G1 X121.933Y186.472
G1 X122.16Y185.729
G1 X122.479Y185.012
G0 X122.479Y185.012
G1 X122.462
G0 X122.462Y185.012
G1 X121.152Y183.702
G0 X121.152Y183.702
G1 X120.9Y183.391
G1 X120.719Y183.047
G1 X120.611Y182.68
G1 X120.576Y182.303
G1 X120.612Y181.925
G1 X120.721Y181.559
G1 X120.902Y181.215
G1 X121.156Y180.905
G1 X121.466Y180.652
G1 X121.809Y180.47
G1 X122.176Y180.362
G1 X122.553Y180.325
G1 X122.931Y180.361
G1 X123.297Y180.469
G1 X123.642Y180.649
G1 X123.952Y180.902
G0 X123.952Y180.902
G1 X125.264Y182.214
G0 X125.264Y182.214
G1 Y182.229
G0 X125.264Y182.229
G1 X125.978Y181.912
G1 X126.717Y181.685
G1 X127.472Y181.549
G1 X128.236Y181.502
G1 X129Y181.545
G1 X129.756Y181.678
G1 X130.495Y181.901
G1 X131.211Y182.214
G0 X131.211Y182.214
G1 X131.24
G0 X131.24Y182.214
G1 X133.252Y180.202
G0 X133.252Y180.202
G1 X133.563Y179.948
G1 X133.907Y179.767
G1 X134.274Y179.658
G1 X134.652Y179.622
G1 X135.03Y179.658
G1 X135.397Y179.767
G1 X135.742Y179.948
G1 X136.052Y180.202
G1 X136.306Y180.512
G1 X136.487Y180.857
G1 X136.596Y181.223
G1 X136.632Y181.602
G1 X136.596Y181.98
G1 X136.487Y182.347
G1 X136.306Y182.691
G1 X136.052Y183.002
G0 X136.052Y183.002
G0 X136.052Y183.002
G1 X134.03Y185.024
G0 X134.03Y185.024
G0 X131.231Y182.224
G0 X117.052Y183.002
G1 X117.306Y182.691
G1 X117.487Y182.347
G1 X117.596Y181.98
G1 X117.632Y181.602
G1 X117.596Y181.223
G1 X117.487Y180.857
G1 X117.306Y180.512
G1 X117.052Y180.202
G1 X116.742Y179.948
G1 X116.397Y179.767
G1 X116.03Y179.658
G1 X115.652Y179.622
G1 X115.274Y179.658
G1 X114.907Y179.767
G1 X114.563Y179.948
G1 X114.252Y180.202
G0 X114.252Y180.202
G1 X112.24Y182.214
G0 X112.24Y182.214
G1 X112.211
G0 X112.231Y182.223
G0 X117.052Y183.002
G0 X117.052Y183.002
G1 X115.03Y185.024
G0 X115.03Y185.024
G1 X115.252Y185.501
G1 X115.433Y185.989
G1 X115.573Y186.484
G1 X115.673Y186.986
G1 X115.733Y187.49
G1 X115.753Y187.996
G1 X115.734Y188.501
G1 X115.676Y189.002
G1 X115.579Y189.497
G1 X115.444Y189.983
G1 X115.272Y190.459
G1 X115.061Y190.922
G1 X114.814Y191.37
G1 X114.53Y191.799
G1 X114.21Y192.209
G1 X113.853Y192.596
G1 X113.467Y192.953
G1 X113.058Y193.274
G1 X112.629Y193.559
G1 X112.182Y193.807
G1 X111.72Y194.018
G1 X111.244Y194.192
G1 X110.758Y194.328
G1 X110.263Y194.426
G1 X109.762Y194.485
G1 X109.258Y194.505
G1 X108.752Y194.486
G1 X108.247Y194.427
G1 X107.745Y194.328
G1 X107.249Y194.189
G1 X106.761Y194.009
G1 X106.284Y193.788
G0 X106.284Y193.788
G1 X106.266
G0 X106.284Y193.77
G1 X104.252Y195.802
G0 X104.252Y195.802
G1 X103.942Y196.054
G1 X103.597Y196.235
G1 X103.231Y196.343
G1 X102.853Y196.379
G1 X102.476Y196.342
G1 X102.109Y196.233
G1 X101.765Y196.052
G1 X101.455Y195.799
G1 X101.202Y195.489
G1 X101.021Y195.145
G1 X100.912Y194.778
G1 X100.875Y194.401
G1 X100.911Y194.023
G1 X101.019Y193.656
G1 X101.2Y193.312
G1 X101.452Y193.002
G0 X101.452Y193.002
G1 X103.476Y190.978
G0 X103.476Y190.989
G1 X103.158Y190.271
G1 X102.931Y189.528
G1 X102.795Y188.768
G1 X102.75Y188
G1 X102.796Y187.232
G1 X102.933Y186.472
G1 X103.16Y185.729
G1 X103.479Y185.012
G0 X103.479Y185.012
G1 X103.462
G0 X103.462Y185.012
G1 X102.152Y183.702
G0 X102.152Y183.702
G1 X101.9Y183.391
G1 X101.719Y183.047
G1 X101.611Y182.68
G1 X101.576Y182.303
G1 X101.612Y181.925
G1 X101.721Y181.559
G1 X101.902Y181.215
G1 X102.156Y180.905
G1 X102.466Y180.652
G1 X102.809Y180.47
G1 X103.176Y180.362
G1 X103.553Y180.325
G1 X103.931Y180.361
G1 X104.297Y180.469
G1 X104.642Y180.649
G1 X104.952Y180.902
G0 X104.952Y180.902
G1 X106.264Y182.214
G0 X106.264Y182.214
G1 Y182.229
G0 X106.264Y182.229
G1 X106.978Y181.912
G1 X107.717Y181.685
G1 X108.472Y181.549
G1 X109.236Y181.502
G1 X110Y181.545
G1 X110.756Y181.678
G1 X111.495Y181.901
G1 X112.211Y182.214
G0 X115.03Y185.024
G0 X98.052Y183.002
G1 X96.03Y185.024
G0 X96.03Y185.024
G1 X96.252Y185.501
G1 X96.433Y185.989
G1 X96.573Y186.484
G1 X96.673Y186.986
G1 X96.733Y187.49
G1 X96.753Y187.996
G1 X96.734Y188.501
G1 X96.676Y189.002
G1 X96.579Y189.497
G1 X96.444Y189.983
G1 X96.272Y190.459
G1 X96.061Y190.922
G1 X95.814Y191.37
G1 X95.53Y191.799
G1 X95.21Y192.209
G1 X94.853Y192.596
G1 X94.467Y192.953
G1 X94.058Y193.274
G1 X93.629Y193.559
G1 X93.182Y193.807
G1 X92.72Y194.018
G1 X92.244Y194.192
G1 X91.758Y194.328
G1 X91.263Y194.426
G1 X90.762Y194.485
G1 X90.258Y194.505
G1 X89.752Y194.486
G1 X89.247Y194.427
G1 X88.745Y194.328
G1 X88.249Y194.189
G1 X87.761Y194.009
G1 X87.284Y193.788
G0 X87.284Y193.788
G1 X87.266
G0 X87.284Y193.77
G1 X85.252Y195.802
G0 X85.252Y195.802
G1 X84.942Y196.054
G1 X84.597Y196.235
G1 X84.231Y196.343
G1 X83.853Y196.379
G1 X83.476Y196.342
G1 X83.109Y196.233
G1 X82.765Y196.052
G1 X82.455Y195.799
G1 X82.202Y195.489
G1 X82.021Y195.145
G1 X81.912Y194.778
G1 X81.875Y194.401
G1 X81.911Y194.023
G1 X82.019Y193.656
G1 X82.2Y193.312
G1 X82.452Y193.002
G0 X82.452Y193.002
G1 X84.476Y190.978
G0 X84.476Y190.989
G1 X84.158Y190.271
G1 X83.931Y189.528
G1 X83.795Y188.768
G1 X83.75Y188
G1 X83.796Y187.232
G1 X83.933Y186.472
G1 X84.16Y185.729
G1 X84.479Y185.012
G0 X84.479Y185.012
G1 X84.462
G0 X84.462Y185.012
G1 X83.152Y183.702
G0 X83.152Y183.702
G1 X82.9Y183.391
G1 X82.719Y183.047
G1 X82.611Y182.68
G1 X82.576Y182.303
G1 X82.612Y181.925
G1 X82.721Y181.559
G1 X82.902Y181.215
G1 X83.156Y180.905
G1 X83.466Y180.652
G1 X83.809Y180.47
G1 X84.176Y180.362
G1 X84.553Y180.325
G1 X84.931Y180.361
G1 X85.297Y180.469
G1 X85.642Y180.649
G1 X85.952Y180.902
G0 X85.952Y180.902
G1 X87.264Y182.214
G0 X87.264Y182.214
G1 Y182.229
G0 X87.264Y182.229
G1 X87.978Y181.912
G1 X88.717Y181.685
G1 X89.472Y181.549
G1 X90.236Y181.502
G1 X91Y181.545
G1 X91.756Y181.678
G1 X92.495Y181.901
G1 X93.211Y182.214
G0 X93.211Y182.214
G1 X93.24
G0 X93.24Y182.214
G1 X95.252Y180.202
G0 X95.252Y180.202
G1 X95.563Y179.948
G1 X95.907Y179.767
G1 X96.274Y179.658
G1 X96.652Y179.622
G1 X97.03Y179.658
G1 X97.397Y179.767
G1 X97.742Y179.948
G1 X98.052Y180.202
G1 X98.306Y180.512
G1 X98.487Y180.857
G1 X98.596Y181.223
G1 X98.632Y181.602
G1 X98.596Y181.98
G1 X98.487Y182.347
G1 X98.306Y182.691
G1 X98.052Y183.002
G0 X98.052Y183.002
G0 X96.03Y185.024
G0 X93.231Y182.224
G0 X94.752Y176.802
G1 X94.442Y177.054
G1 X94.097Y177.235
G1 X93.731Y177.343
G1 X93.353Y177.379
G1 X92.976Y177.342
G1 X92.609Y177.233
G1 X92.265Y177.052
G1 X91.955Y176.799
G1 X91.702Y176.489
G1 X91.521Y176.145
G1 X91.412Y175.778
G1 X91.375Y175.401
G1 X91.411Y175.023
G1 X91.519Y174.656
G1 X91.7Y174.312
G1 X91.952Y174.002
G0 X91.952Y174.002
G1 X93.976Y171.978
G0 X93.976Y171.989
G1 X93.658Y171.271
G1 X93.431Y170.528
G1 X93.295Y169.768
G1 X93.25Y169
G1 X93.296Y168.232
G1 X93.433Y167.472
G1 X93.66Y166.729
G1 X93.979Y166.012
G0 X93.979Y166.012
G1 X93.962
G0 X93.962Y166.012
G1 X92.652Y164.702
G0 X92.652Y164.702
G1 X92.4Y164.391
G1 X92.22Y164.047
G1 X92.112Y163.68
G1 X92.076Y163.303
G1 X92.113Y162.925
G1 X92.222Y162.559
G1 X92.403Y162.215
G1 X92.656Y161.905
G1 X92.966Y161.652
G1 X93.31Y161.471
G1 X93.676Y161.362
G1 X94.053Y161.325
G1 X94.431Y161.361
G1 X94.797Y161.469
G1 X95.142Y161.649
G1 X95.452Y161.902
G0 X95.452Y161.902
G1 X96.764Y163.214
G0 X96.764Y163.214
G1 Y163.229
G0 X96.764Y163.229
G1 X97.478Y162.912
G1 X98.217Y162.685
G1 X98.972Y162.549
G1 X99.736Y162.502
G1 X100.5Y162.545
G1 X101.256Y162.678
G1 X101.995Y162.901
G1 X102.711Y163.214
G0 X102.711Y163.214
G1 X102.74
G0 X102.74Y163.214
G1 X104.752Y161.202
G0 X104.752Y161.202
G1 X105.063Y160.948
G1 X105.407Y160.767
G1 X105.774Y160.658
G1 X106.152Y160.622
G1 X106.53Y160.658
G1 X106.897Y160.767
G1 X107.242Y160.948
G1 X107.552Y161.202
G1 X107.806Y161.512
G1 X107.987Y161.857
G1 X108.096Y162.223
G1 X108.132Y162.602
G1 X108.096Y162.98
G1 X107.987Y163.347
G1 X107.806Y163.691
G1 X107.552Y164.002
G0 X107.552Y164.002
G0 X107.552Y164.002
G1 X105.53Y166.024
G0 X105.53Y166.024
G1 X105.752Y166.501
G1 X105.933Y166.989
G1 X106.073Y167.484
G1 X106.173Y167.986
G1 X106.233Y168.49
G1 X106.253Y168.996
G1 X106.234Y169.501
G1 X106.176Y170.002
G1 X106.079Y170.497
G1 X105.944Y170.983
G1 X105.772Y171.459
G1 X105.561Y171.922
G1 X105.314Y172.37
G1 X105.03Y172.799
G1 X104.71Y173.209
G1 X104.353Y173.596
G1 X103.967Y173.953
G1 X103.558Y174.274
G1 X103.129Y174.559
G1 X102.682Y174.807
G1 X102.22Y175.018
G1 X101.744Y175.192
G1 X101.258Y175.328
G1 X100.763Y175.426
G1 X100.262Y175.485
G1 X99.758Y175.505
G1 X99.252Y175.486
G1 X98.747Y175.427
G1 X98.245Y175.328
G1 X97.749Y175.189
G1 X97.261Y175.009
G1 X96.784Y174.788
G0 X96.784Y174.788
G1 X96.766
G0 X96.784Y174.77
G1 X94.752Y176.802
G0 X105.53Y166.024
G0 X102.731Y163.224
G0 X73.75Y167
G1 X74.052Y167.03
G1 X74.334Y167.118
G1 X74.589Y167.256
G1 X74.811Y167.439
G1 X74.994Y167.661
G1 X75.132Y167.916
G1 X75.22Y168.198
G1 X75.25Y168.5
G1 X75.22Y168.802
G1 X75.132Y169.084
G1 X74.994Y169.339
G1 X74.811Y169.561
G1 X74.589Y169.744
G1 X74.334Y169.882
G1 X74.052Y169.97
G1 X73.75Y170
G0 X73.75Y170
G1 X71.75
G0 X71.75Y170
G1 X71.448Y169.97
G1 X71.166Y169.882
G1 X70.911Y169.744
G1 X70.689Y169.561
G1 X70.506Y169.339
G1 X70.368Y169.084
G1 X70.28Y168.802
G1 X70.25Y168.5
G1 X70.28Y168.198
G1 X70.368Y167.916
G1 X70.506Y167.661
G1 X70.689Y167.439
G1 X70.911Y167.256
G1 X71.166Y167.118
G1 X71.448Y167.03
G1 X71.75Y167
G0 X71.75Y167
G1 X73.75
M9
G1 S0
M5
G90
; return to user-defined finish pos
G0 X0Y0
M2
