; LightBurn 1.7.06
; GRBL device profile, absolute coords
; Bounds: X46.75 Y100 to X253.25 Y200
G00 G17 G40 G21 G54
G90
M4
; Cut @ 600 mm/min, 80% power
M9
G0 X49.25Y100
; Layer VirtArray
G1 X48.994Y100.013S800F600
G1 X48.746Y100.051
G1 X48.507Y100.112
G1 X48.277Y100.196
G1 X47.852Y100.427
G1 X47.482Y100.732
G1 X47.177Y101.102
G1 X46.946Y101.527
G1 X46.862Y101.757
G1 X46.801Y101.996
G1 X46.763Y102.244
G1 X46.75Y102.5
G0 X46.75Y102.5
G1 Y197.5
G0 X46.75Y197.5
G1 X46.763Y197.756
G1 X46.801Y198.004
G1 X46.862Y198.243
G1 X46.946Y198.473
G1 X47.177Y198.898
G1 X47.482Y199.268
G1 X47.852Y199.573
G1 X48.277Y199.804
G1 X48.507Y199.888
G1 X48.746Y199.949
G1 X48.994Y199.987
G1 X49.25Y200
G0 X49.25Y200
G1 X253.25
G0 X253.25Y200
G1 Y195.5
G0 X253.25Y195.5
G1 X249.25Y191.5
G0 X249.25Y191.5
G1 Y180
G0 X249.25Y180
G1 X239.75Y170.5
G0 X239.75Y170.5
G1 Y157
G0 X239.75Y157
G1 X235.25Y152.5
G0 X235.25Y152.5
G1 Y143
G0 X235.25Y143
G1 X225.75Y133.5
G0 X225.75Y133.5
G1 Y123
G0 X225.75Y123
G1 X212.25Y109.5
G0 X212.25Y109.5
G1 Y100
G0 X212.25Y100
G1 X49.25
G0 X50.75Y110
G1 X50.448Y110.03
G1 X50.166Y110.118
G1 X49.911Y110.256
G1 X49.689Y110.439
G1 X49.506Y110.661
G1 X49.368Y110.916
G1 X49.28Y111.198
G1 X49.25Y111.5
G1 X49.28Y111.802
G1 X49.368Y112.084
G1 X49.506Y112.339
G1 X49.689Y112.561
G1 X49.911Y112.744
G1 X50.166Y112.882
G1 X50.448Y112.97
G1 X50.75Y113
G0 X50.75Y113
G1 X52.75
G0 X52.75Y113
G1 X53.052Y112.97
G1 X53.334Y112.882
G1 X53.589Y112.744
G1 X53.811Y112.561
G1 X53.994Y112.339
G1 X54.132Y112.084
G1 X54.22Y111.802
G1 X54.25Y111.5
G1 X54.22Y111.198
G1 X54.132Y110.916
G1 X53.994Y110.661
G1 X53.811Y110.439
G1 X53.589Y110.256
G1 X53.334Y110.118
G1 X53.052Y110.03
G1 X52.75Y110
G0 X52.75Y110
G1 X50.75
G0 X75.699Y106.999
G1 X77.721Y109.021
G0 X77.721Y109.021
G1 X77.499Y109.498
G1 X77.318Y109.985
G1 X77.178Y110.481
G1 X77.078Y110.982
G1 X77.018Y111.487
G1 X76.998Y111.993
G1 X77.018Y112.498
G1 X77.076Y112.999
G1 X77.172Y113.494
G1 X77.307Y113.98
G1 X77.48Y114.456
G1 X77.69Y114.919
G1 X77.937Y115.366
G1 X78.221Y115.796
G1 X78.542Y116.206
G1 X78.898Y116.593
G1 X79.285Y116.95
G1 X79.693Y117.271
G1 X80.122Y117.556
G1 X80.569Y117.804
G1 X81.032Y118.015
G1 X81.507Y118.189
G1 X81.994Y118.325
G1 X82.489Y118.422
G1 X82.989Y118.481
G1 X83.494Y118.502
G1 X84Y118.483
G1 X84.505Y118.424
G1 X85.006Y118.325
G1 X85.502Y118.186
G1 X85.99Y118.006
G1 X86.467Y117.785
G0 X86.467Y117.785
G1 X86.486
G0 X86.467Y117.767
G1 X88.499Y119.798
G0 X88.499Y119.798
G1 X88.81Y120.052
G1 X89.154Y120.233
G1 X89.521Y120.342
G1 X89.899Y120.378
G1 X90.277Y120.342
G1 X90.644Y120.233
G1 X90.989Y120.052
G1 X91.299Y119.798
G1 X91.553Y119.488
G1 X91.734Y119.143
G1 X91.843Y118.777
G1 X91.879Y118.398
G1 X91.843Y118.02
G1 X91.734Y117.653
G1 X91.553Y117.309
G1 X91.299Y116.998
G0 X91.299Y116.998
G1 X89.275Y114.974
G0 X89.272Y109.008
G1 X89.289
G0 X89.289Y109.008
G1 X90.599Y107.698
G0 X90.599Y107.698
G1 X90.852Y107.388
G1 X91.032Y107.044
G1 X91.14Y106.677
G1 X91.175Y106.299
G1 X91.139Y105.922
G1 X91.03Y105.556
G1 X90.849Y105.212
G1 X90.595Y104.902
G1 X90.285Y104.649
G1 X89.942Y104.468
G1 X89.576Y104.359
G1 X89.198Y104.322
G1 X88.821Y104.358
G1 X88.454Y104.466
G1 X88.11Y104.646
G1 X87.799Y104.898
G0 X87.799Y104.898
G1 X86.487Y106.21
G0 X86.487Y106.21
G1 Y106.225
G0 X86.487Y106.225
G1 X85.773Y105.909
G1 X85.035Y105.682
G1 X84.279Y105.545
G1 X83.516Y105.499
G1 X82.752Y105.542
G1 X81.996Y105.675
G1 X81.256Y105.898
G1 X80.54Y106.211
G0 X80.54Y106.211
G1 X80.512
G0 X80.512Y106.211
G1 X78.499Y104.198
G0 X78.499Y104.198
G1 X78.189Y103.945
G1 X77.844Y103.765
G1 X77.478Y103.656
G1 X77.1Y103.62
G1 X76.722Y103.657
G1 X76.355Y103.765
G1 X76.011Y103.947
G1 X75.701Y104.2
G1 X75.447Y104.51
G1 X75.266Y104.855
G1 X75.157Y105.221
G1 X75.121Y105.599
G1 X75.157Y105.977
G1 X75.265Y106.343
G1 X75.446Y106.688
G1 X75.699Y106.998
G0 X75.699Y106.998
G0 X77.721Y109.02
G0 X80.52Y106.22
G0 X89.272Y109.008
G1 X89.591Y109.726
G1 X89.819Y110.469
G1 X89.956Y111.229
G1 X90.001Y111.997
G1 X89.956Y112.765
G1 X89.82Y113.524
G1 X89.593Y114.268
G1 X89.275Y114.986
G0 X96.72Y109.024
G1 X96.498Y109.501
G1 X96.317Y109.989
G1 X96.177Y110.484
G1 X96.077Y110.986
G1 X96.017Y111.49
G1 X95.997Y111.996
G1 X96.016Y112.501
G1 X96.074Y113.002
G1 X96.171Y113.497
G1 X96.306Y113.983
G1 X96.478Y114.459
G1 X96.689Y114.922
G1 X96.936Y115.37
G1 X97.22Y115.799
G1 X97.54Y116.209
G1 X97.897Y116.596
G1 X98.283Y116.953
G1 X98.692Y117.274
G1 X99.121Y117.559
G1 X99.568Y117.807
G1 X100.03Y118.018
G1 X100.506Y118.192
G1 X100.992Y118.328
G1 X101.487Y118.426
G1 X101.988Y118.485
G1 X102.492Y118.505
G1 X102.998Y118.486
G1 X103.503Y118.427
G1 X104.005Y118.328
G1 X104.501Y118.189
G1 X104.989Y118.009
G1 X105.466Y117.788
G0 X105.466Y117.788
G1 X105.484
G0 X105.466Y117.77
G1 X107.498Y119.802
G0 X107.498Y119.802
G1 X107.808Y120.054
G1 X108.153Y120.235
G1 X108.519Y120.343
G1 X108.897Y120.379
G1 X109.274Y120.342
G1 X109.641Y120.233
G1 X109.985Y120.052
G1 X110.295Y119.799
G1 X110.548Y119.489
G1 X110.729Y119.145
G1 X110.838Y118.778
G1 X110.875Y118.401
G1 X110.839Y118.023
G1 X110.731Y117.656
G1 X110.55Y117.312
G1 X110.298Y117.002
G0 X110.298Y117.002
G1 X108.274Y114.978
G0 X108.271Y109.011
G1 X108.288
G0 X108.288Y109.011
G1 X109.598Y107.702
G0 X109.598Y107.702
G1 X109.851Y107.391
G1 X110.033Y107.047
G1 X110.141Y106.68
G1 X110.178Y106.302
G1 X110.141Y105.923
G1 X110.033Y105.557
G1 X109.851Y105.212
G1 X109.598Y104.902
G1 X109.287Y104.648
G1 X108.943Y104.467
G1 X108.576Y104.358
G1 X108.198Y104.322
G1 X107.82Y104.358
G1 X107.453Y104.467
G1 X107.108Y104.648
G1 X106.798Y104.902
G0 X106.798Y104.902
G1 X105.486Y106.214
G0 X105.486Y106.214
G1 Y106.229
G0 X105.486Y106.229
G1 X104.772Y105.912
G1 X104.033Y105.685
G1 X103.278Y105.549
G1 X102.514Y105.502
G1 X101.75Y105.545
G1 X100.994Y105.678
G1 X100.255Y105.901
G1 X99.539Y106.214
G0 X99.539Y106.214
G1 X99.51
G0 X99.51Y106.214
G1 X97.498Y104.202
G0 X97.498Y104.202
G1 X97.187Y103.948
G1 X96.843Y103.767
G1 X96.476Y103.658
G1 X96.098Y103.622
G1 X95.72Y103.658
G1 X95.353Y103.767
G1 X95.008Y103.948
G1 X94.698Y104.202
G1 X94.444Y104.512
G1 X94.263Y104.857
G1 X94.154Y105.223
G1 X94.118Y105.602
G1 X94.154Y105.98
G1 X94.263Y106.347
G1 X94.444Y106.691
G1 X94.698Y107.002
G0 X94.698Y107.002
G0 X94.698Y107.002
G1 X96.72Y109.024
G0 X96.72Y109.024
G0 X99.519Y106.224
G0 X108.271Y109.011
G1 X108.589Y109.729
G1 X108.817Y110.472
G1 X108.954Y111.232
G1 X109Y112
G1 X108.955Y112.768
G1 X108.819Y113.528
G1 X108.592Y114.271
G1 X108.274Y114.989
G0 X115.72Y109.024
G1 X115.498Y109.501
G1 X115.317Y109.989
G1 X115.177Y110.484
G1 X115.077Y110.986
G1 X115.017Y111.49
G1 X114.997Y111.996
G1 X115.016Y112.501
G1 X115.074Y113.002
G1 X115.171Y113.497
G1 X115.306Y113.983
G1 X115.478Y114.459
G1 X115.689Y114.922
G1 X115.936Y115.37
G1 X116.22Y115.799
G1 X116.54Y116.209
G1 X116.897Y116.596
G1 X117.283Y116.953
G1 X117.692Y117.274
G1 X118.121Y117.559
G1 X118.568Y117.807
G1 X119.03Y118.018
G1 X119.506Y118.192
G1 X119.992Y118.328
G1 X120.487Y118.426
G1 X120.988Y118.485
G1 X121.492Y118.505
G1 X121.998Y118.486
G1 X122.503Y118.427
G1 X123.005Y118.328
G1 X123.501Y118.189
G1 X123.989Y118.009
G1 X124.466Y117.788
G0 X124.466Y117.788
G1 X124.484
G0 X124.466Y117.77
G1 X126.498Y119.802
G0 X126.498Y119.802
G1 X126.808Y120.054
G1 X127.153Y120.235
G1 X127.519Y120.343
G1 X127.897Y120.379
G1 X128.274Y120.342
G1 X128.641Y120.233
G1 X128.985Y120.052
G1 X129.295Y119.799
G1 X129.548Y119.489
G1 X129.729Y119.145
G1 X129.838Y118.778
G1 X129.875Y118.401
G1 X129.839Y118.023
G1 X129.731Y117.656
G1 X129.55Y117.312
G1 X129.298Y117.002
G0 X129.298Y117.002
G1 X127.274Y114.978
G0 X127.271Y109.011
G1 X127.288
G0 X127.288Y109.011
G1 X128.598Y107.702
G0 X128.598Y107.702
G1 X128.851Y107.391
G1 X129.033Y107.047
G1 X129.141Y106.68
G1 X129.178Y106.302
G1 X129.141Y105.923
G1 X129.033Y105.557
G1 X128.851Y105.212
G1 X128.598Y104.902
G1 X128.287Y104.648
G1 X127.943Y104.467
G1 X127.576Y104.358
G1 X127.198Y104.322
G1 X126.82Y104.358
G1 X126.453Y104.467
G1 X126.108Y104.648
G1 X125.798Y104.902
G0 X125.798Y104.902
G1 X124.486Y106.214
G0 X124.486Y106.214
G1 Y106.229
G0 X124.486Y106.229
G1 X123.772Y105.912
G1 X123.033Y105.685
G1 X122.278Y105.549
G1 X121.514Y105.502
G1 X120.75Y105.545
G1 X119.994Y105.678
G1 X119.255Y105.901
G1 X118.539Y106.214
G0 X118.539Y106.214
G1 X118.51
G0 X118.51Y106.214
G1 X116.498Y104.202
G0 X116.498Y104.202
G1 X116.187Y103.948
G1 X115.843Y103.767
G1 X115.476Y103.658
G1 X115.098Y103.622
G1 X114.72Y103.658
G1 X114.353Y103.767
G1 X114.008Y103.948
G1 X113.698Y104.202
G1 X113.444Y104.512
G1 X113.263Y104.857
G1 X113.154Y105.223
G1 X113.118Y105.602
G1 X113.154Y105.98
G1 X113.263Y106.347
G1 X113.444Y106.691
G1 X113.698Y107.002
G0 X113.698Y107.002
G0 X113.698Y107.002
G1 X115.72Y109.024
G0 X115.72Y109.024
G0 X118.519Y106.224
G0 X127.271Y109.011
G1 X127.589Y109.729
G1 X127.817Y110.472
G1 X127.954Y111.232
G1 X128Y112
G1 X127.955Y112.768
G1 X127.819Y113.528
G1 X127.592Y114.271
G1 X127.274Y114.989
G0 X134.72Y109.024
G1 X134.498Y109.501
G1 X134.317Y109.989
G1 X134.177Y110.484
G1 X134.077Y110.986
G1 X134.017Y111.49
G1 X133.997Y111.996
G1 X134.016Y112.501
G1 X134.074Y113.002
G1 X134.171Y113.497
G1 X134.306Y113.983
G1 X134.478Y114.459
G1 X134.689Y114.922
G1 X134.936Y115.37
G1 X135.22Y115.799
G1 X135.54Y116.209
G1 X135.897Y116.596
G1 X136.283Y116.953
G1 X136.692Y117.274
G1 X137.121Y117.559
G1 X137.568Y117.807
G1 X138.03Y118.018
G1 X138.506Y118.192
G1 X138.992Y118.328
G1 X139.487Y118.426
G1 X139.988Y118.485
G1 X140.492Y118.505
G1 X140.998Y118.486
G1 X141.503Y118.427
G1 X142.005Y118.328
G1 X142.501Y118.189
G1 X142.989Y118.009
G1 X143.466Y117.788
G0 X143.466Y117.788
G1 X143.484
G0 X143.466Y117.77
G1 X145.498Y119.802
G0 X145.498Y119.802
G1 X145.808Y120.055
G1 X146.153Y120.235
G1 X146.519Y120.344
G1 X146.897Y120.38
G1 X147.275Y120.343
G1 X147.642Y120.235
G1 X147.986Y120.053
G1 X148.296Y119.8
G1 X148.549Y119.49
G1 X148.731Y119.145
G1 X148.839Y118.779
G1 X148.876Y118.401
G1 X148.84Y118.023
G1 X148.732Y117.657
G1 X148.551Y117.312
G1 X148.298Y117.002
G0 X148.298Y117.002
G1 X146.274Y114.978
G0 X146.271Y109.011
G1 X146.288
G0 X146.288Y109.011
G1 X147.598Y107.702
G0 X147.598Y107.702
G1 X147.851Y107.391
G1 X148.033Y107.047
G1 X148.141Y106.68
G1 X148.178Y106.302
G1 X148.141Y105.923
G1 X148.033Y105.557
G1 X147.851Y105.212
G1 X147.598Y104.902
G1 X147.287Y104.648
G1 X146.943Y104.467
G1 X146.576Y104.358
G1 X146.198Y104.322
G1 X145.82Y104.358
G1 X145.453Y104.467
G1 X145.108Y104.648
G1 X144.798Y104.902
G0 X144.798Y104.902
G1 X143.486Y106.214
G0 X143.486Y106.214
G1 Y106.229
G0 X143.486Y106.229
G1 X142.772Y105.912
G1 X142.033Y105.685
G1 X141.278Y105.549
G1 X140.514Y105.502
G1 X139.75Y105.545
G1 X138.994Y105.678
G1 X138.255Y105.901
G1 X137.539Y106.214
G0 X137.539Y106.214
G1 X137.51
G0 X137.51Y106.214
G1 X135.498Y104.202
G0 X135.498Y104.202
G1 X135.187Y103.948
G1 X134.843Y103.767
G1 X134.476Y103.658
G1 X134.098Y103.622
G1 X133.72Y103.658
G1 X133.353Y103.767
G1 X133.008Y103.948
G1 X132.698Y104.202
G1 X132.444Y104.512
G1 X132.263Y104.857
G1 X132.154Y105.223
G1 X132.118Y105.602
G1 X132.154Y105.98
G1 X132.263Y106.347
G1 X132.444Y106.691
G1 X132.698Y107.002
G0 X132.698Y107.002
G0 X132.698Y107.002
G1 X134.72Y109.024
G0 X134.72Y109.024
G0 X137.519Y106.224
G0 X146.271Y109.011
G1 X146.589Y109.729
G1 X146.817Y110.472
G1 X146.954Y111.232
G1 X147Y112
G1 X146.955Y112.768
G1 X146.819Y113.528
G1 X146.592Y114.271
G1 X146.274Y114.989
G0 X144.798Y123.902
G1 X145.108Y123.648
G1 X145.453Y123.468
G1 X145.819Y123.359
G1 X146.197Y123.323
G1 X146.575Y123.36
G1 X146.942Y123.469
G1 X147.286Y123.65
G1 X147.596Y123.903
G1 X147.849Y124.214
G1 X148.031Y124.558
G1 X148.139Y124.924
G1 X148.176Y125.302
G1 X148.14Y125.68
G1 X148.032Y126.047
G1 X147.851Y126.391
G1 X147.598Y126.702
G0 X147.598Y126.702
G1 X146.288Y128.012
G0 X146.288Y128.012
G1 X146.271
G0 X146.271Y128.012
G1 X146.589Y128.729
G1 X146.817Y129.472
G1 X146.954Y130.232
G1 X147Y131
G1 X146.955Y131.768
G1 X146.819Y132.528
G1 X146.592Y133.271
G1 X146.274Y133.989
G0 X146.274Y133.978
G1 X148.298Y136.002
G0 X148.298Y136.002
G1 X148.551Y136.312
G1 X148.732Y136.657
G1 X148.84Y137.023
G1 X148.876Y137.401
G1 X148.839Y137.779
G1 X148.731Y138.145
G1 X148.549Y138.49
G1 X148.296Y138.8
G1 X147.986Y139.053
G1 X147.642Y139.235
G1 X147.275Y139.343
G1 X146.897Y139.38
G1 X146.519Y139.344
G1 X146.153Y139.235
G1 X145.808Y139.055
G1 X145.498Y138.802
G0 X145.498Y138.802
G1 X143.466Y136.77
G0 X143.466Y136.788
G1 X142.989Y137.009
G1 X142.501Y137.189
G1 X142.005Y137.328
G1 X141.503Y137.427
G1 X140.998Y137.486
G1 X140.492Y137.505
G1 X139.988Y137.485
G1 X139.487Y137.426
G1 X138.992Y137.328
G1 X138.506Y137.192
G1 X138.03Y137.018
G1 X137.568Y136.807
G1 X137.121Y136.559
G1 X136.692Y136.274
G1 X136.283Y135.953
G1 X135.897Y135.596
G1 X135.54Y135.209
G1 X135.22Y134.799
G1 X134.936Y134.37
G1 X134.689Y133.922
G1 X134.478Y133.459
G1 X134.306Y132.983
G1 X134.171Y132.497
G1 X134.074Y132.002
G1 X134.016Y131.501
G1 X133.997Y130.996
G1 X134.017Y130.49
G1 X134.077Y129.986
G1 X134.177Y129.484
G1 X134.317Y128.989
G1 X134.498Y128.501
G1 X134.72Y128.024
G0 X134.72Y128.024
G0 X134.72Y128.024
G1 X132.698Y126.002
G0 X132.698Y126.002
G0 X132.698Y126.002
G1 X132.444Y125.691
G1 X132.263Y125.347
G1 X132.154Y124.98
G1 X132.118Y124.602
G1 X132.154Y124.223
G1 X132.263Y123.857
G1 X132.444Y123.512
G1 X132.698Y123.202
G1 X133.008Y122.948
G1 X133.353Y122.767
G1 X133.72Y122.658
G1 X134.098Y122.622
G1 X134.476Y122.658
G1 X134.843Y122.767
G1 X135.187Y122.948
G1 X135.498Y123.202
G0 X135.498Y123.202
G1 X137.51Y125.214
G0 X137.51Y125.214
G1 X137.539
G0 X137.519Y125.223
G0 X143.486Y125.229
G1 Y125.214
G0 X143.486Y125.214
G1 X144.798Y123.902
G0 X143.486Y125.229
G1 X142.772Y124.912
G1 X142.033Y124.685
G1 X141.278Y124.549
G1 X140.514Y124.502
G1 X139.75Y124.545
G1 X138.994Y124.678
G1 X138.255Y124.901
G1 X137.539Y125.214
G0 X123.848Y126.702
G1 X124.101Y126.391
G1 X124.282Y126.047
G1 X124.39Y125.68
G1 X124.426Y125.302
G1 X124.389Y124.924
G1 X124.281Y124.558
G1 X124.099Y124.214
G1 X123.846Y123.903
G1 X123.536Y123.65
G1 X123.192Y123.469
G1 X122.825Y123.36
G1 X122.447Y123.323
G1 X122.069Y123.359
G1 X121.703Y123.468
G1 X121.358Y123.648
G1 X121.048Y123.902
G0 X121.048Y123.902
G1 X119.736Y125.214
G0 X119.736Y125.214
G1 Y125.229
G0 X119.736Y125.229
G1 X119.022Y124.912
G1 X118.283Y124.685
G1 X117.528Y124.549
G1 X116.764Y124.502
G1 X116Y124.545
G1 X115.244Y124.678
G1 X114.505Y124.901
G1 X113.789Y125.214
G0 X113.789Y125.214
G1 X113.76
G0 X113.76Y125.214
G1 X111.748Y123.202
G0 X111.748Y123.202
G1 X111.437Y122.948
G1 X111.093Y122.767
G1 X110.726Y122.658
G1 X110.348Y122.622
G1 X109.97Y122.658
G1 X109.603Y122.767
G1 X109.258Y122.948
G1 X108.948Y123.202
G1 X108.694Y123.512
G1 X108.513Y123.857
G1 X108.404Y124.223
G1 X108.368Y124.602
G1 X108.404Y124.98
G1 X108.513Y125.347
G1 X108.694Y125.691
G1 X108.948Y126.002
G0 X108.948Y126.002
G0 X108.948Y126.002
G1 X110.97Y128.024
G0 X110.97Y128.024
G1 X110.748Y128.501
G1 X110.567Y128.989
G1 X110.427Y129.484
G1 X110.327Y129.986
G1 X110.267Y130.49
G1 X110.247Y130.996
G1 X110.266Y131.501
G1 X110.324Y132.002
G1 X110.421Y132.497
G1 X110.556Y132.983
G1 X110.728Y133.459
G1 X110.939Y133.922
G1 X111.186Y134.37
G1 X111.47Y134.799
G1 X111.79Y135.209
G1 X112.147Y135.596
G1 X112.533Y135.953
G1 X112.942Y136.274
G1 X113.371Y136.559
G1 X113.818Y136.807
G1 X114.28Y137.018
G1 X114.756Y137.192
G1 X115.242Y137.328
G1 X115.737Y137.426
G1 X116.238Y137.485
G1 X116.742Y137.505
G1 X117.248Y137.486
G1 X117.753Y137.427
G1 X118.255Y137.328
G1 X118.751Y137.189
G1 X119.239Y137.009
G1 X119.716Y136.788
G0 X119.716Y136.788
G1 X119.734
G0 X119.716Y136.77
G1 X121.748Y138.802
G0 X121.748Y138.802
G1 X122.058Y139.054
G1 X122.403Y139.235
G1 X122.769Y139.343
G1 X123.147Y139.379
G1 X123.524Y139.342
G1 X123.891Y139.233
G1 X124.235Y139.052
G1 X124.545Y138.799
G1 X124.798Y138.489
G1 X124.979Y138.145
G1 X125.088Y137.778
G1 X125.125Y137.401
G1 X125.089Y137.023
G1 X124.981Y136.656
G1 X124.8Y136.312
G1 X124.548Y136.002
G0 X124.548Y136.002
G1 X122.524Y133.978
G0 X122.521Y128.012
G1 X122.538
G0 X122.538Y128.012
G1 X123.848Y126.702
G0 X122.521Y128.012
G1 X122.839Y128.729
G1 X123.067Y129.472
G1 X123.204Y130.232
G1 X123.25Y131
G1 X123.205Y131.768
G1 X123.069Y132.528
G1 X122.842Y133.271
G1 X122.524Y133.989
G0 X125.998Y142.202
G1 X125.687Y141.948
G1 X125.343Y141.767
G1 X124.976Y141.658
G1 X124.598Y141.622
G1 X124.22Y141.658
G1 X123.853Y141.767
G1 X123.508Y141.948
G1 X123.198Y142.202
G1 X122.944Y142.512
G1 X122.763Y142.857
G1 X122.654Y143.223
G1 X122.618Y143.602
G1 X122.654Y143.98
G1 X122.763Y144.347
G1 X122.944Y144.691
G1 X123.198Y145.002
G0 X123.198Y145.002
G0 X123.198Y145.002
G1 X125.22Y147.024
G0 X125.22Y147.024
G1 X124.998Y147.501
G1 X124.817Y147.989
G1 X124.677Y148.484
G1 X124.577Y148.986
G1 X124.517Y149.49
G1 X124.497Y149.996
G1 X124.516Y150.501
G1 X124.574Y151.002
G1 X124.671Y151.497
G1 X124.806Y151.983
G1 X124.978Y152.459
G1 X125.189Y152.922
G1 X125.436Y153.37
G1 X125.72Y153.799
G1 X126.04Y154.209
G1 X126.397Y154.596
G1 X126.783Y154.953
G1 X127.192Y155.274
G1 X127.621Y155.559
G1 X128.068Y155.807
G1 X128.53Y156.018
G1 X129.006Y156.192
G1 X129.492Y156.328
G1 X129.987Y156.426
G1 X130.488Y156.485
G1 X130.992Y156.505
G1 X131.498Y156.486
G1 X132.003Y156.427
G1 X132.505Y156.328
G1 X133.001Y156.189
G1 X133.489Y156.009
G1 X133.966Y155.788
G0 X133.966Y155.788
G1 X133.984
G0 X133.966Y155.77
G1 X135.998Y157.802
G0 X135.998Y157.802
G1 X136.308Y158.055
G1 X136.653Y158.235
G1 X137.019Y158.344
G1 X137.397Y158.38
G1 X137.775Y158.343
G1 X138.142Y158.235
G1 X138.486Y158.053
G1 X138.796Y157.8
G1 X139.049Y157.49
G1 X139.231Y157.145
G1 X139.339Y156.779
G1 X139.376Y156.401
G1 X139.34Y156.023
G1 X139.232Y155.657
G1 X139.051Y155.312
G1 X138.798Y155.002
G0 X138.798Y155.002
G1 X136.774Y152.978
G0 X136.771Y147.012
G1 X136.788
G0 X136.788Y147.012
G1 X138.098Y145.702
G0 X138.098Y145.702
G1 X138.351Y145.391
G1 X138.532Y145.047
G1 X138.64Y144.68
G1 X138.676Y144.302
G1 X138.639Y143.924
G1 X138.531Y143.558
G1 X138.349Y143.214
G1 X138.096Y142.903
G1 X137.786Y142.65
G1 X137.442Y142.469
G1 X137.075Y142.36
G1 X136.697Y142.323
G1 X136.319Y142.359
G1 X135.953Y142.468
G1 X135.608Y142.648
G1 X135.298Y142.902
G0 X135.298Y142.902
G1 X133.986Y144.214
G0 X133.986Y144.214
G1 Y144.229
G0 X133.986Y144.229
G1 X133.272Y143.912
G1 X132.533Y143.685
G1 X131.778Y143.549
G1 X131.014Y143.502
G1 X130.25Y143.545
G1 X129.494Y143.678
G1 X128.755Y143.901
G1 X128.039Y144.214
G0 X128.039Y144.214
G1 X128.01
G0 X128.01Y144.214
G1 X125.998Y142.202
G0 X128.019Y144.223
G0 X125.22Y147.024
G0 X119.098Y145.702
G1 X119.351Y145.391
G1 X119.532Y145.047
G1 X119.64Y144.68
G1 X119.676Y144.302
G1 X119.639Y143.924
G1 X119.531Y143.558
G1 X119.349Y143.214
G1 X119.096Y142.903
G1 X118.786Y142.65
G1 X118.442Y142.469
G1 X118.075Y142.36
G1 X117.697Y142.323
G1 X117.319Y142.359
G1 X116.953Y142.468
G1 X116.608Y142.648
G1 X116.298Y142.902
G0 X116.298Y142.902
G1 X114.986Y144.214
G0 X114.986Y144.214
G1 Y144.229
G0 X114.986Y144.229
G1 X114.272Y143.912
G1 X113.533Y143.685
G1 X112.778Y143.549
G1 X112.014Y143.502
G1 X111.25Y143.545
G1 X110.494Y143.678
G1 X109.755Y143.901
G1 X109.039Y144.214
G0 X109.039Y144.214
G1 X109.01
G0 X109.01Y144.214
G1 X106.998Y142.202
G0 X106.998Y142.202
G1 X106.687Y141.948
G1 X106.343Y141.767
G1 X105.976Y141.658
G1 X105.598Y141.622
G1 X105.22Y141.658
G1 X104.853Y141.767
G1 X104.508Y141.948
G1 X104.198Y142.202
G1 X103.944Y142.512
G1 X103.763Y142.857
G1 X103.654Y143.223
G1 X103.618Y143.602
G1 X103.654Y143.98
G1 X103.763Y144.347
G1 X103.944Y144.691
G1 X104.198Y145.002
G0 X104.198Y145.002
G0 X104.198Y145.002
G1 X106.22Y147.024
G0 X106.22Y147.024
G1 X105.998Y147.501
G1 X105.817Y147.989
G1 X105.677Y148.484
G1 X105.577Y148.986
G1 X105.517Y149.49
G1 X105.497Y149.996
G1 X105.516Y150.501
G1 X105.574Y151.002
G1 X105.671Y151.497
G1 X105.806Y151.983
G1 X105.978Y152.459
G1 X106.189Y152.922
G1 X106.436Y153.37
G1 X106.72Y153.799
G1 X107.04Y154.209
G1 X107.397Y154.596
G1 X107.783Y154.953
G1 X108.192Y155.274
G1 X108.621Y155.559
G1 X109.068Y155.807
G1 X109.53Y156.018
G1 X110.006Y156.192
G1 X110.492Y156.328
G1 X110.987Y156.426
G1 X111.488Y156.485
G1 X111.992Y156.505
G1 X112.498Y156.486
G1 X113.003Y156.427
G1 X113.505Y156.328
G1 X114.001Y156.189
G1 X114.489Y156.009
G1 X114.966Y155.788
G0 X114.966Y155.788
G1 X114.984
G0 X114.966Y155.77
G1 X116.998Y157.802
G0 X116.998Y157.802
G1 X117.308Y158.054
G1 X117.653Y158.235
G1 X118.019Y158.343
G1 X118.397Y158.379
G1 X118.774Y158.342
G1 X119.141Y158.233
G1 X119.485Y158.052
G1 X119.795Y157.799
G1 X120.048Y157.489
G1 X120.229Y157.145
G1 X120.338Y156.778
G1 X120.375Y156.401
G1 X120.339Y156.023
G1 X120.231Y155.656
G1 X120.05Y155.312
G1 X119.798Y155.002
G0 X119.798Y155.002
G1 X117.774Y152.978
G0 X117.771Y147.012
G1 X117.788
G0 X117.788Y147.012
G1 X119.098Y145.702
G0 X117.771Y147.012
G1 X118.089Y147.729
G1 X118.317Y148.472
G1 X118.454Y149.232
G1 X118.5Y150
G1 X118.455Y150.768
G1 X118.319Y151.528
G1 X118.092Y152.271
G1 X117.774Y152.989
G0 X111.748Y161.202
G1 X111.437Y160.948
G1 X111.093Y160.767
G1 X110.726Y160.658
G1 X110.348Y160.622
G1 X109.97Y160.658
G1 X109.603Y160.767
G1 X109.258Y160.948
G1 X108.948Y161.202
G1 X108.694Y161.512
G1 X108.513Y161.857
G1 X108.404Y162.223
G1 X108.368Y162.602
G1 X108.404Y162.98
G1 X108.513Y163.347
G1 X108.694Y163.691
G1 X108.948Y164.002
G0 X108.948Y164.002
G0 X108.948Y164.002
G1 X110.97Y166.024
G0 X110.97Y166.024
G1 X110.748Y166.501
G1 X110.567Y166.989
G1 X110.427Y167.484
G1 X110.327Y167.986
G1 X110.267Y168.49
G1 X110.247Y168.996
G1 X110.266Y169.501
G1 X110.324Y170.002
G1 X110.421Y170.497
G1 X110.556Y170.983
G1 X110.728Y171.459
G1 X110.939Y171.922
G1 X111.186Y172.37
G1 X111.47Y172.799
G1 X111.79Y173.209
G1 X112.147Y173.596
G1 X112.533Y173.953
G1 X112.942Y174.274
G1 X113.371Y174.559
G1 X113.818Y174.807
G1 X114.28Y175.018
G1 X114.756Y175.192
G1 X115.242Y175.328
G1 X115.737Y175.426
G1 X116.238Y175.485
G1 X116.742Y175.505
G1 X117.248Y175.486
G1 X117.753Y175.427
G1 X118.255Y175.328
G1 X118.751Y175.189
G1 X119.239Y175.009
G1 X119.716Y174.788
G0 X119.716Y174.788
G1 X119.734
G0 X119.716Y174.77
G1 X121.748Y176.802
G0 X121.748Y176.802
G1 X122.058Y177.055
G1 X122.403Y177.235
G1 X122.769Y177.344
G1 X123.147Y177.38
G1 X123.525Y177.343
G1 X123.892Y177.235
G1 X124.236Y177.053
G1 X124.546Y176.8
G1 X124.799Y176.49
G1 X124.981Y176.145
G1 X125.089Y175.779
G1 X125.126Y175.401
G1 X125.09Y175.023
G1 X124.982Y174.657
G1 X124.801Y174.312
G1 X124.548Y174.002
G0 X124.548Y174.002
G1 X122.524Y171.978
G0 X122.521Y166.012
G1 X122.538
G0 X122.538Y166.012
G1 X123.848Y164.702
G0 X123.848Y164.702
G1 X124.101Y164.391
G1 X124.282Y164.047
G1 X124.39Y163.68
G1 X124.426Y163.302
G1 X124.389Y162.924
G1 X124.281Y162.558
G1 X124.099Y162.214
G1 X123.846Y161.903
G1 X123.536Y161.65
G1 X123.192Y161.469
G1 X122.825Y161.36
G1 X122.447Y161.323
G1 X122.069Y161.359
G1 X121.703Y161.468
G1 X121.358Y161.648
G1 X121.048Y161.902
G0 X121.048Y161.902
G1 X119.736Y163.214
G0 X119.736Y163.214
G1 Y163.229
G0 X119.736Y163.229
G1 X119.022Y162.912
G1 X118.283Y162.685
G1 X117.528Y162.549
G1 X116.764Y162.502
G1 X116Y162.545
G1 X115.244Y162.678
G1 X114.505Y162.901
G1 X113.789Y163.214
G0 X113.789Y163.214
G1 X113.76
G0 X113.76Y163.214
G1 X111.748Y161.202
G0 X113.769Y163.223
G0 X110.97Y166.024
G0 X104.848Y164.702
G1 X105.101Y164.391
G1 X105.282Y164.047
G1 X105.39Y163.68
G1 X105.426Y163.302
G1 X105.389Y162.924
G1 X105.281Y162.558
G1 X105.099Y162.214
G1 X104.846Y161.903
G1 X104.536Y161.65
G1 X104.192Y161.469
G1 X103.825Y161.36
G1 X103.447Y161.323
G1 X103.069Y161.359
G1 X102.703Y161.468
G1 X102.358Y161.648
G1 X102.048Y161.902
G0 X102.048Y161.902
G1 X100.736Y163.214
G0 X100.736Y163.214
G1 Y163.229
G0 X100.736Y163.229
G1 X100.022Y162.912
G1 X99.283Y162.685
G1 X98.528Y162.549
G1 X97.764Y162.502
G1 X97Y162.545
G1 X96.244Y162.678
G1 X95.505Y162.901
G1 X94.789Y163.214
G0 X94.789Y163.214
G1 X94.76
G0 X94.76Y163.214
G1 X92.748Y161.202
G0 X92.748Y161.202
G1 X92.437Y160.948
G1 X92.093Y160.767
G1 X91.726Y160.658
G1 X91.348Y160.622
G1 X90.97Y160.658
G1 X90.603Y160.767
G1 X90.258Y160.948
G1 X89.948Y161.202
G1 X89.694Y161.512
G1 X89.513Y161.857
G1 X89.404Y162.223
G1 X89.368Y162.602
G1 X89.404Y162.98
G1 X89.513Y163.347
G1 X89.694Y163.691
G1 X89.948Y164.002
G0 X89.948Y164.002
G0 X89.948Y164.002
G1 X91.97Y166.024
G0 X91.97Y166.024
G1 X91.748Y166.501
G1 X91.567Y166.989
G1 X91.427Y167.484
G1 X91.327Y167.986
G1 X91.267Y168.49
G1 X91.247Y168.996
G1 X91.266Y169.501
G1 X91.324Y170.002
G1 X91.421Y170.497
G1 X91.556Y170.983
G1 X91.728Y171.459
G1 X91.939Y171.922
G1 X92.186Y172.37
G1 X92.47Y172.799
G1 X92.79Y173.209
G1 X93.147Y173.596
G1 X93.533Y173.953
G1 X93.942Y174.274
G1 X94.371Y174.559
G1 X94.818Y174.807
G1 X95.28Y175.018
G1 X95.756Y175.192
G1 X96.242Y175.328
G1 X96.737Y175.426
G1 X97.238Y175.485
G1 X97.742Y175.505
G1 X98.248Y175.486
G1 X98.753Y175.427
G1 X99.255Y175.328
G1 X99.751Y175.189
G1 X100.239Y175.009
G1 X100.716Y174.788
G0 X100.716Y174.788
G1 X100.734
G0 X100.716Y174.77
G1 X102.748Y176.802
G0 X102.748Y176.802
G1 X103.058Y177.055
G1 X103.403Y177.235
G1 X103.769Y177.344
G1 X104.147Y177.38
G1 X104.525Y177.343
G1 X104.892Y177.235
G1 X105.236Y177.053
G1 X105.546Y176.8
G1 X105.799Y176.49
G1 X105.981Y176.145
G1 X106.089Y175.779
G1 X106.126Y175.401
G1 X106.09Y175.023
G1 X105.982Y174.657
G1 X105.801Y174.312
G1 X105.548Y174.002
G0 X105.548Y174.002
G1 X103.524Y171.978
G0 X103.521Y166.012
G1 X103.538
G0 X103.538Y166.012
G1 X104.848Y164.702
G0 X103.521Y166.012
G1 X103.839Y166.729
G1 X104.067Y167.472
G1 X104.204Y168.232
G1 X104.25Y169
G1 X104.205Y169.768
G1 X104.069Y170.528
G1 X103.842Y171.271
G1 X103.524Y171.989
G0 X102.248Y180.202
G1 X101.937Y179.948
G1 X101.593Y179.767
G1 X101.226Y179.659
G1 X100.848Y179.622
G1 X100.47Y179.659
G1 X100.103Y179.767
G1 X99.759Y179.949
G1 X99.448Y180.202
G1 X99.195Y180.513
G1 X99.014Y180.857
G1 X98.905Y181.224
G1 X98.868Y181.602
G1 X98.905Y181.98
G1 X99.013Y182.347
G1 X99.194Y182.691
G1 X99.448Y183.002
G0 X99.448Y183.002
G0 X99.448Y183.002
G1 X101.47Y185.024
G0 X101.47Y185.024
G1 X101.248Y185.501
G1 X101.067Y185.989
G1 X100.927Y186.484
G1 X100.827Y186.986
G1 X100.767Y187.49
G1 X100.747Y187.996
G1 X100.766Y188.501
G1 X100.824Y189.002
G1 X100.921Y189.497
G1 X101.056Y189.983
G1 X101.228Y190.459
G1 X101.439Y190.922
G1 X101.686Y191.37
G1 X101.97Y191.799
G1 X102.29Y192.209
G1 X102.647Y192.596
G1 X103.033Y192.953
G1 X103.442Y193.274
G1 X103.871Y193.559
G1 X104.318Y193.807
G1 X104.78Y194.018
G1 X105.256Y194.192
G1 X105.742Y194.328
G1 X106.237Y194.426
G1 X106.738Y194.485
G1 X107.242Y194.505
G1 X107.748Y194.486
G1 X108.253Y194.427
G1 X108.755Y194.328
G1 X109.251Y194.189
G1 X109.739Y194.009
G1 X110.216Y193.788
G0 X110.216Y193.788
G1 X110.234
G0 X110.216Y193.77
G1 X112.248Y195.802
G0 X112.248Y195.802
G1 X112.558Y196.055
G1 X112.903Y196.235
G1 X113.269Y196.344
G1 X113.647Y196.38
G1 X114.025Y196.343
G1 X114.392Y196.235
G1 X114.736Y196.053
G1 X115.046Y195.8
G1 X115.299Y195.49
G1 X115.481Y195.145
G1 X115.589Y194.779
G1 X115.626Y194.401
G1 X115.59Y194.023
G1 X115.482Y193.657
G1 X115.301Y193.312
G1 X115.048Y193.002
G0 X115.048Y193.002
G1 X113.024Y190.978
G0 X113.021Y185.012
G1 X113.038
G0 X113.038Y185.012
G1 X114.348Y183.702
G0 X114.348Y183.702
G1 X114.601Y183.391
G1 X114.782Y183.047
G1 X114.891Y182.68
G1 X114.927Y182.302
G1 X114.891Y181.924
G1 X114.782Y181.557
G1 X114.601Y181.213
G1 X114.347Y180.902
G1 X114.037Y180.649
G1 X113.692Y180.467
G1 X113.326Y180.359
G1 X112.948Y180.322
G1 X112.569Y180.359
G1 X112.203Y180.467
G1 X111.858Y180.648
G1 X111.548Y180.902
G0 X111.548Y180.902
G1 X110.236Y182.214
G0 X110.236Y182.214
G1 Y182.229
G0 X110.236Y182.229
G1 X109.522Y181.912
G1 X108.783Y181.685
G1 X108.028Y181.549
G1 X107.264Y181.502
G1 X106.5Y181.545
G1 X105.744Y181.678
G1 X105.005Y181.901
G1 X104.289Y182.214
G0 X104.289Y182.214
G1 X104.26
G0 X104.26Y182.214
G1 X102.248Y180.202
G0 X104.269Y182.223
G0 X101.47Y185.024
G0 X95.348Y183.702
G1 X95.601Y183.391
G1 X95.782Y183.047
G1 X95.891Y182.68
G1 X95.927Y182.302
G1 X95.891Y181.924
G1 X95.782Y181.557
G1 X95.601Y181.213
G1 X95.347Y180.902
G1 X95.037Y180.649
G1 X94.692Y180.467
G1 X94.326Y180.359
G1 X93.948Y180.322
G1 X93.569Y180.359
G1 X93.203Y180.467
G1 X92.858Y180.648
G1 X92.548Y180.902
G0 X92.548Y180.902
G1 X91.236Y182.214
G0 X91.236Y182.214
G1 Y182.229
G0 X91.236Y182.229
G1 X90.522Y181.912
G1 X89.783Y181.685
G1 X89.028Y181.549
G1 X88.264Y181.502
G1 X87.5Y181.545
G1 X86.744Y181.678
G1 X86.005Y181.901
G1 X85.289Y182.214
G0 X85.289Y182.214
G1 X85.26
G0 X85.26Y182.214
G1 X83.248Y180.202
G0 X83.248Y180.202
G1 X82.937Y179.948
G1 X82.593Y179.767
G1 X82.226Y179.659
G1 X81.848Y179.622
G1 X81.47Y179.659
G1 X81.103Y179.767
G1 X80.759Y179.949
G1 X80.448Y180.202
G1 X80.195Y180.513
G1 X80.014Y180.857
G1 X79.905Y181.224
G1 X79.868Y181.602
G1 X79.905Y181.98
G1 X80.013Y182.347
G1 X80.194Y182.691
G1 X80.448Y183.002
G0 X80.448Y183.002
G0 X80.448Y183.002
G1 X82.47Y185.024
G0 X82.47Y185.024
G1 X82.248Y185.501
G1 X82.067Y185.989
G1 X81.927Y186.484
G1 X81.827Y186.986
G1 X81.767Y187.49
G1 X81.747Y187.996
G1 X81.766Y188.501
G1 X81.824Y189.002
G1 X81.921Y189.497
G1 X82.056Y189.983
G1 X82.228Y190.459
G1 X82.439Y190.922
G1 X82.686Y191.37
G1 X82.97Y191.799
G1 X83.29Y192.209
G1 X83.647Y192.596
G1 X84.033Y192.953
G1 X84.442Y193.274
G1 X84.871Y193.559
G1 X85.318Y193.807
G1 X85.78Y194.018
G1 X86.256Y194.192
G1 X86.742Y194.328
G1 X87.237Y194.426
G1 X87.738Y194.485
G1 X88.242Y194.505
G1 X88.748Y194.486
G1 X89.253Y194.427
G1 X89.755Y194.328
G1 X90.251Y194.189
G1 X90.739Y194.009
G1 X91.216Y193.788
G0 X91.216Y193.788
G1 X91.234
G0 X91.216Y193.77
G1 X93.248Y195.802
G0 X93.248Y195.802
G1 X93.558Y196.055
G1 X93.903Y196.235
G1 X94.269Y196.344
G1 X94.647Y196.38
G1 X95.025Y196.343
G1 X95.392Y196.235
G1 X95.736Y196.053
G1 X96.046Y195.8
G1 X96.299Y195.49
G1 X96.481Y195.145
G1 X96.589Y194.779
G1 X96.626Y194.401
G1 X96.59Y194.023
G1 X96.482Y193.657
G1 X96.301Y193.312
G1 X96.048Y193.002
G0 X96.048Y193.002
G1 X94.024Y190.978
G0 X94.021Y185.012
G1 X94.038
G0 X94.038Y185.012
G1 X95.348Y183.702
G0 X94.021Y185.012
G1 X94.339Y185.729
G1 X94.567Y186.472
G1 X94.704Y187.232
G1 X94.75Y188
G1 X94.705Y188.768
G1 X94.569Y189.528
G1 X94.342Y190.271
G1 X94.024Y190.989
G0 X82.47Y185.024
G0 X85.269Y182.224
G0 X83.748Y176.802
G1 X84.058Y177.055
G1 X84.403Y177.235
G1 X84.769Y177.344
G1 X85.147Y177.38
G1 X85.525Y177.343
G1 X85.892Y177.235
G1 X86.236Y177.053
G1 X86.546Y176.8
G1 X86.799Y176.49
G1 X86.981Y176.145
G1 X87.089Y175.779
G1 X87.126Y175.401
G1 X87.09Y175.023
G1 X86.982Y174.657
G1 X86.801Y174.312
G1 X86.548Y174.002
G0 X86.548Y174.002
G1 X84.524Y171.978
G0 X81.716Y174.77
G1 X83.748Y176.802
G0 X81.734Y174.788
G1 X81.716
G0 X81.716Y174.788
G1 X81.239Y175.009
G1 X80.751Y175.189
G1 X80.255Y175.328
G1 X79.753Y175.427
G1 X79.248Y175.486
G1 X78.742Y175.505
G1 X78.238Y175.485
G1 X77.737Y175.426
G1 X77.242Y175.328
G1 X76.756Y175.192
G1 X76.28Y175.018
G1 X75.818Y174.807
G1 X75.371Y174.559
G1 X74.942Y174.274
G1 X74.533Y173.953
G1 X74.147Y173.596
G1 X73.79Y173.209
G1 X73.47Y172.799
G1 X73.186Y172.37
G1 X72.939Y171.922
G1 X72.728Y171.459
G1 X72.556Y170.983
G1 X72.421Y170.497
G1 X72.324Y170.002
G1 X72.266Y169.501
G1 X72.247Y168.996
G1 X72.267Y168.49
G1 X72.327Y167.986
G1 X72.427Y167.484
G1 X72.567Y166.989
G1 X72.748Y166.501
G1 X72.97Y166.024
G0 X72.97Y166.024
G0 X72.97Y166.024
G1 X70.948Y164.002
G0 X70.948Y164.002
G0 X70.948Y164.002
G1 X70.694Y163.691
G1 X70.513Y163.347
G1 X70.404Y162.98
G1 X70.368Y162.602
G1 X70.404Y162.223
G1 X70.513Y161.857
G1 X70.694Y161.512
G1 X70.948Y161.202
G1 X71.258Y160.948
G1 X71.603Y160.767
G1 X71.97Y160.658
G1 X72.348Y160.622
G1 X72.726Y160.658
G1 X73.093Y160.767
G1 X73.437Y160.948
G1 X73.748Y161.202
G0 X73.748Y161.202
G1 X75.76Y163.214
G0 X75.76Y163.214
G1 X75.789
G0 X75.769Y163.223
G0 X81.736Y163.229
G1 Y163.214
G0 X81.736Y163.214
G1 X83.048Y161.902
G0 X83.048Y161.902
G1 X83.358Y161.648
G1 X83.703Y161.468
G1 X84.069Y161.359
G1 X84.447Y161.323
G1 X84.825Y161.36
G1 X85.192Y161.469
G1 X85.536Y161.65
G1 X85.846Y161.903
G1 X86.099Y162.214
G1 X86.281Y162.558
G1 X86.389Y162.924
G1 X86.426Y163.302
G1 X86.39Y163.68
G1 X86.282Y164.047
G1 X86.101Y164.391
G1 X85.848Y164.702
G0 X85.848Y164.702
G1 X84.538Y166.012
G0 X84.538Y166.012
G1 X84.521
G0 X84.521Y166.012
G1 X84.839Y166.729
G1 X85.067Y167.472
G1 X85.204Y168.232
G1 X85.25Y169
G1 X85.205Y169.768
G1 X85.069Y170.528
G1 X84.842Y171.271
G1 X84.524Y171.989
G0 X91.97Y166.024
G0 X94.769Y163.224
G0 X97.998Y157.802
G1 X98.308Y158.054
G1 X98.653Y158.235
G1 X99.019Y158.343
G1 X99.397Y158.379
G1 X99.774Y158.342
G1 X100.141Y158.233
G1 X100.485Y158.052
G1 X100.795Y157.799
G1 X101.048Y157.489
G1 X101.229Y157.145
G1 X101.338Y156.778
G1 X101.375Y156.401
G1 X101.339Y156.023
G1 X101.231Y155.656
G1 X101.05Y155.312
G1 X100.798Y155.002
G0 X100.798Y155.002
G1 X98.774Y152.978
G0 X95.966Y155.77
G1 X97.998Y157.802
G0 X95.984Y155.788
G1 X95.966
G0 X95.966Y155.788
G1 X95.489Y156.009
G1 X95.001Y156.189
G1 X94.505Y156.328
G1 X94.003Y156.427
G1 X93.498Y156.486
G1 X92.992Y156.505
G1 X92.488Y156.485
G1 X91.987Y156.426
G1 X91.492Y156.328
G1 X91.006Y156.192
G1 X90.53Y156.018
G1 X90.068Y155.807
G1 X89.621Y155.559
G1 X89.192Y155.274
G1 X88.783Y154.953
G1 X88.397Y154.596
G1 X88.04Y154.209
G1 X87.72Y153.799
G1 X87.436Y153.37
G1 X87.189Y152.922
G1 X86.978Y152.459
G1 X86.806Y151.983
G1 X86.671Y151.497
G1 X86.574Y151.002
G1 X86.516Y150.501
G1 X86.497Y149.996
G1 X86.517Y149.49
G1 X86.577Y148.986
G1 X86.677Y148.484
G1 X86.817Y147.989
G1 X86.998Y147.501
G1 X87.22Y147.024
G0 X87.22Y147.024
G0 X87.22Y147.024
G1 X85.198Y145.002
G0 X85.198Y145.002
G0 X85.198Y145.002
G1 X84.944Y144.691
G1 X84.763Y144.347
G1 X84.654Y143.98
G1 X84.618Y143.602
G1 X84.654Y143.223
G1 X84.763Y142.857
G1 X84.944Y142.512
G1 X85.198Y142.202
G1 X85.508Y141.948
G1 X85.853Y141.767
G1 X86.22Y141.658
G1 X86.598Y141.622
G1 X86.976Y141.658
G1 X87.343Y141.767
G1 X87.687Y141.948
G1 X87.998Y142.202
G0 X87.998Y142.202
G1 X90.01Y144.214
G0 X90.01Y144.214
G1 X90.039
G0 X90.019Y144.223
G0 X95.986Y144.229
G1 Y144.214
G0 X95.986Y144.214
G1 X97.298Y142.902
G0 X97.298Y142.902
G1 X97.608Y142.648
G1 X97.953Y142.468
G1 X98.319Y142.359
G1 X98.697Y142.323
G1 X99.075Y142.36
G1 X99.442Y142.469
G1 X99.786Y142.65
G1 X100.096Y142.903
G1 X100.349Y143.214
G1 X100.531Y143.558
G1 X100.639Y143.924
G1 X100.676Y144.302
G1 X100.64Y144.68
G1 X100.532Y145.047
G1 X100.351Y145.391
G1 X100.098Y145.702
G0 X100.098Y145.702
G1 X98.788Y147.012
G0 X98.788Y147.012
G1 X98.771
G0 X98.771Y147.012
G1 X99.089Y147.729
G1 X99.317Y148.472
G1 X99.454Y149.232
G1 X99.5Y150
G1 X99.455Y150.768
G1 X99.319Y151.528
G1 X99.092Y152.271
G1 X98.774Y152.989
G0 X106.22Y147.024
G0 X109.019Y144.224
G0 X95.986Y144.229
G1 X95.272Y143.912
G1 X94.533Y143.685
G1 X93.778Y143.549
G1 X93.014Y143.502
G1 X92.25Y143.545
G1 X91.494Y143.678
G1 X90.755Y143.901
G1 X90.039Y144.214
G0 X81.098Y145.702
G1 X81.351Y145.391
G1 X81.532Y145.047
G1 X81.64Y144.68
G1 X81.676Y144.302
G1 X81.639Y143.924
G1 X81.531Y143.558
G1 X81.349Y143.214
G1 X81.096Y142.903
G1 X80.786Y142.65
G1 X80.442Y142.469
G1 X80.075Y142.36
G1 X79.697Y142.323
G1 X79.319Y142.359
G1 X78.953Y142.468
G1 X78.608Y142.648
G1 X78.298Y142.902
G0 X78.298Y142.902
G1 X76.986Y144.214
G0 X76.986Y144.214
G1 Y144.229
G0 X76.986Y144.229
G1 X76.272Y143.912
G1 X75.533Y143.685
G1 X74.778Y143.549
G1 X74.014Y143.502
G1 X73.25Y143.545
G1 X72.494Y143.678
G1 X71.755Y143.901
G1 X71.039Y144.214
G0 X71.039Y144.214
G1 X71.01
G0 X71.01Y144.214
G1 X68.998Y142.202
G0 X68.998Y142.202
G1 X68.687Y141.948
G1 X68.343Y141.767
G1 X67.976Y141.658
G1 X67.598Y141.622
G1 X67.22Y141.658
G1 X66.853Y141.767
G1 X66.508Y141.948
G1 X66.198Y142.202
G1 X65.944Y142.512
G1 X65.763Y142.857
G1 X65.654Y143.223
G1 X65.618Y143.602
G1 X65.654Y143.98
G1 X65.763Y144.347
G1 X65.944Y144.691
G1 X66.198Y145.002
G0 X66.198Y145.002
G0 X66.198Y145.002
G1 X68.22Y147.024
G0 X68.22Y147.024
G1 X67.998Y147.501
G1 X67.817Y147.989
G1 X67.677Y148.484
G1 X67.577Y148.986
G1 X67.517Y149.49
G1 X67.497Y149.996
G1 X67.516Y150.501
G1 X67.574Y151.002
G1 X67.671Y151.497
G1 X67.806Y151.983
G1 X67.978Y152.459
G1 X68.189Y152.922
G1 X68.436Y153.37
G1 X68.72Y153.799
G1 X69.04Y154.209
G1 X69.397Y154.596
G1 X69.783Y154.953
G1 X70.192Y155.274
G1 X70.621Y155.559
G1 X71.068Y155.807
G1 X71.53Y156.018
G1 X72.006Y156.192
G1 X72.492Y156.328
G1 X72.987Y156.426
G1 X73.488Y156.485
G1 X73.992Y156.505
G1 X74.498Y156.486
G1 X75.003Y156.427
G1 X75.505Y156.328
G1 X76.001Y156.189
G1 X76.489Y156.009
G1 X76.966Y155.788
G0 X76.966Y155.788
G1 X76.984
G0 X76.966Y155.77
G1 X78.998Y157.802
G0 X78.998Y157.802
G1 X79.308Y158.054
G1 X79.653Y158.235
G1 X80.019Y158.343
G1 X80.397Y158.379
G1 X80.774Y158.342
G1 X81.141Y158.233
G1 X81.485Y158.052
G1 X81.795Y157.799
G1 X82.048Y157.489
G1 X82.229Y157.145
G1 X82.338Y156.778
G1 X82.375Y156.401
G1 X82.339Y156.023
G1 X82.231Y155.656
G1 X82.05Y155.312
G1 X81.798Y155.002
G0 X81.798Y155.002
G1 X79.774Y152.978
G0 X79.771Y147.012
G1 X79.788
G0 X79.788Y147.012
G1 X81.098Y145.702
G0 X79.771Y147.012
G1 X80.089Y147.729
G1 X80.317Y148.472
G1 X80.454Y149.232
G1 X80.5Y150
G1 X80.455Y150.768
G1 X80.319Y151.528
G1 X80.092Y152.271
G1 X79.774Y152.989
G0 X68.22Y147.024
G0 X71.019Y144.224
G0 X78.998Y138.802
G1 X79.308Y139.054
G1 X79.653Y139.235
G1 X80.019Y139.343
G1 X80.397Y139.379
G1 X80.774Y139.342
G1 X81.141Y139.233
G1 X81.485Y139.052
G1 X81.795Y138.799
G1 X82.048Y138.489
G1 X82.229Y138.145
G1 X82.338Y137.778
G1 X82.375Y137.401
G1 X82.339Y137.023
G1 X82.231Y136.656
G1 X82.05Y136.312
G1 X81.798Y136.002
G0 X81.798Y136.002
G1 X79.774Y133.978
G0 X76.966Y136.77
G1 X78.998Y138.802
G0 X76.984Y136.788
G1 X76.966
G0 X76.966Y136.788
G1 X76.489Y137.009
G1 X76.001Y137.189
G1 X75.505Y137.328
G1 X75.003Y137.427
G1 X74.498Y137.486
G1 X73.992Y137.505
G1 X73.488Y137.485
G1 X72.987Y137.426
G1 X72.492Y137.328
G1 X72.006Y137.192
G1 X71.53Y137.018
G1 X71.068Y136.807
G1 X70.621Y136.559
G1 X70.192Y136.274
G1 X69.783Y135.953
G1 X69.397Y135.596
G1 X69.04Y135.209
G1 X68.72Y134.799
G1 X68.436Y134.37
G1 X68.189Y133.922
G1 X67.978Y133.459
G1 X67.806Y132.983
G1 X67.671Y132.497
G1 X67.574Y132.002
G1 X67.516Y131.501
G1 X67.497Y130.996
G1 X67.517Y130.49
G1 X67.577Y129.986
G1 X67.677Y129.484
G1 X67.817Y128.989
G1 X67.998Y128.501
G1 X68.22Y128.024
G0 X68.22Y128.024
G1 X66.198Y126.002
G0 X66.198Y126.002
G0 X66.198Y126.002
G1 X65.944Y125.691
G1 X65.763Y125.347
G1 X65.654Y124.98
G1 X65.618Y124.602
G1 X65.654Y124.223
G1 X65.763Y123.857
G1 X65.944Y123.512
G1 X66.198Y123.202
G1 X66.508Y122.948
G1 X66.853Y122.767
G1 X67.22Y122.658
G1 X67.598Y122.622
G1 X67.976Y122.658
G1 X68.343Y122.767
G1 X68.687Y122.948
G1 X68.998Y123.202
G0 X68.998Y123.202
G1 X71.01Y125.214
G0 X71.01Y125.214
G1 X71.039
G0 X71.019Y125.223
G0 X68.22Y128.024
G0 X76.986Y125.229
G1 Y125.214
G0 X76.986Y125.214
G1 X78.298Y123.902
G0 X78.298Y123.902
G1 X78.608Y123.648
G1 X78.953Y123.468
G1 X79.319Y123.359
G1 X79.697Y123.323
G1 X80.075Y123.36
G1 X80.442Y123.469
G1 X80.786Y123.65
G1 X81.096Y123.903
G1 X81.349Y124.214
G1 X81.531Y124.558
G1 X81.639Y124.924
G1 X81.676Y125.302
G1 X81.64Y125.68
G1 X81.532Y126.047
G1 X81.351Y126.391
G1 X81.098Y126.702
G0 X81.098Y126.702
G1 X79.788Y128.012
G0 X79.788Y128.012
G1 X79.771
G0 X79.771Y128.012
G1 X80.089Y128.729
G1 X80.317Y129.472
G1 X80.454Y130.232
G1 X80.5Y131
G1 X80.455Y131.768
G1 X80.319Y132.528
G1 X80.092Y133.271
G1 X79.774Y133.989
G0 X87.22Y128.024
G1 X86.998Y128.501
G1 X86.817Y128.989
G1 X86.677Y129.484
G1 X86.577Y129.986
G1 X86.517Y130.49
G1 X86.497Y130.996
G1 X86.516Y131.501
G1 X86.574Y132.002
G1 X86.671Y132.497
G1 X86.806Y132.983
G1 X86.978Y133.459
G1 X87.189Y133.922
G1 X87.436Y134.37
G1 X87.72Y134.799
G1 X88.04Y135.209
G1 X88.397Y135.596
G1 X88.783Y135.953
G1 X89.192Y136.274
G1 X89.621Y136.559
G1 X90.068Y136.807
G1 X90.53Y137.018
G1 X91.006Y137.192
G1 X91.492Y137.328
G1 X91.987Y137.426
G1 X92.488Y137.485
G1 X92.992Y137.505
G1 X93.498Y137.486
G1 X94.003Y137.427
G1 X94.505Y137.328
G1 X95.001Y137.189
G1 X95.489Y137.009
G1 X95.966Y136.788
G0 X95.966Y136.788
G1 X95.984
G0 X95.966Y136.77
G1 X97.998Y138.802
G0 X97.998Y138.802
G1 X98.308Y139.054
G1 X98.653Y139.235
G1 X99.019Y139.343
G1 X99.397Y139.379
G1 X99.774Y139.342
G1 X100.141Y139.233
G1 X100.485Y139.052
G1 X100.795Y138.799
G1 X101.048Y138.489
G1 X101.229Y138.145
G1 X101.338Y137.778
G1 X101.375Y137.401
G1 X101.339Y137.023
G1 X101.231Y136.656
G1 X101.05Y136.312
G1 X100.798Y136.002
G0 X100.798Y136.002
G1 X98.774Y133.978
G0 X98.771Y128.012
G1 X98.788
G0 X98.788Y128.012
G1 X100.098Y126.702
G0 X100.098Y126.702
G1 X100.351Y126.391
G1 X100.532Y126.047
G1 X100.64Y125.68
G1 X100.676Y125.302
G1 X100.639Y124.924
G1 X100.531Y124.558
G1 X100.349Y124.214
G1 X100.096Y123.903
G1 X99.786Y123.65
G1 X99.442Y123.469
G1 X99.075Y123.36
G1 X98.697Y123.323
G1 X98.319Y123.359
G1 X97.953Y123.468
G1 X97.608Y123.648
G1 X97.298Y123.902
G0 X97.298Y123.902
G1 X95.986Y125.214
G0 X95.986Y125.214
G1 Y125.229
G0 X95.986Y125.229
G1 X95.272Y124.912
G1 X94.533Y124.685
G1 X93.778Y124.549
G1 X93.014Y124.502
G1 X92.25Y124.545
G1 X91.494Y124.678
G1 X90.755Y124.901
G1 X90.039Y125.214
G0 X90.039Y125.214
G1 X90.01
G0 X90.01Y125.214
G1 X87.998Y123.202
G0 X87.998Y123.202
G1 X87.687Y122.948
G1 X87.343Y122.767
G1 X86.976Y122.658
G1 X86.598Y122.622
G1 X86.22Y122.658
G1 X85.853Y122.767
G1 X85.508Y122.948
G1 X85.198Y123.202
G1 X84.944Y123.512
G1 X84.763Y123.857
G1 X84.654Y124.223
G1 X84.618Y124.602
G1 X84.654Y124.98
G1 X84.763Y125.347
G1 X84.944Y125.691
G1 X85.198Y126.002
G0 X85.198Y126.002
G0 X85.198Y126.002
G1 X87.22Y128.024
G0 X87.22Y128.024
G0 X90.019Y125.224
G0 X98.771Y128.012
G1 X99.089Y128.729
G1 X99.317Y129.472
G1 X99.454Y130.232
G1 X99.5Y131
G1 X99.455Y131.768
G1 X99.319Y132.528
G1 X99.092Y133.271
G1 X98.774Y133.989
G0 X110.97Y128.024
G0 X113.769Y125.224
G0 X143.466Y136.788
G1 X143.484
G0 X144.998Y142.205
G1 X144.687Y141.952
G1 X144.343Y141.771
G1 X143.976Y141.663
G1 X143.598Y141.627
G1 X143.22Y141.663
G1 X142.854Y141.772
G1 X142.51Y141.953
G1 X142.199Y142.207
G1 X141.946Y142.517
G1 X141.765Y142.861
G1 X141.656Y143.228
G1 X141.62Y143.605
G1 X141.656Y143.983
G1 X141.764Y144.35
G1 X141.945Y144.694
G1 X142.198Y145.005
G0 X142.198Y145.005
G0 X142.198Y145.005
G1 X144.22Y147.027
G0 X144.22Y147.027
G1 X143.998Y147.504
G1 X143.817Y147.992
G1 X143.677Y148.487
G1 X143.577Y148.989
G1 X143.517Y149.494
G1 X143.497Y150
G1 X143.516Y150.504
G1 X143.574Y151.005
G1 X143.671Y151.5
G1 X143.806Y151.987
G1 X143.978Y152.463
G1 X144.189Y152.926
G1 X144.436Y153.373
G1 X144.72Y153.803
G1 X145.04Y154.212
G1 X145.397Y154.599
G1 X145.783Y154.956
G1 X146.192Y155.278
G1 X146.621Y155.562
G1 X147.068Y155.811
G1 X147.53Y156.022
G1 X148.006Y156.195
G1 X148.492Y156.331
G1 X148.987Y156.429
G1 X149.488Y156.488
G1 X149.992Y156.508
G1 X150.498Y156.489
G1 X151.003Y156.43
G1 X151.505Y156.332
G1 X152.001Y156.192
G1 X152.489Y156.012
G1 X152.966Y155.791
G0 X152.966Y155.791
G1 X152.984
G0 X152.966Y155.773
G1 X154.998Y157.805
G0 X154.998Y157.805
G1 X155.308Y158.059
G1 X155.653Y158.24
G1 X156.02Y158.349
G1 X156.398Y158.385
G1 X156.776Y158.349
G1 X157.143Y158.24
G1 X157.487Y158.059
G1 X157.798Y157.805
G1 X158.051Y157.494
G1 X158.233Y157.15
G1 X158.341Y156.783
G1 X158.378Y156.405
G1 X158.341Y156.027
G1 X158.233Y155.66
G1 X158.051Y155.316
G1 X157.798Y155.005
G0 X157.798Y155.005
G1 X155.774Y152.981
G0 X155.771Y147.015
G1 X155.788
G0 X155.788Y147.015
G1 X157.098Y145.705
G0 X157.098Y145.705
G1 X157.351Y145.394
G1 X157.533Y145.05
G1 X157.641Y144.683
G1 X157.678Y144.305
G1 X157.641Y143.927
G1 X157.533Y143.56
G1 X157.351Y143.215
G1 X157.098Y142.905
G1 X156.787Y142.651
G1 X156.443Y142.47
G1 X156.076Y142.361
G1 X155.698Y142.325
G1 X155.32Y142.361
G1 X154.953Y142.47
G1 X154.608Y142.651
G1 X154.298Y142.905
G0 X154.298Y142.905
G1 X152.986Y144.217
G0 X152.986Y144.217
G1 Y144.232
G0 X152.986Y144.232
G1 X152.272Y143.915
G1 X151.533Y143.689
G1 X150.778Y143.552
G1 X150.014Y143.505
G1 X149.25Y143.548
G1 X148.494Y143.681
G1 X147.755Y143.905
G1 X147.039Y144.218
G0 X147.039Y144.218
G1 X147.01
G0 X147.01Y144.218
G1 X144.998Y142.205
G0 X147.019Y144.226
G0 X144.22Y147.027
G0 X136.771Y147.012
G1 X137.089Y147.729
G1 X137.317Y148.472
G1 X137.454Y149.232
G1 X137.5Y150
G1 X137.455Y150.768
G1 X137.319Y151.528
G1 X137.092Y152.271
G1 X136.774Y152.989
G0 X130.748Y161.202
G1 X130.437Y160.948
G1 X130.093Y160.768
G1 X129.726Y160.659
G1 X129.348Y160.623
G1 X128.97Y160.66
G1 X128.604Y160.769
G1 X128.26Y160.95
G1 X127.949Y161.203
G1 X127.696Y161.514
G1 X127.515Y161.858
G1 X127.406Y162.224
G1 X127.37Y162.602
G1 X127.406Y162.98
G1 X127.514Y163.347
G1 X127.695Y163.691
G1 X127.948Y164.002
G0 X127.948Y164.002
G0 X127.948Y164.002
G1 X129.97Y166.024
G0 X129.97Y166.024
G1 X129.748Y166.501
G1 X129.567Y166.989
G1 X129.427Y167.484
G1 X129.327Y167.986
G1 X129.267Y168.49
G1 X129.247Y168.996
G1 X129.266Y169.501
G1 X129.324Y170.002
G1 X129.421Y170.497
G1 X129.556Y170.983
G1 X129.728Y171.459
G1 X129.939Y171.922
G1 X130.186Y172.37
G1 X130.47Y172.799
G1 X130.79Y173.209
G1 X131.147Y173.596
G1 X131.533Y173.953
G1 X131.942Y174.274
G1 X132.371Y174.559
G1 X132.818Y174.807
G1 X133.28Y175.018
G1 X133.756Y175.192
G1 X134.242Y175.328
G1 X134.737Y175.426
G1 X135.238Y175.485
G1 X135.742Y175.505
G1 X136.248Y175.486
G1 X136.753Y175.427
G1 X137.255Y175.328
G1 X137.751Y175.189
G1 X138.239Y175.009
G1 X138.716Y174.788
G0 X138.716Y174.788
G1 X138.734
G0 X138.716Y174.77
G1 X140.748Y176.802
G0 X140.748Y176.802
G1 X141.058Y177.055
G1 X141.403Y177.237
G1 X141.77Y177.345
G1 X142.148Y177.382
G1 X142.526Y177.345
G1 X142.893Y177.237
G1 X143.237Y177.055
G1 X143.548Y176.802
G1 X143.801Y176.491
G1 X143.983Y176.147
G1 X144.091Y175.78
G1 X144.128Y175.402
G1 X144.091Y175.023
G1 X143.983Y174.657
G1 X143.801Y174.312
G1 X143.548Y174.002
G0 X143.548Y174.002
G1 X141.524Y171.978
G0 X141.521Y166.012
G1 X141.538
G0 X141.538Y166.012
G1 X142.848Y164.702
G0 X142.848Y164.702
G1 X143.101Y164.391
G1 X143.282Y164.047
G1 X143.39Y163.68
G1 X143.426Y163.302
G1 X143.389Y162.924
G1 X143.281Y162.558
G1 X143.099Y162.214
G1 X142.846Y161.903
G1 X142.536Y161.65
G1 X142.192Y161.469
G1 X141.825Y161.36
G1 X141.447Y161.323
G1 X141.069Y161.359
G1 X140.703Y161.468
G1 X140.358Y161.648
G1 X140.048Y161.902
G0 X140.048Y161.902
G1 X138.736Y163.214
G0 X138.736Y163.214
G1 Y163.229
G0 X138.736Y163.229
G1 X138.022Y162.912
G1 X137.283Y162.685
G1 X136.528Y162.549
G1 X135.764Y162.502
G1 X135Y162.545
G1 X134.244Y162.678
G1 X133.505Y162.901
G1 X132.789Y163.214
G0 X132.789Y163.214
G1 X132.76
G0 X132.76Y163.214
G1 X130.748Y161.202
G0 X132.769Y163.223
G0 X129.97Y166.024
G0 X122.521Y166.012
G1 X122.839Y166.729
G1 X123.067Y167.472
G1 X123.204Y168.232
G1 X123.25Y169
G1 X123.205Y169.768
G1 X123.069Y170.528
G1 X122.842Y171.271
G1 X122.524Y171.989
G0 X121.248Y180.202
G1 X120.937Y179.948
G1 X120.593Y179.767
G1 X120.226Y179.659
G1 X119.848Y179.622
G1 X119.47Y179.659
G1 X119.103Y179.767
G1 X118.759Y179.949
G1 X118.448Y180.202
G1 X118.195Y180.513
G1 X118.014Y180.857
G1 X117.905Y181.224
G1 X117.868Y181.602
G1 X117.905Y181.98
G1 X118.013Y182.347
G1 X118.194Y182.691
G1 X118.448Y183.002
G0 X118.448Y183.002
G0 X118.448Y183.002
G1 X120.47Y185.024
G0 X120.47Y185.024
G1 X120.248Y185.501
G1 X120.067Y185.989
G1 X119.927Y186.484
G1 X119.827Y186.986
G1 X119.767Y187.49
G1 X119.747Y187.996
G1 X119.766Y188.501
G1 X119.824Y189.002
G1 X119.921Y189.497
G1 X120.056Y189.983
G1 X120.228Y190.459
G1 X120.439Y190.922
G1 X120.686Y191.37
G1 X120.97Y191.799
G1 X121.29Y192.209
G1 X121.647Y192.596
G1 X122.033Y192.953
G1 X122.442Y193.274
G1 X122.871Y193.559
G1 X123.318Y193.807
G1 X123.78Y194.018
G1 X124.256Y194.192
G1 X124.742Y194.328
G1 X125.237Y194.426
G1 X125.738Y194.485
G1 X126.242Y194.505
G1 X126.748Y194.486
G1 X127.253Y194.427
G1 X127.755Y194.328
G1 X128.251Y194.189
G1 X128.739Y194.009
G1 X129.216Y193.788
G0 X129.216Y193.788
G1 X129.234
G0 X129.216Y193.77
G1 X131.248Y195.802
G0 X131.248Y195.802
G1 X131.558Y196.055
G1 X131.903Y196.237
G1 X132.27Y196.345
G1 X132.648Y196.382
G1 X133.026Y196.345
G1 X133.393Y196.237
G1 X133.737Y196.055
G1 X134.048Y195.802
G1 X134.301Y195.491
G1 X134.483Y195.147
G1 X134.591Y194.78
G1 X134.628Y194.402
G1 X134.591Y194.023
G1 X134.483Y193.657
G1 X134.301Y193.312
G1 X134.048Y193.002
G0 X134.048Y193.002
G1 X132.024Y190.978
G0 X132.021Y185.012
G1 X132.038
G0 X132.038Y185.012
G1 X133.348Y183.702
G0 X133.348Y183.702
G1 X133.601Y183.391
G1 X133.782Y183.047
G1 X133.891Y182.68
G1 X133.927Y182.302
G1 X133.891Y181.924
G1 X133.782Y181.557
G1 X133.601Y181.213
G1 X133.347Y180.902
G1 X133.037Y180.649
G1 X132.692Y180.467
G1 X132.326Y180.359
G1 X131.947Y180.322
G1 X131.569Y180.359
G1 X131.203Y180.467
G1 X130.858Y180.648
G1 X130.548Y180.902
G0 X130.548Y180.902
G1 X129.236Y182.214
G0 X129.236Y182.214
G1 Y182.229
G0 X129.236Y182.229
G1 X128.522Y181.912
G1 X127.783Y181.685
G1 X127.028Y181.549
G1 X126.264Y181.502
G1 X125.5Y181.545
G1 X124.744Y181.678
G1 X124.005Y181.901
G1 X123.289Y182.214
G0 X123.289Y182.214
G1 X123.26
G0 X123.26Y182.214
G1 X121.248Y180.202
G0 X123.269Y182.223
G0 X120.47Y185.024
G0 X113.021Y185.012
G1 X113.339Y185.729
G1 X113.567Y186.472
G1 X113.704Y187.232
G1 X113.75Y188
G1 X113.705Y188.768
G1 X113.569Y189.528
G1 X113.342Y190.271
G1 X113.024Y190.989
G0 X132.024Y190.989
G1 X132.342Y190.271
G1 X132.569Y189.528
G1 X132.705Y188.768
G1 X132.75Y188
G1 X132.704Y187.232
G1 X132.567Y186.472
G1 X132.339Y185.729
G1 X132.021Y185.012
G0 X137.448Y183.002
G1 X139.47Y185.024
G0 X139.47Y185.024
G1 X139.248Y185.501
G1 X139.067Y185.989
G1 X138.927Y186.484
G1 X138.827Y186.986
G1 X138.767Y187.49
G1 X138.747Y187.996
G1 X138.766Y188.501
G1 X138.824Y189.002
G1 X138.921Y189.497
G1 X139.056Y189.983
G1 X139.228Y190.459
G1 X139.439Y190.922
G1 X139.686Y191.37
G1 X139.97Y191.799
G1 X140.29Y192.209
G1 X140.647Y192.596
G1 X141.033Y192.953
G1 X141.442Y193.274
G1 X141.871Y193.559
G1 X142.318Y193.807
G1 X142.78Y194.018
G1 X143.256Y194.192
G1 X143.742Y194.328
G1 X144.237Y194.426
G1 X144.738Y194.485
G1 X145.242Y194.505
G1 X145.748Y194.486
G1 X146.253Y194.427
G1 X146.755Y194.328
G1 X147.251Y194.189
G1 X147.739Y194.009
G1 X148.216Y193.788
G0 X148.216Y193.788
G1 X148.234
G0 X148.216Y193.77
G1 X150.248Y195.802
G0 X150.248Y195.802
G1 X150.558Y196.055
G1 X150.903Y196.237
G1 X151.27Y196.345
G1 X151.648Y196.382
G1 X152.026Y196.345
G1 X152.393Y196.237
G1 X152.737Y196.055
G1 X153.048Y195.802
G1 X153.301Y195.491
G1 X153.483Y195.147
G1 X153.591Y194.78
G1 X153.628Y194.402
G1 X153.591Y194.023
G1 X153.483Y193.657
G1 X153.301Y193.312
G1 X153.048Y193.002
G0 X153.048Y193.002
G1 X151.024Y190.978
G0 X151.021Y185.012
G1 X151.038
G0 X151.038Y185.012
G1 X152.348Y183.702
G0 X152.348Y183.702
G1 X152.601Y183.391
G1 X152.782Y183.047
G1 X152.891Y182.68
G1 X152.927Y182.302
G1 X152.891Y181.924
G1 X152.782Y181.557
G1 X152.601Y181.213
G1 X152.347Y180.902
G1 X152.037Y180.649
G1 X151.692Y180.467
G1 X151.326Y180.359
G1 X150.947Y180.322
G1 X150.569Y180.359
G1 X150.203Y180.467
G1 X149.858Y180.648
G1 X149.548Y180.902
G0 X149.548Y180.902
G1 X148.236Y182.214
G0 X148.236Y182.214
G1 Y182.229
G0 X148.236Y182.229
G1 X147.522Y181.912
G1 X146.783Y181.685
G1 X146.028Y181.549
G1 X145.264Y181.502
G1 X144.5Y181.545
G1 X143.744Y181.678
G1 X143.005Y181.901
G1 X142.289Y182.214
G0 X142.289Y182.214
G1 X142.26
G0 X142.26Y182.214
G1 X140.248Y180.202
G0 X140.248Y180.202
G1 X139.937Y179.948
G1 X139.593Y179.767
G1 X139.226Y179.659
G1 X138.848Y179.622
G1 X138.47Y179.659
G1 X138.103Y179.767
G1 X137.759Y179.949
G1 X137.448Y180.202
G1 X137.195Y180.513
G1 X137.014Y180.857
G1 X136.905Y181.224
G1 X136.868Y181.602
G1 X136.905Y181.98
G1 X137.013Y182.347
G1 X137.194Y182.691
G1 X137.448Y183.002
G0 X137.448Y183.002
G0 X139.47Y185.024
G0 X142.269Y182.224
G0 X151.021Y185.012
G1 X151.339Y185.729
G1 X151.567Y186.472
G1 X151.704Y187.232
G1 X151.75Y188
G1 X151.705Y188.768
G1 X151.569Y189.528
G1 X151.342Y190.271
G1 X151.024Y190.989
G0 X158.47Y185.024
G1 X158.248Y185.501
G1 X158.067Y185.989
G1 X157.927Y186.484
G1 X157.827Y186.986
G1 X157.767Y187.49
G1 X157.747Y187.996
G1 X157.766Y188.501
G1 X157.824Y189.002
G1 X157.921Y189.497
G1 X158.056Y189.983
G1 X158.228Y190.459
G1 X158.439Y190.922
G1 X158.686Y191.37
G1 X158.97Y191.799
G1 X159.29Y192.209
G1 X159.647Y192.596
G1 X160.033Y192.953
G1 X160.442Y193.274
G1 X160.871Y193.559
G1 X161.318Y193.807
G1 X161.78Y194.018
G1 X162.256Y194.192
G1 X162.742Y194.328
G1 X163.237Y194.426
G1 X163.738Y194.485
G1 X164.242Y194.505
G1 X164.748Y194.486
G1 X165.253Y194.427
G1 X165.755Y194.328
G1 X166.251Y194.189
G1 X166.739Y194.009
G1 X167.216Y193.788
G0 X167.216Y193.788
G1 X167.234
G0 X167.216Y193.77
G1 X169.248Y195.802
G0 X169.248Y195.802
G1 X169.558Y196.055
G1 X169.903Y196.237
G1 X170.27Y196.345
G1 X170.648Y196.382
G1 X171.026Y196.345
G1 X171.393Y196.237
G1 X171.737Y196.055
G1 X172.048Y195.802
G1 X172.301Y195.491
G1 X172.483Y195.147
G1 X172.591Y194.78
G1 X172.628Y194.402
G1 X172.591Y194.023
G1 X172.483Y193.657
G1 X172.301Y193.312
G1 X172.048Y193.002
G0 X172.048Y193.002
G1 X170.024Y190.978
G0 X170.021Y185.012
G1 X170.038
G0 X170.038Y185.012
G1 X171.348Y183.702
G0 X171.348Y183.702
G1 X171.601Y183.391
G1 X171.782Y183.047
G1 X171.891Y182.68
G1 X171.927Y182.302
G1 X171.891Y181.924
G1 X171.782Y181.557
G1 X171.601Y181.213
G1 X171.347Y180.902
G1 X171.037Y180.649
G1 X170.692Y180.467
G1 X170.326Y180.359
G1 X169.947Y180.322
G1 X169.569Y180.359
G1 X169.203Y180.467
G1 X168.858Y180.648
G1 X168.548Y180.902
G0 X168.548Y180.902
G1 X167.236Y182.214
G0 X167.236Y182.214
G1 Y182.229
G0 X167.236Y182.229
G1 X166.522Y181.912
G1 X165.783Y181.685
G1 X165.028Y181.549
G1 X164.264Y181.502
G1 X163.5Y181.545
G1 X162.744Y181.678
G1 X162.005Y181.901
G1 X161.289Y182.214
G0 X161.289Y182.214
G1 X161.26
G0 X161.26Y182.214
G1 X159.248Y180.202
G0 X159.248Y180.202
G1 X158.937Y179.948
G1 X158.593Y179.767
G1 X158.226Y179.659
G1 X157.848Y179.622
G1 X157.47Y179.659
G1 X157.103Y179.767
G1 X156.759Y179.949
G1 X156.448Y180.202
G1 X156.195Y180.513
G1 X156.014Y180.857
G1 X155.905Y181.224
G1 X155.868Y181.602
G1 X155.905Y181.98
G1 X156.013Y182.347
G1 X156.194Y182.691
G1 X156.448Y183.002
G0 X156.448Y183.002
G0 X156.448Y183.002
G1 X158.47Y185.024
G0 X158.47Y185.024
G0 X161.269Y182.224
G0 X159.748Y176.802
G1 X160.058Y177.055
G1 X160.403Y177.237
G1 X160.77Y177.345
G1 X161.148Y177.382
G1 X161.526Y177.345
G1 X161.893Y177.237
G1 X162.237Y177.055
G1 X162.548Y176.802
G1 X162.801Y176.491
G1 X162.983Y176.147
G1 X163.091Y175.78
G1 X163.128Y175.402
G1 X163.091Y175.023
G1 X162.983Y174.657
G1 X162.801Y174.312
G1 X162.548Y174.002
G0 X162.548Y174.002
G1 X160.524Y171.978
G0 X157.716Y174.77
G1 X159.748Y176.802
G0 X157.734Y174.788
G1 X157.716
G0 X157.716Y174.788
G1 X157.239Y175.009
G1 X156.751Y175.189
G1 X156.255Y175.328
G1 X155.753Y175.427
G1 X155.248Y175.486
G1 X154.742Y175.505
G1 X154.238Y175.485
G1 X153.737Y175.426
G1 X153.242Y175.328
G1 X152.756Y175.192
G1 X152.28Y175.018
G1 X151.818Y174.807
G1 X151.371Y174.559
G1 X150.942Y174.274
G1 X150.533Y173.953
G1 X150.147Y173.596
G1 X149.79Y173.209
G1 X149.47Y172.799
G1 X149.186Y172.37
G1 X148.939Y171.922
G1 X148.728Y171.459
G1 X148.556Y170.983
G1 X148.421Y170.497
G1 X148.324Y170.002
G1 X148.266Y169.501
G1 X148.247Y168.996
G1 X148.267Y168.49
G1 X148.327Y167.986
G1 X148.427Y167.484
G1 X148.567Y166.989
G1 X148.748Y166.501
G1 X148.97Y166.024
G0 X148.97Y166.024
G1 X146.948Y164.002
G0 X146.948Y164.002
G0 X146.948Y164.002
G1 X146.694Y163.691
G1 X146.513Y163.347
G1 X146.404Y162.98
G1 X146.368Y162.602
G1 X146.404Y162.223
G1 X146.513Y161.857
G1 X146.694Y161.512
G1 X146.948Y161.202
G1 X147.258Y160.948
G1 X147.603Y160.767
G1 X147.97Y160.658
G1 X148.348Y160.622
G1 X148.726Y160.658
G1 X149.093Y160.767
G1 X149.437Y160.948
G1 X149.748Y161.202
G0 X149.748Y161.202
G1 X151.76Y163.214
G0 X151.76Y163.214
G1 X151.789
G0 X151.769Y163.223
G0 X148.97Y166.024
G0 X141.521Y166.012
G1 X141.839Y166.729
G1 X142.067Y167.472
G1 X142.204Y168.232
G1 X142.25Y169
G1 X142.205Y169.768
G1 X142.069Y170.528
G1 X141.842Y171.271
G1 X141.524Y171.989
G0 X157.736Y163.229
G1 Y163.214
G0 X157.736Y163.214
G1 X159.048Y161.902
G0 X159.048Y161.902
G1 X159.358Y161.648
G1 X159.703Y161.468
G1 X160.069Y161.359
G1 X160.447Y161.323
G1 X160.825Y161.36
G1 X161.192Y161.469
G1 X161.536Y161.65
G1 X161.846Y161.903
G1 X162.099Y162.214
G1 X162.281Y162.558
G1 X162.389Y162.924
G1 X162.426Y163.302
G1 X162.39Y163.68
G1 X162.282Y164.047
G1 X162.101Y164.391
G1 X161.848Y164.702
G0 X161.848Y164.702
G1 X160.538Y166.012
G0 X160.538Y166.012
G1 X160.521
G0 X160.521Y166.012
G1 X160.839Y166.729
G1 X161.067Y167.472
G1 X161.204Y168.232
G1 X161.25Y169
G1 X161.205Y169.768
G1 X161.069Y170.528
G1 X160.842Y171.271
G1 X160.524Y171.989
G0 X167.97Y166.024
G1 X167.748Y166.501
G1 X167.567Y166.989
G1 X167.427Y167.484
G1 X167.327Y167.986
G1 X167.267Y168.49
G1 X167.247Y168.996
G1 X167.266Y169.501
G1 X167.324Y170.002
G1 X167.421Y170.497
G1 X167.556Y170.983
G1 X167.728Y171.459
G1 X167.939Y171.922
G1 X168.186Y172.37
G1 X168.47Y172.799
G1 X168.79Y173.209
G1 X169.147Y173.596
G1 X169.533Y173.953
G1 X169.942Y174.274
G1 X170.371Y174.559
G1 X170.818Y174.807
G1 X171.28Y175.018
G1 X171.756Y175.192
G1 X172.242Y175.328
G1 X172.737Y175.426
G1 X173.238Y175.485
G1 X173.742Y175.505
G1 X174.248Y175.486
G1 X174.753Y175.427
G1 X175.255Y175.328
G1 X175.751Y175.189
G1 X176.239Y175.009
G1 X176.716Y174.788
G0 X176.716Y174.788
G1 X176.734
G0 X176.716Y174.77
G1 X178.748Y176.802
G0 X178.748Y176.802
G1 X179.058Y177.055
G1 X179.403Y177.237
G1 X179.77Y177.345
G1 X180.148Y177.382
G1 X180.526Y177.345
G1 X180.893Y177.237
G1 X181.237Y177.055
G1 X181.548Y176.802
G1 X181.801Y176.491
G1 X181.983Y176.147
G1 X182.091Y175.78
G1 X182.128Y175.402
G1 X182.091Y175.023
G1 X181.983Y174.657
G1 X181.801Y174.312
G1 X181.548Y174.002
G0 X181.548Y174.002
G1 X179.524Y171.978
G0 X179.521Y166.012
G1 X179.538
G0 X179.538Y166.012
G1 X180.848Y164.702
G0 X180.848Y164.702
G1 X181.101Y164.391
G1 X181.282Y164.047
G1 X181.39Y163.68
G1 X181.426Y163.302
G1 X181.389Y162.924
G1 X181.281Y162.558
G1 X181.099Y162.214
G1 X180.846Y161.903
G1 X180.536Y161.65
G1 X180.192Y161.469
G1 X179.825Y161.36
G1 X179.447Y161.323
G1 X179.069Y161.359
G1 X178.703Y161.468
G1 X178.358Y161.648
G1 X178.048Y161.902
G0 X178.048Y161.902
G1 X176.736Y163.214
G0 X176.736Y163.214
G1 Y163.229
G0 X176.736Y163.229
G1 X176.022Y162.912
G1 X175.283Y162.685
G1 X174.528Y162.549
G1 X173.764Y162.502
G1 X173Y162.545
G1 X172.244Y162.678
G1 X171.505Y162.901
G1 X170.789Y163.214
G0 X170.789Y163.214
G1 X170.76
G0 X170.76Y163.214
G1 X168.748Y161.202
G0 X168.748Y161.202
G1 X168.437Y160.948
G1 X168.093Y160.767
G1 X167.726Y160.658
G1 X167.348Y160.622
G1 X166.97Y160.658
G1 X166.603Y160.767
G1 X166.258Y160.948
G1 X165.948Y161.202
G1 X165.694Y161.512
G1 X165.513Y161.857
G1 X165.404Y162.223
G1 X165.368Y162.602
G1 X165.404Y162.98
G1 X165.513Y163.347
G1 X165.694Y163.691
G1 X165.948Y164.002
G0 X165.948Y164.002
G0 X165.948Y164.002
G1 X167.97Y166.024
G0 X167.97Y166.024
G0 X170.769Y163.224
G0 X173.998Y157.802
G1 X174.308Y158.055
G1 X174.653Y158.235
G1 X175.019Y158.344
G1 X175.397Y158.38
G1 X175.775Y158.343
G1 X176.142Y158.235
G1 X176.486Y158.053
G1 X176.796Y157.8
G1 X177.049Y157.49
G1 X177.231Y157.145
G1 X177.339Y156.779
G1 X177.376Y156.401
G1 X177.34Y156.023
G1 X177.232Y155.657
G1 X177.051Y155.312
G1 X176.798Y155.002
G0 X176.798Y155.002
G1 X174.774Y152.978
G0 X171.966Y155.77
G1 X173.998Y157.802
G0 X171.984Y155.788
G1 X171.966
G0 X171.966Y155.788
G1 X171.489Y156.009
G1 X171.001Y156.189
G1 X170.505Y156.328
G1 X170.003Y156.427
G1 X169.498Y156.486
G1 X168.992Y156.505
G1 X168.488Y156.485
G1 X167.987Y156.426
G1 X167.492Y156.328
G1 X167.006Y156.192
G1 X166.53Y156.018
G1 X166.068Y155.807
G1 X165.621Y155.559
G1 X165.192Y155.274
G1 X164.783Y154.953
G1 X164.397Y154.596
G1 X164.04Y154.209
G1 X163.72Y153.799
G1 X163.436Y153.37
G1 X163.189Y152.922
G1 X162.978Y152.459
G1 X162.806Y151.983
G1 X162.671Y151.497
G1 X162.574Y151.002
G1 X162.516Y150.501
G1 X162.497Y149.996
G1 X162.517Y149.49
G1 X162.577Y148.986
G1 X162.677Y148.484
G1 X162.817Y147.989
G1 X162.998Y147.501
G1 X163.22Y147.024
G0 X163.22Y147.024
G0 X163.22Y147.024
G1 X161.198Y145.002
G0 X161.198Y145.002
G0 X161.198Y145.002
G1 X160.944Y144.691
G1 X160.763Y144.347
G1 X160.654Y143.98
G1 X160.618Y143.602
G1 X160.654Y143.223
G1 X160.763Y142.857
G1 X160.944Y142.512
G1 X161.198Y142.202
G1 X161.508Y141.948
G1 X161.853Y141.767
G1 X162.22Y141.658
G1 X162.598Y141.622
G1 X162.976Y141.658
G1 X163.343Y141.767
G1 X163.687Y141.948
G1 X163.998Y142.202
G0 X163.998Y142.202
G1 X166.01Y144.214
G0 X166.01Y144.214
G1 X166.039
G0 X166.019Y144.223
G0 X171.986Y144.229
G1 Y144.214
G0 X171.986Y144.214
G1 X173.298Y142.902
G0 X173.298Y142.902
G1 X173.608Y142.648
G1 X173.953Y142.468
G1 X174.319Y142.359
G1 X174.697Y142.323
G1 X175.075Y142.36
G1 X175.442Y142.469
G1 X175.786Y142.65
G1 X176.096Y142.903
G1 X176.349Y143.214
G1 X176.531Y143.558
G1 X176.639Y143.924
G1 X176.676Y144.302
G1 X176.64Y144.68
G1 X176.532Y145.047
G1 X176.351Y145.391
G1 X176.098Y145.702
G0 X176.098Y145.702
G1 X174.788Y147.012
G0 X174.788Y147.012
G1 X174.771
G0 X174.771Y147.012
G1 X175.089Y147.729
G1 X175.317Y148.472
G1 X175.454Y149.232
G1 X175.5Y150
G1 X175.455Y150.768
G1 X175.319Y151.528
G1 X175.092Y152.271
G1 X174.774Y152.989
G0 X182.22Y147.024
G1 X181.998Y147.501
G1 X181.817Y147.989
G1 X181.677Y148.484
G1 X181.577Y148.986
G1 X181.517Y149.49
G1 X181.497Y149.996
G1 X181.516Y150.501
G1 X181.574Y151.002
G1 X181.671Y151.497
G1 X181.806Y151.983
G1 X181.978Y152.459
G1 X182.189Y152.922
G1 X182.436Y153.37
G1 X182.72Y153.799
G1 X183.04Y154.209
G1 X183.397Y154.596
G1 X183.783Y154.953
G1 X184.192Y155.274
G1 X184.621Y155.559
G1 X185.068Y155.807
G1 X185.53Y156.018
G1 X186.006Y156.192
G1 X186.492Y156.328
G1 X186.987Y156.426
G1 X187.488Y156.485
G1 X187.992Y156.505
G1 X188.498Y156.486
G1 X189.003Y156.427
G1 X189.505Y156.328
G1 X190.001Y156.189
G1 X190.489Y156.009
G1 X190.966Y155.788
G0 X190.966Y155.788
G1 X190.984
G0 X190.966Y155.77
G1 X192.998Y157.802
G0 X192.998Y157.802
G1 X193.308Y158.055
G1 X193.653Y158.235
G1 X194.019Y158.344
G1 X194.397Y158.38
G1 X194.775Y158.343
G1 X195.142Y158.235
G1 X195.486Y158.053
G1 X195.796Y157.8
G1 X196.049Y157.49
G1 X196.231Y157.145
G1 X196.339Y156.779
G1 X196.376Y156.401
G1 X196.34Y156.023
G1 X196.232Y155.657
G1 X196.051Y155.312
G1 X195.798Y155.002
G0 X195.798Y155.002
G1 X193.774Y152.978
G0 X193.771Y147.012
G1 X193.788
G0 X193.788Y147.012
G1 X195.098Y145.702
G0 X195.098Y145.702
G1 X195.351Y145.391
G1 X195.532Y145.047
G1 X195.64Y144.68
G1 X195.676Y144.302
G1 X195.639Y143.924
G1 X195.531Y143.558
G1 X195.349Y143.214
G1 X195.096Y142.903
G1 X194.786Y142.65
G1 X194.442Y142.469
G1 X194.075Y142.36
G1 X193.697Y142.323
G1 X193.319Y142.359
G1 X192.953Y142.468
G1 X192.608Y142.648
G1 X192.298Y142.902
G0 X192.298Y142.902
G1 X190.986Y144.214
G0 X190.986Y144.214
G1 Y144.229
G0 X190.986Y144.229
G1 X190.272Y143.912
G1 X189.533Y143.685
G1 X188.778Y143.549
G1 X188.014Y143.502
G1 X187.25Y143.545
G1 X186.494Y143.678
G1 X185.755Y143.901
G1 X185.039Y144.214
G0 X185.039Y144.214
G1 X185.01
G0 X185.01Y144.214
G1 X182.998Y142.202
G0 X182.998Y142.202
G1 X182.687Y141.948
G1 X182.343Y141.767
G1 X181.976Y141.658
G1 X181.598Y141.622
G1 X181.22Y141.658
G1 X180.853Y141.767
G1 X180.508Y141.948
G1 X180.198Y142.202
G1 X179.944Y142.512
G1 X179.763Y142.857
G1 X179.654Y143.223
G1 X179.618Y143.602
G1 X179.654Y143.98
G1 X179.763Y144.347
G1 X179.944Y144.691
G1 X180.198Y145.002
G0 X180.198Y145.002
G0 X180.198Y145.002
G1 X182.22Y147.024
G0 X182.22Y147.024
G0 X185.019Y144.224
G0 X183.498Y138.805
G1 X181.466Y136.773
G0 X181.466Y136.791
G1 X180.989Y137.012
G1 X180.501Y137.192
G1 X180.005Y137.332
G1 X179.503Y137.43
G1 X178.998Y137.489
G1 X178.492Y137.508
G1 X177.988Y137.488
G1 X177.487Y137.429
G1 X176.992Y137.331
G1 X176.506Y137.195
G1 X176.03Y137.022
G1 X175.568Y136.811
G1 X175.121Y136.562
G1 X174.692Y136.278
G1 X174.283Y135.956
G1 X173.897Y135.599
G1 X173.54Y135.212
G1 X173.22Y134.803
G1 X172.936Y134.373
G1 X172.689Y133.926
G1 X172.478Y133.463
G1 X172.306Y132.987
G1 X172.171Y132.5
G1 X172.074Y132.005
G1 X172.016Y131.504
G1 X171.997Y131
G1 X172.017Y130.494
G1 X172.077Y129.989
G1 X172.177Y129.487
G1 X172.317Y128.992
G1 X172.498Y128.504
G1 X172.72Y128.027
G0 X172.72Y128.027
G1 X170.698Y126.006
G0 X170.698Y126.006
G0 X170.698Y126.005
G1 X170.445Y125.694
G1 X170.264Y125.35
G1 X170.156Y124.983
G1 X170.12Y124.605
G1 X170.156Y124.228
G1 X170.265Y123.861
G1 X170.446Y123.517
G1 X170.699Y123.207
G1 X171.01Y122.953
G1 X171.354Y122.772
G1 X171.72Y122.663
G1 X172.098Y122.627
G1 X172.476Y122.663
G1 X172.843Y122.771
G1 X173.187Y122.952
G1 X173.498Y123.205
G0 X173.498Y123.205
G1 X175.51Y125.218
G0 X175.51Y125.218
G1 X175.539
G0 X175.519Y125.226
G0 X172.72Y128.027
G0 X166.598Y126.702
G1 X166.851Y126.391
G1 X167.032Y126.047
G1 X167.14Y125.68
G1 X167.176Y125.302
G1 X167.139Y124.924
G1 X167.031Y124.558
G1 X166.849Y124.214
G1 X166.596Y123.903
G1 X166.286Y123.65
G1 X165.942Y123.469
G1 X165.575Y123.36
G1 X165.197Y123.323
G1 X164.819Y123.359
G1 X164.453Y123.468
G1 X164.108Y123.648
G1 X163.798Y123.902
G0 X163.798Y123.902
G1 X162.486Y125.214
G0 X162.486Y125.214
G1 Y125.229
G0 X162.486Y125.229
G1 X161.772Y124.912
G1 X161.033Y124.685
G1 X160.278Y124.549
G1 X159.514Y124.502
G1 X158.75Y124.545
G1 X157.994Y124.678
G1 X157.255Y124.901
G1 X156.539Y125.214
G0 X156.539Y125.214
G1 X156.51
G0 X156.51Y125.214
G1 X154.498Y123.202
G0 X154.498Y123.202
G1 X154.187Y122.948
G1 X153.843Y122.767
G1 X153.476Y122.658
G1 X153.098Y122.622
G1 X152.72Y122.658
G1 X152.353Y122.767
G1 X152.008Y122.948
G1 X151.698Y123.202
G1 X151.444Y123.512
G1 X151.263Y123.857
G1 X151.154Y124.223
G1 X151.118Y124.602
G1 X151.154Y124.98
G1 X151.263Y125.347
G1 X151.444Y125.691
G1 X151.698Y126.002
G0 X151.698Y126.002
G0 X151.698Y126.002
G1 X153.72Y128.024
G0 X153.72Y128.024
G1 X153.498Y128.501
G1 X153.317Y128.989
G1 X153.177Y129.484
G1 X153.077Y129.986
G1 X153.017Y130.49
G1 X152.997Y130.996
G1 X153.016Y131.501
G1 X153.074Y132.002
G1 X153.171Y132.497
G1 X153.306Y132.983
G1 X153.478Y133.459
G1 X153.689Y133.922
G1 X153.936Y134.37
G1 X154.22Y134.799
G1 X154.54Y135.209
G1 X154.897Y135.596
G1 X155.283Y135.953
G1 X155.692Y136.274
G1 X156.121Y136.559
G1 X156.568Y136.807
G1 X157.03Y137.018
G1 X157.506Y137.192
G1 X157.992Y137.328
G1 X158.487Y137.426
G1 X158.988Y137.485
G1 X159.492Y137.505
G1 X159.998Y137.486
G1 X160.503Y137.427
G1 X161.005Y137.328
G1 X161.501Y137.189
G1 X161.989Y137.009
G1 X162.466Y136.788
G0 X162.466Y136.788
G1 X162.484
G0 X162.466Y136.77
G1 X164.498Y138.802
G0 X164.498Y138.802
G1 X164.808Y139.055
G1 X165.153Y139.235
G1 X165.519Y139.344
G1 X165.897Y139.38
G1 X166.275Y139.343
G1 X166.642Y139.235
G1 X166.986Y139.053
G1 X167.296Y138.8
G1 X167.549Y138.49
G1 X167.731Y138.145
G1 X167.839Y137.779
G1 X167.876Y137.401
G1 X167.84Y137.023
G1 X167.732Y136.657
G1 X167.551Y136.312
G1 X167.298Y136.002
G0 X167.298Y136.002
G1 X165.274Y133.978
G0 X165.271Y128.012
G1 X165.288
G0 X165.288Y128.012
G1 X166.598Y126.702
G0 X165.271Y128.012
G1 X165.589Y128.729
G1 X165.817Y129.472
G1 X165.954Y130.232
G1 X166Y131
G1 X165.955Y131.768
G1 X165.819Y132.528
G1 X165.592Y133.271
G1 X165.274Y133.989
G0 X153.72Y128.024
G0 X156.519Y125.224
G0 X181.486Y125.217
G1 X182.798Y123.905
G0 X182.798Y123.905
G1 X183.108Y123.651
G1 X183.453Y123.47
G1 X183.82Y123.361
G1 X184.198Y123.325
G1 X184.576Y123.361
G1 X184.943Y123.47
G1 X185.287Y123.651
G1 X185.598Y123.905
G1 X185.851Y124.215
G1 X186.033Y124.56
G1 X186.141Y124.927
G1 X186.178Y125.305
G1 X186.141Y125.683
G1 X186.033Y126.05
G1 X185.851Y126.394
G1 X185.598Y126.705
G0 X185.598Y126.705
G1 X184.288Y128.015
G0 X184.288Y128.015
G1 X184.271
G0 X184.271Y128.015
G1 X184.589Y128.733
G1 X184.817Y129.476
G1 X184.954Y130.235
G1 X185Y131.003
G1 X184.955Y131.771
G1 X184.819Y132.531
G1 X184.592Y133.274
G1 X184.274Y133.992
G0 X184.274Y133.981
G1 X186.298Y136.005
G0 X186.298Y136.005
G1 X186.551Y136.316
G1 X186.733Y136.66
G1 X186.841Y137.027
G1 X186.878Y137.405
G1 X186.841Y137.783
G1 X186.733Y138.15
G1 X186.551Y138.494
G1 X186.298Y138.805
G1 X185.987Y139.059
G1 X185.643Y139.24
G1 X185.276Y139.349
G1 X184.898Y139.385
G1 X184.52Y139.349
G1 X184.153Y139.24
G1 X183.808Y139.059
G1 X183.498Y138.805
G0 X181.484Y136.791
G1 X181.466
G0 X171.986Y144.229
G1 X171.272Y143.912
G1 X170.533Y143.685
G1 X169.778Y143.549
G1 X169.014Y143.502
G1 X168.25Y143.545
G1 X167.494Y143.678
G1 X166.755Y143.901
G1 X166.039Y144.214
G0 X155.771Y147.015
G1 X156.089Y147.733
G1 X156.317Y148.476
G1 X156.454Y149.235
G1 X156.5Y150.003
G1 X156.455Y150.771
G1 X156.319Y151.531
G1 X156.092Y152.274
G1 X155.774Y152.992
G0 X157.736Y163.229
G1 X157.022Y162.912
G1 X156.283Y162.685
G1 X155.528Y162.549
G1 X154.764Y162.502
G1 X154Y162.545
G1 X153.244Y162.678
G1 X152.505Y162.901
G1 X151.789Y163.214
G0 X179.521Y166.012
G1 X179.839Y166.729
G1 X180.067Y167.472
G1 X180.204Y168.232
G1 X180.25Y169
G1 X180.205Y169.768
G1 X180.069Y170.528
G1 X179.842Y171.271
G1 X179.524Y171.989
G0 X186.97Y166.024
G1 X186.748Y166.501
G1 X186.567Y166.989
G1 X186.427Y167.484
G1 X186.327Y167.986
G1 X186.267Y168.49
G1 X186.247Y168.996
G1 X186.266Y169.501
G1 X186.324Y170.002
G1 X186.421Y170.497
G1 X186.556Y170.983
G1 X186.728Y171.459
G1 X186.939Y171.922
G1 X187.186Y172.37
G1 X187.47Y172.799
G1 X187.79Y173.209
G1 X188.147Y173.596
G1 X188.533Y173.953
G1 X188.942Y174.274
G1 X189.371Y174.559
G1 X189.818Y174.807
G1 X190.28Y175.018
G1 X190.756Y175.192
G1 X191.242Y175.328
G1 X191.737Y175.426
G1 X192.238Y175.485
G1 X192.742Y175.505
G1 X193.248Y175.486
G1 X193.753Y175.427
G1 X194.255Y175.328
G1 X194.751Y175.189
G1 X195.239Y175.009
G1 X195.716Y174.788
G0 X195.716Y174.788
G1 X195.734
G0 X195.716Y174.77
G1 X197.748Y176.802
G0 X197.748Y176.802
G1 X198.058Y177.055
G1 X198.403Y177.237
G1 X198.77Y177.345
G1 X199.148Y177.382
G1 X199.526Y177.345
G1 X199.893Y177.237
G1 X200.237Y177.055
G1 X200.548Y176.802
G1 X200.801Y176.491
G1 X200.983Y176.147
G1 X201.091Y175.78
G1 X201.128Y175.402
G1 X201.091Y175.023
G1 X200.983Y174.657
G1 X200.801Y174.312
G1 X200.548Y174.002
G0 X200.548Y174.002
G1 X198.524Y171.978
G0 X198.521Y166.012
G1 X198.538
G0 X198.538Y166.012
G1 X199.848Y164.702
G0 X199.848Y164.702
G1 X200.101Y164.391
G1 X200.282Y164.047
G1 X200.39Y163.68
G1 X200.426Y163.302
G1 X200.389Y162.924
G1 X200.281Y162.558
G1 X200.099Y162.214
G1 X199.846Y161.903
G1 X199.536Y161.65
G1 X199.192Y161.469
G1 X198.825Y161.36
G1 X198.447Y161.323
G1 X198.069Y161.359
G1 X197.703Y161.468
G1 X197.358Y161.648
G1 X197.048Y161.902
G0 X197.048Y161.902
G1 X195.736Y163.214
G0 X195.736Y163.214
G1 Y163.229
G0 X195.736Y163.229
G1 X195.022Y162.912
G1 X194.283Y162.685
G1 X193.528Y162.549
G1 X192.764Y162.502
G1 X192Y162.545
G1 X191.244Y162.678
G1 X190.505Y162.901
G1 X189.789Y163.214
G0 X189.789Y163.214
G1 X189.76
G0 X189.76Y163.214
G1 X187.748Y161.202
G0 X187.748Y161.202
G1 X187.437Y160.948
G1 X187.093Y160.767
G1 X186.726Y160.658
G1 X186.348Y160.622
G1 X185.97Y160.658
G1 X185.603Y160.767
G1 X185.258Y160.948
G1 X184.948Y161.202
G1 X184.694Y161.512
G1 X184.513Y161.857
G1 X184.404Y162.223
G1 X184.368Y162.602
G1 X184.404Y162.98
G1 X184.513Y163.347
G1 X184.694Y163.691
G1 X184.948Y164.002
G0 X184.948Y164.002
G0 X184.948Y164.002
G1 X186.97Y166.024
G0 X186.97Y166.024
G0 X189.769Y163.224
G0 X198.521Y166.012
G1 X198.839Y166.729
G1 X199.067Y167.472
G1 X199.204Y168.232
G1 X199.25Y169
G1 X199.205Y169.768
G1 X199.069Y170.528
G1 X198.842Y171.271
G1 X198.524Y171.989
G0 X205.97Y166.024
G1 X205.748Y166.501
G1 X205.567Y166.989
G1 X205.427Y167.484
G1 X205.327Y167.986
G1 X205.267Y168.49
G1 X205.247Y168.996
G1 X205.266Y169.501
G1 X205.324Y170.002
G1 X205.421Y170.497
G1 X205.556Y170.983
G1 X205.728Y171.459
G1 X205.939Y171.922
G1 X206.186Y172.37
G1 X206.47Y172.799
G1 X206.79Y173.209
G1 X207.147Y173.596
G1 X207.533Y173.953
G1 X207.942Y174.274
G1 X208.371Y174.559
G1 X208.818Y174.807
G1 X209.28Y175.018
G1 X209.756Y175.192
G1 X210.242Y175.328
G1 X210.737Y175.426
G1 X211.238Y175.485
G1 X211.742Y175.505
G1 X212.248Y175.486
G1 X212.753Y175.427
G1 X213.255Y175.328
G1 X213.751Y175.189
G1 X214.239Y175.009
G1 X214.716Y174.788
G0 X214.716Y174.788
G1 X214.734
G0 X214.716Y174.77
G1 X216.748Y176.802
G0 X216.748Y176.802
G1 X217.058Y177.055
G1 X217.403Y177.237
G1 X217.77Y177.345
G1 X218.148Y177.382
G1 X218.526Y177.345
G1 X218.893Y177.237
G1 X219.237Y177.055
G1 X219.548Y176.802
G1 X219.801Y176.491
G1 X219.983Y176.147
G1 X220.091Y175.78
G1 X220.128Y175.402
G1 X220.091Y175.023
G1 X219.983Y174.657
G1 X219.801Y174.312
G1 X219.548Y174.002
G0 X219.548Y174.002
G1 X217.524Y171.978
G0 X217.521Y166.012
G1 X217.538
G0 X217.538Y166.012
G1 X218.848Y164.702
G0 X218.848Y164.702
G1 X219.101Y164.391
G1 X219.282Y164.047
G1 X219.39Y163.68
G1 X219.426Y163.302
G1 X219.389Y162.924
G1 X219.281Y162.558
G1 X219.099Y162.214
G1 X218.846Y161.903
G1 X218.536Y161.65
G1 X218.192Y161.469
G1 X217.825Y161.36
G1 X217.447Y161.323
G1 X217.069Y161.359
G1 X216.703Y161.468
G1 X216.358Y161.648
G1 X216.048Y161.902
G0 X216.048Y161.902
G1 X214.736Y163.214
G0 X214.736Y163.214
G1 Y163.229
G0 X214.736Y163.229
G1 X214.022Y162.912
G1 X213.283Y162.685
G1 X212.528Y162.549
G1 X211.764Y162.502
G1 X211Y162.545
G1 X210.244Y162.678
G1 X209.505Y162.901
G1 X208.789Y163.214
G0 X208.789Y163.214
G1 X208.76
G0 X208.76Y163.214
G1 X206.748Y161.202
G0 X206.748Y161.202
G1 X206.437Y160.948
G1 X206.093Y160.767
G1 X205.726Y160.658
G1 X205.348Y160.622
G1 X204.97Y160.658
G1 X204.603Y160.767
G1 X204.258Y160.948
G1 X203.948Y161.202
G1 X203.694Y161.512
G1 X203.513Y161.857
G1 X203.404Y162.223
G1 X203.368Y162.602
G1 X203.404Y162.98
G1 X203.513Y163.347
G1 X203.694Y163.691
G1 X203.948Y164.002
G0 X203.948Y164.002
G0 X203.948Y164.002
G1 X205.97Y166.024
G0 X205.97Y166.024
G0 X208.769Y163.224
G0 X211.998Y157.802
G1 X209.966Y155.77
G0 X209.966Y155.788
G1 X209.489Y156.009
G1 X209.001Y156.189
G1 X208.505Y156.328
G1 X208.003Y156.427
G1 X207.498Y156.486
G1 X206.992Y156.505
G1 X206.488Y156.485
G1 X205.987Y156.426
G1 X205.492Y156.328
G1 X205.006Y156.192
G1 X204.53Y156.018
G1 X204.068Y155.807
G1 X203.621Y155.559
G1 X203.192Y155.274
G1 X202.783Y154.953
G1 X202.397Y154.596
G1 X202.04Y154.209
G1 X201.72Y153.799
G1 X201.436Y153.37
G1 X201.189Y152.922
G1 X200.978Y152.459
G1 X200.806Y151.983
G1 X200.671Y151.497
G1 X200.574Y151.002
G1 X200.516Y150.501
G1 X200.497Y149.996
G1 X200.517Y149.49
G1 X200.577Y148.986
G1 X200.677Y148.484
G1 X200.817Y147.989
G1 X200.998Y147.501
G1 X201.22Y147.024
G0 X201.22Y147.024
G1 X199.198Y145.002
G0 X199.198Y145.002
G0 X199.198Y145.002
G1 X198.944Y144.691
G1 X198.763Y144.347
G1 X198.654Y143.98
G1 X198.618Y143.602
G1 X198.654Y143.223
G1 X198.763Y142.857
G1 X198.944Y142.512
G1 X199.198Y142.202
G1 X199.508Y141.948
G1 X199.853Y141.767
G1 X200.22Y141.658
G1 X200.598Y141.622
G1 X200.976Y141.658
G1 X201.343Y141.767
G1 X201.687Y141.948
G1 X201.998Y142.202
G0 X201.998Y142.202
G1 X204.01Y144.214
G0 X204.01Y144.214
G1 X204.039
G0 X204.019Y144.223
G0 X201.22Y147.024
G0 X193.771Y147.012
G1 X194.089Y147.729
G1 X194.317Y148.472
G1 X194.454Y149.232
G1 X194.5Y150
G1 X194.455Y150.768
G1 X194.319Y151.528
G1 X194.092Y152.271
G1 X193.774Y152.989
G0 X209.966Y155.788
G1 X209.984
G0 X211.998Y157.802
G1 X212.308Y158.055
G1 X212.653Y158.235
G1 X213.019Y158.344
G1 X213.397Y158.38
G1 X213.775Y158.343
G1 X214.142Y158.235
G1 X214.486Y158.053
G1 X214.796Y157.8
G1 X215.049Y157.49
G1 X215.231Y157.145
G1 X215.339Y156.779
G1 X215.376Y156.401
G1 X215.34Y156.023
G1 X215.232Y155.657
G1 X215.051Y155.312
G1 X214.798Y155.002
G0 X214.798Y155.002
G1 X212.774Y152.978
G0 X212.771Y147.012
G1 X212.788
G0 X212.788Y147.012
G1 X214.098Y145.702
G0 X214.098Y145.702
G1 X214.351Y145.391
G1 X214.532Y145.047
G1 X214.64Y144.68
G1 X214.676Y144.302
G1 X214.639Y143.924
G1 X214.531Y143.558
G1 X214.349Y143.214
G1 X214.096Y142.903
G1 X213.786Y142.65
G1 X213.442Y142.469
G1 X213.075Y142.36
G1 X212.697Y142.323
G1 X212.319Y142.359
G1 X211.953Y142.468
G1 X211.608Y142.648
G1 X211.298Y142.902
G0 X211.298Y142.902
G1 X209.986Y144.214
G0 X209.986Y144.214
G1 Y144.229
G0 X209.986Y144.229
G1 X209.272Y143.912
G1 X208.533Y143.685
G1 X207.778Y143.549
G1 X207.014Y143.502
G1 X206.25Y143.545
G1 X205.494Y143.678
G1 X204.755Y143.901
G1 X204.039Y144.214
G0 X202.498Y138.802
G1 X200.466Y136.77
G0 X200.466Y136.788
G1 X199.989Y137.009
G1 X199.501Y137.189
G1 X199.005Y137.328
G1 X198.503Y137.427
G1 X197.998Y137.486
G1 X197.492Y137.505
G1 X196.988Y137.485
G1 X196.487Y137.426
G1 X195.992Y137.328
G1 X195.506Y137.192
G1 X195.03Y137.018
G1 X194.568Y136.807
G1 X194.121Y136.559
G1 X193.692Y136.274
G1 X193.283Y135.953
G1 X192.897Y135.596
G1 X192.54Y135.209
G1 X192.22Y134.799
G1 X191.936Y134.37
G1 X191.689Y133.922
G1 X191.478Y133.459
G1 X191.306Y132.983
G1 X191.171Y132.497
G1 X191.074Y132.002
G1 X191.016Y131.501
G1 X190.997Y130.996
G1 X191.017Y130.49
G1 X191.077Y129.986
G1 X191.177Y129.484
G1 X191.317Y128.989
G1 X191.498Y128.501
G1 X191.72Y128.024
G0 X191.72Y128.024
G0 X191.72Y128.024
G1 X189.698Y126.002
G0 X189.698Y126.002
G0 X189.698Y126.002
G1 X189.444Y125.691
G1 X189.263Y125.347
G1 X189.154Y124.98
G1 X189.118Y124.602
G1 X189.154Y124.223
G1 X189.263Y123.857
G1 X189.444Y123.512
G1 X189.698Y123.202
G1 X190.008Y122.948
G1 X190.353Y122.767
G1 X190.72Y122.658
G1 X191.098Y122.622
G1 X191.476Y122.658
G1 X191.843Y122.767
G1 X192.187Y122.948
G1 X192.498Y123.202
G0 X192.498Y123.202
G1 X194.51Y125.214
G0 X194.51Y125.214
G1 X194.539
G0 X194.519Y125.223
G0 X200.486Y125.229
G1 Y125.214
G0 X200.486Y125.214
G1 X201.798Y123.902
G0 X201.798Y123.902
G1 X202.108Y123.648
G1 X202.453Y123.468
G1 X202.819Y123.359
G1 X203.197Y123.323
G1 X203.575Y123.36
G1 X203.942Y123.469
G1 X204.286Y123.65
G1 X204.596Y123.903
G1 X204.849Y124.214
G1 X205.031Y124.558
G1 X205.139Y124.924
G1 X205.176Y125.302
G1 X205.14Y125.68
G1 X205.032Y126.047
G1 X204.851Y126.391
G1 X204.598Y126.702
G0 X204.598Y126.702
G1 X203.288Y128.012
G0 X203.288Y128.012
G1 X203.271
G0 X203.271Y128.012
G1 X203.589Y128.729
G1 X203.817Y129.472
G1 X203.954Y130.232
G1 X204Y131
G1 X203.955Y131.768
G1 X203.819Y132.528
G1 X203.592Y133.271
G1 X203.274Y133.989
G0 X203.274Y133.978
G1 X205.298Y136.002
G0 X205.298Y136.002
G1 X205.551Y136.312
G1 X205.732Y136.657
G1 X205.84Y137.023
G1 X205.876Y137.401
G1 X205.839Y137.779
G1 X205.731Y138.145
G1 X205.549Y138.49
G1 X205.296Y138.8
G1 X204.986Y139.053
G1 X204.642Y139.235
G1 X204.275Y139.343
G1 X203.897Y139.38
G1 X203.519Y139.344
G1 X203.153Y139.235
G1 X202.808Y139.055
G1 X202.498Y138.802
G0 X200.484Y136.788
G1 X200.466
G0 X210.72Y128.024
G1 X210.498Y128.501
G1 X210.317Y128.989
G1 X210.177Y129.484
G1 X210.077Y129.986
G1 X210.017Y130.49
G1 X209.997Y130.996
G1 X210.016Y131.501
G1 X210.074Y132.002
G1 X210.171Y132.497
G1 X210.306Y132.983
G1 X210.478Y133.459
G1 X210.689Y133.922
G1 X210.936Y134.37
G1 X211.22Y134.799
G1 X211.54Y135.209
G1 X211.897Y135.596
G1 X212.283Y135.953
G1 X212.692Y136.274
G1 X213.121Y136.559
G1 X213.568Y136.807
G1 X214.03Y137.018
G1 X214.506Y137.192
G1 X214.992Y137.328
G1 X215.487Y137.426
G1 X215.988Y137.485
G1 X216.492Y137.505
G1 X216.998Y137.486
G1 X217.503Y137.427
G1 X218.005Y137.328
G1 X218.501Y137.189
G1 X218.989Y137.009
G1 X219.466Y136.788
G0 X219.466Y136.788
G1 X219.484
G0 X219.466Y136.77
G1 X221.498Y138.802
G0 X221.498Y138.802
G1 X221.808Y139.055
G1 X222.153Y139.235
G1 X222.519Y139.344
G1 X222.897Y139.38
G1 X223.275Y139.343
G1 X223.642Y139.235
G1 X223.986Y139.053
G1 X224.296Y138.8
G1 X224.549Y138.49
G1 X224.731Y138.145
G1 X224.839Y137.779
G1 X224.876Y137.401
G1 X224.84Y137.023
G1 X224.732Y136.657
G1 X224.551Y136.312
G1 X224.298Y136.002
G0 X224.298Y136.002
G1 X222.274Y133.978
G0 X222.271Y128.012
G1 X222.288
G0 X222.288Y128.012
G1 X223.598Y126.702
G0 X223.598Y126.702
G1 X223.851Y126.391
G1 X224.032Y126.047
G1 X224.14Y125.68
G1 X224.176Y125.302
G1 X224.139Y124.924
G1 X224.031Y124.558
G1 X223.849Y124.214
G1 X223.596Y123.903
G1 X223.286Y123.65
G1 X222.942Y123.469
G1 X222.575Y123.36
G1 X222.197Y123.323
G1 X221.819Y123.359
G1 X221.453Y123.468
G1 X221.108Y123.648
G1 X220.798Y123.902
G0 X220.798Y123.902
G1 X219.486Y125.214
G0 X219.486Y125.214
G1 Y125.229
G0 X219.486Y125.229
G1 X218.772Y124.912
G1 X218.033Y124.685
G1 X217.278Y124.549
G1 X216.514Y124.502
G1 X215.75Y124.545
G1 X214.994Y124.678
G1 X214.255Y124.901
G1 X213.539Y125.214
G0 X213.539Y125.214
G1 X213.51
G0 X213.51Y125.214
G1 X211.498Y123.202
G0 X211.498Y123.202
G1 X211.187Y122.948
G1 X210.843Y122.767
G1 X210.476Y122.658
G1 X210.098Y122.622
G1 X209.72Y122.658
G1 X209.353Y122.767
G1 X209.008Y122.948
G1 X208.698Y123.202
G1 X208.444Y123.512
G1 X208.263Y123.857
G1 X208.154Y124.223
G1 X208.118Y124.602
G1 X208.154Y124.98
G1 X208.263Y125.347
G1 X208.444Y125.691
G1 X208.698Y126.002
G0 X208.698Y126.002
G0 X208.698Y126.002
G1 X210.72Y128.024
G0 X210.72Y128.024
G0 X213.519Y125.224
G0 X222.271Y128.012
G1 X222.589Y128.729
G1 X222.817Y129.472
G1 X222.954Y130.232
G1 X223Y131
G1 X222.955Y131.768
G1 X222.819Y132.528
G1 X222.592Y133.271
G1 X222.274Y133.989
G0 X220.998Y142.202
G1 X220.687Y141.948
G1 X220.343Y141.767
G1 X219.976Y141.658
G1 X219.598Y141.622
G1 X219.22Y141.658
G1 X218.853Y141.767
G1 X218.508Y141.948
G1 X218.198Y142.202
G1 X217.944Y142.512
G1 X217.763Y142.857
G1 X217.654Y143.223
G1 X217.618Y143.602
G1 X217.654Y143.98
G1 X217.763Y144.347
G1 X217.944Y144.691
G1 X218.198Y145.002
G0 X218.198Y145.002
G0 X218.198Y145.002
G1 X220.22Y147.024
G0 X220.22Y147.024
G1 X219.998Y147.501
G1 X219.817Y147.989
G1 X219.677Y148.484
G1 X219.577Y148.986
G1 X219.517Y149.49
G1 X219.497Y149.996
G1 X219.516Y150.501
G1 X219.574Y151.002
G1 X219.671Y151.497
G1 X219.806Y151.983
G1 X219.978Y152.459
G1 X220.189Y152.922
G1 X220.436Y153.37
G1 X220.72Y153.799
G1 X221.04Y154.209
G1 X221.397Y154.596
G1 X221.783Y154.953
G1 X222.192Y155.274
G1 X222.621Y155.559
G1 X223.068Y155.807
G1 X223.53Y156.018
G1 X224.006Y156.192
G1 X224.492Y156.328
G1 X224.987Y156.426
G1 X225.488Y156.485
G1 X225.992Y156.505
G1 X226.498Y156.486
G1 X227.003Y156.427
G1 X227.505Y156.328
G1 X228.001Y156.189
G1 X228.489Y156.009
G1 X228.966Y155.788
G0 X228.966Y155.788
G1 X228.984
G0 X228.966Y155.77
G1 X230.998Y157.802
G0 X230.998Y157.802
G1 X231.308Y158.055
G1 X231.653Y158.235
G1 X232.019Y158.344
G1 X232.397Y158.38
G1 X232.775Y158.343
G1 X233.142Y158.235
G1 X233.486Y158.053
G1 X233.796Y157.8
G1 X234.049Y157.49
G1 X234.231Y157.145
G1 X234.339Y156.779
G1 X234.376Y156.401
G1 X234.34Y156.023
G1 X234.232Y155.657
G1 X234.051Y155.312
G1 X233.798Y155.002
G0 X233.798Y155.002
G1 X231.774Y152.978
G0 X231.771Y147.012
G1 X231.788
G0 X231.788Y147.012
G1 X233.098Y145.702
G0 X233.098Y145.702
G1 X233.351Y145.391
G1 X233.532Y145.047
G1 X233.64Y144.68
G1 X233.676Y144.302
G1 X233.639Y143.924
G1 X233.531Y143.558
G1 X233.349Y143.214
G1 X233.096Y142.903
G1 X232.786Y142.65
G1 X232.442Y142.469
G1 X232.075Y142.36
G1 X231.697Y142.323
G1 X231.319Y142.359
G1 X230.953Y142.468
G1 X230.608Y142.648
G1 X230.298Y142.902
G0 X230.298Y142.902
G1 X228.986Y144.214
G0 X228.986Y144.214
G1 Y144.229
G0 X228.986Y144.229
G1 X228.272Y143.912
G1 X227.533Y143.685
G1 X226.778Y143.549
G1 X226.014Y143.502
G1 X225.25Y143.545
G1 X224.494Y143.678
G1 X223.755Y143.901
G1 X223.039Y144.214
G0 X223.039Y144.214
G1 X223.01
G0 X223.01Y144.214
G1 X220.998Y142.202
G0 X223.019Y144.223
G0 X220.22Y147.024
G0 X212.771Y147.012
G1 X213.089Y147.729
G1 X213.317Y148.472
G1 X213.454Y149.232
G1 X213.5Y150
G1 X213.455Y150.768
G1 X213.319Y151.528
G1 X213.092Y152.271
G1 X212.774Y152.989
G0 X225.748Y161.202
G1 X225.437Y160.948
G1 X225.093Y160.767
G1 X224.726Y160.658
G1 X224.348Y160.622
G1 X223.97Y160.658
G1 X223.603Y160.767
G1 X223.258Y160.948
G1 X222.948Y161.202
G1 X222.694Y161.512
G1 X222.513Y161.857
G1 X222.404Y162.223
G1 X222.368Y162.602
G1 X222.404Y162.98
G1 X222.513Y163.347
G1 X222.694Y163.691
G1 X222.948Y164.002
G0 X222.948Y164.002
G0 X222.948Y164.002
G1 X224.97Y166.024
G0 X224.97Y166.024
G1 X224.748Y166.501
G1 X224.567Y166.989
G1 X224.427Y167.484
G1 X224.327Y167.986
G1 X224.267Y168.49
G1 X224.247Y168.996
G1 X224.266Y169.501
G1 X224.324Y170.002
G1 X224.421Y170.497
G1 X224.556Y170.983
G1 X224.728Y171.459
G1 X224.939Y171.922
G1 X225.186Y172.37
G1 X225.47Y172.799
G1 X225.79Y173.209
G1 X226.147Y173.596
G1 X226.533Y173.953
G1 X226.942Y174.274
G1 X227.371Y174.559
G1 X227.818Y174.807
G1 X228.28Y175.018
G1 X228.756Y175.192
G1 X229.242Y175.328
G1 X229.737Y175.426
G1 X230.238Y175.485
G1 X230.742Y175.505
G1 X231.248Y175.486
G1 X231.753Y175.427
G1 X232.255Y175.328
G1 X232.751Y175.189
G1 X233.239Y175.009
G1 X233.716Y174.788
G0 X233.716Y174.788
G1 X233.734
G0 X233.716Y174.77
G1 X235.748Y176.802
G0 X235.748Y176.802
G1 X236.058Y177.055
G1 X236.403Y177.237
G1 X236.77Y177.345
G1 X237.148Y177.382
G1 X237.526Y177.345
G1 X237.893Y177.237
G1 X238.237Y177.055
G1 X238.548Y176.802
G1 X238.801Y176.491
G1 X238.983Y176.147
G1 X239.091Y175.78
G1 X239.128Y175.402
G1 X239.091Y175.023
G1 X238.983Y174.657
G1 X238.801Y174.312
G1 X238.548Y174.002
G0 X238.548Y174.002
G1 X236.524Y171.978
G0 X236.521Y166.012
G1 X236.538
G0 X236.538Y166.012
G1 X237.848Y164.702
G0 X237.848Y164.702
G1 X238.101Y164.391
G1 X238.282Y164.047
G1 X238.39Y163.68
G1 X238.426Y163.302
G1 X238.389Y162.924
G1 X238.281Y162.558
G1 X238.099Y162.214
G1 X237.846Y161.903
G1 X237.536Y161.65
G1 X237.192Y161.469
G1 X236.825Y161.36
G1 X236.447Y161.323
G1 X236.069Y161.359
G1 X235.703Y161.468
G1 X235.358Y161.648
G1 X235.048Y161.902
G0 X235.048Y161.902
G1 X233.736Y163.214
G0 X233.736Y163.214
G1 Y163.229
G0 X233.736Y163.229
G1 X233.022Y162.912
G1 X232.283Y162.685
G1 X231.528Y162.549
G1 X230.764Y162.502
G1 X230Y162.545
G1 X229.244Y162.678
G1 X228.505Y162.901
G1 X227.789Y163.214
G0 X227.789Y163.214
G1 X227.76
G0 X227.76Y163.214
G1 X225.748Y161.202
G0 X227.769Y163.223
G0 X224.97Y166.024
G0 X217.521Y166.012
G1 X217.839Y166.729
G1 X218.067Y167.472
G1 X218.204Y168.232
G1 X218.25Y169
G1 X218.205Y169.768
G1 X218.069Y170.528
G1 X217.842Y171.271
G1 X217.524Y171.989
G0 X216.248Y180.202
G1 X215.937Y179.948
G1 X215.593Y179.767
G1 X215.226Y179.659
G1 X214.848Y179.622
G1 X214.47Y179.659
G1 X214.103Y179.767
G1 X213.759Y179.949
G1 X213.448Y180.202
G1 X213.195Y180.513
G1 X213.014Y180.857
G1 X212.905Y181.224
G1 X212.868Y181.602
G1 X212.905Y181.98
G1 X213.013Y182.347
G1 X213.194Y182.691
G1 X213.448Y183.002
G0 X213.448Y183.002
G0 X213.448Y183.002
G1 X215.47Y185.024
G0 X215.47Y185.024
G1 X215.248Y185.501
G1 X215.067Y185.989
G1 X214.927Y186.484
G1 X214.827Y186.986
G1 X214.767Y187.49
G1 X214.747Y187.996
G1 X214.766Y188.501
G1 X214.824Y189.002
G1 X214.921Y189.497
G1 X215.056Y189.983
G1 X215.228Y190.459
G1 X215.439Y190.922
G1 X215.686Y191.37
G1 X215.97Y191.799
G1 X216.29Y192.209
G1 X216.647Y192.596
G1 X217.033Y192.953
G1 X217.442Y193.274
G1 X217.871Y193.559
G1 X218.318Y193.807
G1 X218.78Y194.018
G1 X219.256Y194.192
G1 X219.742Y194.328
G1 X220.237Y194.426
G1 X220.738Y194.485
G1 X221.242Y194.505
G1 X221.748Y194.486
G1 X222.253Y194.427
G1 X222.755Y194.328
G1 X223.251Y194.189
G1 X223.739Y194.009
G1 X224.216Y193.788
G0 X224.216Y193.788
G1 X224.234
G0 X224.216Y193.77
G1 X226.248Y195.802
G0 X226.248Y195.802
G1 X226.558Y196.055
G1 X226.903Y196.237
G1 X227.27Y196.345
G1 X227.648Y196.382
G1 X228.026Y196.345
G1 X228.393Y196.237
G1 X228.737Y196.055
G1 X229.048Y195.802
G1 X229.301Y195.491
G1 X229.483Y195.147
G1 X229.591Y194.78
G1 X229.628Y194.402
G1 X229.591Y194.023
G1 X229.483Y193.657
G1 X229.301Y193.312
G1 X229.048Y193.002
G0 X229.048Y193.002
G1 X227.024Y190.978
G0 X227.021Y185.012
G1 X227.038
G0 X227.038Y185.012
G1 X228.348Y183.702
G0 X228.348Y183.702
G1 X228.601Y183.391
G1 X228.782Y183.047
G1 X228.891Y182.68
G1 X228.927Y182.302
G1 X228.891Y181.924
G1 X228.782Y181.557
G1 X228.601Y181.213
G1 X228.347Y180.902
G1 X228.037Y180.649
G1 X227.692Y180.467
G1 X227.326Y180.359
G1 X226.947Y180.322
G1 X226.569Y180.359
G1 X226.203Y180.467
G1 X225.858Y180.648
G1 X225.548Y180.902
G0 X225.548Y180.902
G1 X224.236Y182.214
G0 X224.236Y182.214
G1 Y182.229
G0 X224.236Y182.229
G1 X223.522Y181.912
G1 X222.783Y181.685
G1 X222.028Y181.549
G1 X221.264Y181.502
G1 X220.5Y181.545
G1 X219.744Y181.678
G1 X219.005Y181.901
G1 X218.289Y182.214
G0 X218.289Y182.214
G1 X218.26
G0 X218.26Y182.214
G1 X216.248Y180.202
G0 X218.269Y182.223
G0 X215.47Y185.024
G0 X209.348Y183.702
G1 X209.601Y183.391
G1 X209.782Y183.047
G1 X209.891Y182.68
G1 X209.927Y182.302
G1 X209.891Y181.924
G1 X209.782Y181.557
G1 X209.601Y181.213
G1 X209.347Y180.902
G1 X209.037Y180.649
G1 X208.692Y180.467
G1 X208.326Y180.359
G1 X207.947Y180.322
G1 X207.569Y180.359
G1 X207.203Y180.467
G1 X206.858Y180.648
G1 X206.548Y180.902
G0 X206.548Y180.902
G1 X205.236Y182.214
G0 X205.236Y182.214
G1 Y182.229
G0 X205.236Y182.229
G1 X204.522Y181.912
G1 X203.783Y181.685
G1 X203.028Y181.549
G1 X202.264Y181.502
G1 X201.5Y181.545
G1 X200.744Y181.678
G1 X200.005Y181.901
G1 X199.289Y182.214
G0 X199.289Y182.214
G1 X199.26
G0 X199.26Y182.214
G1 X197.248Y180.202
G0 X197.248Y180.202
G1 X196.937Y179.948
G1 X196.593Y179.767
G1 X196.226Y179.659
G1 X195.848Y179.622
G1 X195.47Y179.659
G1 X195.103Y179.767
G1 X194.759Y179.949
G1 X194.448Y180.202
G1 X194.195Y180.513
G1 X194.014Y180.857
G1 X193.905Y181.224
G1 X193.868Y181.602
G1 X193.905Y181.98
G1 X194.013Y182.347
G1 X194.194Y182.691
G1 X194.448Y183.002
G0 X194.448Y183.002
G0 X194.448Y183.002
G1 X196.47Y185.024
G0 X196.47Y185.024
G1 X196.248Y185.501
G1 X196.067Y185.989
G1 X195.927Y186.484
G1 X195.827Y186.986
G1 X195.767Y187.49
G1 X195.747Y187.996
G1 X195.766Y188.501
G1 X195.824Y189.002
G1 X195.921Y189.497
G1 X196.056Y189.983
G1 X196.228Y190.459
G1 X196.439Y190.922
G1 X196.686Y191.37
G1 X196.97Y191.799
G1 X197.29Y192.209
G1 X197.647Y192.596
G1 X198.033Y192.953
G1 X198.442Y193.274
G1 X198.871Y193.559
G1 X199.318Y193.807
G1 X199.78Y194.018
G1 X200.256Y194.192
G1 X200.742Y194.328
G1 X201.237Y194.426
G1 X201.738Y194.485
G1 X202.242Y194.505
G1 X202.748Y194.486
G1 X203.253Y194.427
G1 X203.755Y194.328
G1 X204.251Y194.189
G1 X204.739Y194.009
G1 X205.216Y193.788
G0 X205.216Y193.788
G1 X205.234
G0 X205.216Y193.77
G1 X207.248Y195.802
G0 X207.248Y195.802
G1 X207.558Y196.055
G1 X207.903Y196.237
G1 X208.27Y196.345
G1 X208.648Y196.382
G1 X209.026Y196.345
G1 X209.393Y196.237
G1 X209.737Y196.055
G1 X210.048Y195.802
G1 X210.301Y195.491
G1 X210.483Y195.147
G1 X210.591Y194.78
G1 X210.628Y194.402
G1 X210.591Y194.023
G1 X210.483Y193.657
G1 X210.301Y193.312
G1 X210.048Y193.002
G0 X210.048Y193.002
G1 X208.024Y190.978
G0 X208.021Y185.012
G1 X208.038
G0 X208.038Y185.012
G1 X209.348Y183.702
G0 X208.021Y185.012
G1 X208.339Y185.729
G1 X208.567Y186.472
G1 X208.704Y187.232
G1 X208.75Y188
G1 X208.705Y188.768
G1 X208.569Y189.528
G1 X208.342Y190.271
G1 X208.024Y190.989
G0 X196.47Y185.024
G0 X199.269Y182.224
G0 X190.348Y183.702
G1 X190.601Y183.391
G1 X190.782Y183.047
G1 X190.891Y182.68
G1 X190.927Y182.302
G1 X190.891Y181.924
G1 X190.782Y181.557
G1 X190.601Y181.213
G1 X190.347Y180.902
G1 X190.037Y180.649
G1 X189.692Y180.467
G1 X189.326Y180.359
G1 X188.947Y180.322
G1 X188.569Y180.359
G1 X188.203Y180.467
G1 X187.858Y180.648
G1 X187.548Y180.902
G0 X187.548Y180.902
G1 X186.236Y182.214
G0 X186.236Y182.214
G1 Y182.229
G0 X186.236Y182.229
G1 X185.522Y181.912
G1 X184.783Y181.685
G1 X184.028Y181.549
G1 X183.264Y181.502
G1 X182.5Y181.545
G1 X181.744Y181.678
G1 X181.005Y181.901
G1 X180.289Y182.214
G0 X180.289Y182.214
G1 X180.26
G0 X180.26Y182.214
G1 X178.248Y180.202
G0 X178.248Y180.202
G1 X177.937Y179.948
G1 X177.593Y179.767
G1 X177.226Y179.659
G1 X176.848Y179.622
G1 X176.47Y179.659
G1 X176.103Y179.767
G1 X175.759Y179.949
G1 X175.448Y180.202
G1 X175.195Y180.513
G1 X175.014Y180.857
G1 X174.905Y181.224
G1 X174.868Y181.602
G1 X174.905Y181.98
G1 X175.013Y182.347
G1 X175.194Y182.691
G1 X175.448Y183.002
G0 X175.448Y183.002
G0 X175.448Y183.002
G1 X177.47Y185.024
G0 X177.47Y185.024
G1 X177.248Y185.501
G1 X177.067Y185.989
G1 X176.927Y186.484
G1 X176.827Y186.986
G1 X176.767Y187.49
G1 X176.747Y187.996
G1 X176.766Y188.501
G1 X176.824Y189.002
G1 X176.921Y189.497
G1 X177.056Y189.983
G1 X177.228Y190.459
G1 X177.439Y190.922
G1 X177.686Y191.37
G1 X177.97Y191.799
G1 X178.29Y192.209
G1 X178.647Y192.596
G1 X179.033Y192.953
G1 X179.442Y193.274
G1 X179.871Y193.559
G1 X180.318Y193.807
G1 X180.78Y194.018
G1 X181.256Y194.192
G1 X181.742Y194.328
G1 X182.237Y194.426
G1 X182.738Y194.485
G1 X183.242Y194.505
G1 X183.748Y194.486
G1 X184.253Y194.427
G1 X184.755Y194.328
G1 X185.251Y194.189
G1 X185.739Y194.009
G1 X186.216Y193.788
G0 X186.216Y193.788
G1 X186.234
G0 X186.216Y193.77
G1 X188.248Y195.802
G0 X188.248Y195.802
G1 X188.558Y196.055
G1 X188.903Y196.237
G1 X189.27Y196.345
G1 X189.648Y196.382
G1 X190.026Y196.345
G1 X190.393Y196.237
G1 X190.737Y196.055
G1 X191.048Y195.802
G1 X191.301Y195.491
G1 X191.483Y195.147
G1 X191.591Y194.78
G1 X191.628Y194.402
G1 X191.591Y194.023
G1 X191.483Y193.657
G1 X191.301Y193.312
G1 X191.048Y193.002
G0 X191.048Y193.002
G1 X189.024Y190.978
G0 X189.021Y185.012
G1 X189.038
G0 X189.038Y185.012
G1 X190.348Y183.702
G0 X189.021Y185.012
G1 X189.339Y185.729
G1 X189.567Y186.472
G1 X189.704Y187.232
G1 X189.75Y188
G1 X189.705Y188.768
G1 X189.569Y189.528
G1 X189.342Y190.271
G1 X189.024Y190.989
G0 X177.47Y185.024
G0 X180.269Y182.224
G0 X170.021Y185.012
G1 X170.339Y185.729
G1 X170.567Y186.472
G1 X170.704Y187.232
G1 X170.75Y188
G1 X170.705Y188.768
G1 X170.569Y189.528
G1 X170.342Y190.271
G1 X170.024Y190.989
G0 X227.024Y190.989
G1 X227.342Y190.271
G1 X227.569Y189.528
G1 X227.705Y188.768
G1 X227.75Y188
G1 X227.704Y187.232
G1 X227.567Y186.472
G1 X227.339Y185.729
G1 X227.021Y185.012
G0 X232.448Y183.002
G1 X234.47Y185.024
G0 X234.47Y185.024
G1 X234.248Y185.501
G1 X234.067Y185.989
G1 X233.927Y186.484
G1 X233.827Y186.986
G1 X233.767Y187.49
G1 X233.747Y187.996
G1 X233.766Y188.501
G1 X233.824Y189.002
G1 X233.921Y189.497
G1 X234.056Y189.983
G1 X234.228Y190.459
G1 X234.439Y190.922
G1 X234.686Y191.37
G1 X234.97Y191.799
G1 X235.29Y192.209
G1 X235.647Y192.596
G1 X236.033Y192.953
G1 X236.442Y193.274
G1 X236.871Y193.559
G1 X237.318Y193.807
G1 X237.78Y194.018
G1 X238.256Y194.192
G1 X238.742Y194.328
G1 X239.237Y194.426
G1 X239.738Y194.485
G1 X240.242Y194.505
G1 X240.748Y194.486
G1 X241.253Y194.427
G1 X241.755Y194.328
G1 X242.251Y194.189
G1 X242.739Y194.009
G1 X243.216Y193.788
G0 X243.216Y193.788
G1 X243.234
G0 X243.216Y193.77
G1 X245.248Y195.802
G0 X245.248Y195.802
G1 X245.558Y196.055
G1 X245.903Y196.237
G1 X246.27Y196.345
G1 X246.648Y196.382
G1 X247.026Y196.345
G1 X247.393Y196.237
G1 X247.737Y196.055
G1 X248.048Y195.802
G1 X248.301Y195.491
G1 X248.483Y195.147
G1 X248.591Y194.78
G1 X248.628Y194.402
G1 X248.591Y194.023
G1 X248.483Y193.657
G1 X248.301Y193.312
G1 X248.048Y193.002
G0 X248.048Y193.002
G1 X246.024Y190.978
G0 X246.021Y185.012
G1 X246.038
G0 X246.038Y185.012
G1 X247.348Y183.702
G0 X247.348Y183.702
G1 X247.601Y183.391
G1 X247.782Y183.047
G1 X247.891Y182.68
G1 X247.927Y182.302
G1 X247.891Y181.924
G1 X247.782Y181.557
G1 X247.601Y181.213
G1 X247.347Y180.902
G1 X247.037Y180.649
G1 X246.692Y180.467
G1 X246.326Y180.359
G1 X245.947Y180.322
G1 X245.569Y180.359
G1 X245.203Y180.467
G1 X244.858Y180.648
G1 X244.548Y180.902
G0 X244.548Y180.902
G1 X243.236Y182.214
G0 X243.236Y182.214
G1 Y182.229
G0 X243.236Y182.229
G1 X242.522Y181.912
G1 X241.783Y181.685
G1 X241.028Y181.549
G1 X240.264Y181.502
G1 X239.5Y181.545
G1 X238.744Y181.678
G1 X238.005Y181.901
G1 X237.289Y182.214
G0 X237.289Y182.214
G1 X237.26
G0 X237.26Y182.214
G1 X235.248Y180.202
G0 X235.248Y180.202
G1 X234.937Y179.948
G1 X234.593Y179.767
G1 X234.226Y179.659
G1 X233.848Y179.622
G1 X233.47Y179.659
G1 X233.103Y179.767
G1 X232.759Y179.949
G1 X232.448Y180.202
G1 X232.195Y180.513
G1 X232.014Y180.857
G1 X231.905Y181.224
G1 X231.868Y181.602
G1 X231.905Y181.98
G1 X232.013Y182.347
G1 X232.194Y182.691
G1 X232.448Y183.002
G0 X232.448Y183.002
G0 X234.47Y185.024
G0 X237.269Y182.224
G0 X246.021Y185.012
G1 X246.339Y185.729
G1 X246.567Y186.472
G1 X246.704Y187.232
G1 X246.75Y188
G1 X246.705Y188.768
G1 X246.569Y189.528
G1 X246.342Y190.271
G1 X246.024Y190.989
G0 X236.524Y171.989
G1 X236.842Y171.271
G1 X237.069Y170.528
G1 X237.205Y169.768
G1 X237.25Y169
G1 X237.204Y168.232
G1 X237.067Y167.472
G1 X236.839Y166.729
G1 X236.521Y166.012
G0 X231.774Y152.989
G1 X232.092Y152.271
G1 X232.319Y151.528
G1 X232.455Y150.768
G1 X232.5Y150
G1 X232.454Y149.232
G1 X232.317Y148.472
G1 X232.089Y147.729
G1 X231.771Y147.012
G0 X200.486Y125.229
G1 X199.772Y124.912
G1 X199.033Y124.685
G1 X198.278Y124.549
G1 X197.514Y124.502
G1 X196.75Y124.545
G1 X195.994Y124.678
G1 X195.255Y124.901
G1 X194.539Y125.214
G0 X181.486Y125.217
G1 Y125.232
G0 X181.486Y125.232
G1 X180.772Y124.915
G1 X180.033Y124.689
G1 X179.278Y124.552
G1 X178.514Y124.505
G1 X177.75Y124.548
G1 X176.994Y124.681
G1 X176.255Y124.905
G1 X175.539Y125.218
G0 X180.998Y119.802
G1 X181.308Y120.055
G1 X181.653Y120.235
G1 X182.019Y120.344
G1 X182.397Y120.38
G1 X182.775Y120.343
G1 X183.142Y120.235
G1 X183.486Y120.053
G1 X183.796Y119.8
G1 X184.049Y119.49
G1 X184.231Y119.145
G1 X184.339Y118.779
G1 X184.376Y118.401
G1 X184.34Y118.023
G1 X184.232Y117.657
G1 X184.051Y117.312
G1 X183.798Y117.002
G0 X183.798Y117.002
G1 X170.998Y104.202
G0 X170.998Y104.202
G1 X170.687Y103.948
G1 X170.343Y103.767
G1 X169.976Y103.658
G1 X169.598Y103.622
G1 X169.22Y103.658
G1 X168.853Y103.767
G1 X168.508Y103.948
G1 X168.198Y104.202
G1 X167.944Y104.512
G1 X167.763Y104.857
G1 X167.654Y105.223
G1 X167.618Y105.602
G1 X167.654Y105.98
G1 X167.763Y106.347
G1 X167.944Y106.691
G1 X168.198Y107.002
G0 X168.198Y107.002
G1 X180.998Y119.802
G0 X168.198Y107.002
G0 X76.986Y125.229
G1 X76.272Y124.912
G1 X75.533Y124.685
G1 X74.778Y124.549
G1 X74.014Y124.502
G1 X73.25Y124.545
G1 X72.494Y124.678
G1 X71.755Y124.901
G1 X71.039Y125.214
G0 X75.789Y163.214
G1 X76.505Y162.901
G1 X77.244Y162.678
G1 X78Y162.545
G1 X78.764Y162.502
G1 X79.528Y162.549
G1 X80.283Y162.685
G1 X81.022Y162.912
G1 X81.736Y163.229
G0 X73.548Y180.902
G1 X73.858Y180.648
G1 X74.203Y180.467
G1 X74.569Y180.359
G1 X74.948Y180.322
G1 X75.326Y180.359
G1 X75.692Y180.467
G1 X76.037Y180.649
G1 X76.347Y180.902
G1 X76.601Y181.213
G1 X76.782Y181.557
G1 X76.891Y181.924
G1 X76.927Y182.302
G1 X76.891Y182.68
G1 X76.782Y183.047
G1 X76.601Y183.391
G1 X76.348Y183.702
G0 X76.348Y183.702
G1 X75.038Y185.012
G0 X75.038Y185.012
G1 X75.021
G0 X75.021Y185.012
G1 X75.339Y185.729
G1 X75.567Y186.472
G1 X75.704Y187.232
G1 X75.75Y188
G1 X75.705Y188.768
G1 X75.569Y189.528
G1 X75.342Y190.271
G1 X75.024Y190.989
G0 X75.024Y190.978
G1 X77.048Y193.002
G0 X77.048Y193.002
G1 X77.301Y193.312
G1 X77.482Y193.657
G1 X77.59Y194.023
G1 X77.626Y194.401
G1 X77.589Y194.779
G1 X77.481Y195.145
G1 X77.299Y195.49
G1 X77.046Y195.8
G1 X76.736Y196.053
G1 X76.392Y196.235
G1 X76.025Y196.343
G1 X75.647Y196.38
G1 X75.269Y196.344
G1 X74.903Y196.235
G1 X74.558Y196.055
G1 X74.248Y195.802
G0 X74.248Y195.802
G1 X72.216Y193.77
G0 X72.216Y193.788
G1 X71.739Y194.009
G1 X71.251Y194.189
G1 X70.755Y194.328
G1 X70.253Y194.427
G1 X69.748Y194.486
G1 X69.242Y194.505
G1 X68.738Y194.485
G1 X68.237Y194.426
G1 X67.742Y194.328
G1 X67.256Y194.192
G1 X66.78Y194.018
G1 X66.318Y193.807
G1 X65.871Y193.559
G1 X65.442Y193.274
G1 X65.033Y192.953
G1 X64.647Y192.596
G1 X64.29Y192.209
G1 X63.97Y191.799
G1 X63.686Y191.37
G1 X63.439Y190.922
G1 X63.228Y190.459
G1 X63.056Y189.983
G1 X62.921Y189.497
G1 X62.824Y189.002
G1 X62.766Y188.501
G1 X62.747Y187.996
G1 X62.767Y187.49
G1 X62.827Y186.986
G1 X62.927Y186.484
G1 X63.067Y185.989
G1 X63.248Y185.501
G1 X63.47Y185.024
G0 X63.47Y185.024
G0 X63.47Y185.024
G1 X61.448Y183.002
G0 X61.448Y183.002
G0 X61.448Y183.002
G1 X61.195Y182.691
G1 X61.014Y182.347
G1 X60.906Y181.98
G1 X60.87Y181.602
G1 X60.906Y181.224
G1 X61.015Y180.858
G1 X61.196Y180.514
G1 X61.449Y180.203
G1 X61.76Y179.95
G1 X62.104Y179.769
G1 X62.47Y179.66
G1 X62.848Y179.623
G1 X63.226Y179.659
G1 X63.593Y179.768
G1 X63.937Y179.948
G1 X64.248Y180.202
G0 X64.248Y180.202
G1 X66.26Y182.214
G0 X66.26Y182.214
G1 X66.289
G0 X66.269Y182.223
G0 X72.236Y182.229
G1 Y182.214
G0 X72.236Y182.214
G1 X73.548Y180.902
G0 X72.236Y182.229
G1 X71.522Y181.912
G1 X70.783Y181.685
G1 X70.028Y181.549
G1 X69.264Y181.502
G1 X68.5Y181.545
G1 X67.744Y181.678
G1 X67.005Y181.901
G1 X66.289Y182.214
G0 X72.216Y193.788
G1 X72.234
G0 X52.75Y170
G1 X53.052Y169.97
G1 X53.334Y169.882
G1 X53.589Y169.744
G1 X53.811Y169.561
G1 X53.994Y169.339
G1 X54.132Y169.084
G1 X54.22Y168.802
G1 X54.25Y168.5
G1 X54.22Y168.198
G1 X54.132Y167.916
G1 X53.994Y167.661
G1 X53.811Y167.439
G1 X53.589Y167.256
G1 X53.334Y167.118
G1 X53.052Y167.03
G1 X52.75Y167
G0 X52.75Y167
G1 X50.75
G0 X50.75Y167
G1 X50.448Y167.03
G1 X50.166Y167.118
G1 X49.911Y167.256
G1 X49.689Y167.439
G1 X49.506Y167.661
G1 X49.368Y167.916
G1 X49.28Y168.198
G1 X49.25Y168.5
G1 X49.28Y168.802
G1 X49.368Y169.084
G1 X49.506Y169.339
G1 X49.689Y169.561
G1 X49.911Y169.744
G1 X50.166Y169.882
G1 X50.448Y169.97
G1 X50.75Y170
G0 X50.75Y170
G1 X52.75
M9
G1 S0
M5
G90
; return to user-defined finish pos
G0 X0Y0
M2
