; LightBurn 1.7.06
; GRBL device profile, absolute coords
; Bounds: X67.75 Y100 to X232.25 Y200
G00 G17 G40 G21 G54
G90
M4
; Cut @ 600 mm/min, 80% power
M9
G0 X67.75Y100
; Layer VirtArray
G1 X229.75S800F600
G0 X229.75Y100
G1 X230.006Y100.013
G1 X230.254Y100.051
G1 X230.493Y100.112
G1 X230.723Y100.196
G1 X231.148Y100.427
G1 X231.518Y100.732
G1 X231.823Y101.102
G1 X232.054Y101.527
G1 X232.138Y101.757
G1 X232.199Y101.996
G1 X232.237Y102.244
G1 X232.25Y102.5
G0 X232.25Y102.5
G1 Y197.5
G0 X232.25Y197.5
G1 X232.237Y197.756
G1 X232.199Y198.004
G1 X232.138Y198.243
G1 X232.054Y198.473
G1 X231.823Y198.898
G1 X231.518Y199.268
G1 X231.148Y199.573
G1 X230.723Y199.804
G1 X230.493Y199.888
G1 X230.254Y199.949
G1 X230.006Y199.987
G1 X229.75Y200
G0 X229.75Y200
G1 X108.75
G0 X108.75Y200
G1 Y195.5
G0 X108.75Y195.5
G1 X104.75Y191.5
G0 X104.75Y191.5
G1 Y180
G0 X104.75Y180
G1 X95.25Y170.5
G0 X95.25Y170.5
G1 Y157
G0 X95.25Y157
G1 X90.75Y152.5
G0 X90.75Y152.5
G1 Y143
G0 X90.75Y143
G1 X81.25Y133.5
G0 X81.25Y133.5
G1 Y123
G0 X81.25Y123
G1 X67.75Y109.5
G0 X67.75Y109.5
G1 Y100
G0 X76.498Y104.202
G1 X76.187Y103.948
G1 X75.843Y103.767
G1 X75.476Y103.658
G1 X75.098Y103.622
G1 X74.72Y103.658
G1 X74.353Y103.767
G1 X74.008Y103.948
G1 X73.698Y104.202
G1 X73.444Y104.512
G1 X73.263Y104.857
G1 X73.154Y105.223
G1 X73.118Y105.602
G1 X73.154Y105.98
G1 X73.263Y106.347
G1 X73.444Y106.691
G1 X73.698Y107.002
G0 X73.698Y107.002
G0 X73.698Y107.002
G1 X75.72Y109.024
G0 X75.72Y109.024
G1 X75.498Y109.501
G1 X75.317Y109.989
G1 X75.176Y110.484
G1 X75.077Y110.986
G1 X75.017Y111.49
G1 X74.997Y111.996
G1 X75.016Y112.501
G1 X75.074Y113.002
G1 X75.171Y113.497
G1 X75.306Y113.983
G1 X75.478Y114.459
G1 X75.689Y114.922
G1 X75.936Y115.37
G1 X76.22Y115.799
G1 X76.54Y116.209
G1 X76.897Y116.596
G1 X77.283Y116.953
G1 X77.692Y117.274
G1 X78.121Y117.559
G1 X78.568Y117.807
G1 X79.03Y118.018
G1 X79.506Y118.192
G1 X79.992Y118.328
G1 X80.487Y118.426
G1 X80.988Y118.485
G1 X81.492Y118.505
G1 X81.998Y118.486
G1 X82.503Y118.427
G1 X83.005Y118.328
G1 X83.501Y118.189
G1 X83.989Y118.009
G1 X84.466Y117.788
G0 X84.466Y117.788
G1 X84.484
G0 X84.466Y117.77
G1 X86.498Y119.802
G0 X86.498Y119.802
G1 X86.808Y120.055
G1 X87.153Y120.235
G1 X87.519Y120.344
G1 X87.897Y120.38
G1 X88.275Y120.343
G1 X88.642Y120.235
G1 X88.986Y120.053
G1 X89.296Y119.8
G1 X89.549Y119.49
G1 X89.731Y119.145
G1 X89.839Y118.779
G1 X89.876Y118.401
G1 X89.84Y118.023
G1 X89.732Y117.657
G1 X89.551Y117.312
G1 X89.298Y117.002
G0 X89.298Y117.002
G1 X87.274Y114.978
G0 X87.271Y109.011
G1 X87.288
G0 X87.288Y109.011
G1 X88.598Y107.702
G0 X88.598Y107.702
G1 X88.851Y107.391
G1 X89.033Y107.047
G1 X89.141Y106.68
G1 X89.178Y106.302
G1 X89.141Y105.923
G1 X89.033Y105.557
G1 X88.851Y105.212
G1 X88.598Y104.902
G1 X88.287Y104.648
G1 X87.943Y104.467
G1 X87.576Y104.358
G1 X87.198Y104.322
G1 X86.82Y104.358
G1 X86.453Y104.467
G1 X86.108Y104.648
G1 X85.798Y104.902
G0 X85.798Y104.902
G1 X84.486Y106.214
G0 X84.486Y106.214
G1 Y106.229
G0 X84.486Y106.229
G1 X83.772Y105.912
G1 X83.033Y105.685
G1 X82.278Y105.549
G1 X81.514Y105.502
G1 X80.75Y105.545
G1 X79.994Y105.678
G1 X79.255Y105.901
G1 X78.539Y106.214
G0 X78.539Y106.214
G1 X78.51
G0 X78.51Y106.214
G1 X76.498Y104.202
G0 X78.519Y106.223
G0 X75.72Y109.024
G0 X87.271Y109.011
G1 X87.589Y109.729
G1 X87.817Y110.472
G1 X87.954Y111.232
G1 X88Y112
G1 X87.955Y112.768
G1 X87.819Y113.528
G1 X87.592Y114.271
G1 X87.274Y114.989
G0 X85.998Y123.202
G1 X85.687Y122.948
G1 X85.343Y122.767
G1 X84.976Y122.658
G1 X84.598Y122.622
G1 X84.22Y122.658
G1 X83.853Y122.767
G1 X83.508Y122.948
G1 X83.198Y123.202
G1 X82.944Y123.512
G1 X82.763Y123.857
G1 X82.654Y124.223
G1 X82.618Y124.602
G1 X82.654Y124.98
G1 X82.763Y125.347
G1 X82.944Y125.691
G1 X83.198Y126.002
G0 X83.198Y126.002
G0 X83.198Y126.002
G1 X85.22Y128.024
G0 X85.22Y128.024
G1 X84.998Y128.501
G1 X84.817Y128.989
G1 X84.676Y129.484
G1 X84.577Y129.986
G1 X84.517Y130.49
G1 X84.497Y130.996
G1 X84.516Y131.501
G1 X84.574Y132.002
G1 X84.671Y132.497
G1 X84.806Y132.983
G1 X84.978Y133.459
G1 X85.189Y133.922
G1 X85.436Y134.37
G1 X85.72Y134.799
G1 X86.04Y135.209
G1 X86.397Y135.596
G1 X86.783Y135.953
G1 X87.192Y136.274
G1 X87.621Y136.559
G1 X88.068Y136.807
G1 X88.53Y137.018
G1 X89.006Y137.192
G1 X89.492Y137.328
G1 X89.987Y137.426
G1 X90.488Y137.485
G1 X90.992Y137.505
G1 X91.498Y137.486
G1 X92.003Y137.427
G1 X92.505Y137.328
G1 X93.001Y137.189
G1 X93.489Y137.009
G1 X93.966Y136.788
G0 X93.966Y136.788
G1 X93.984
G0 X93.966Y136.77
G1 X95.998Y138.802
G0 X95.998Y138.802
G1 X96.308Y139.055
G1 X96.653Y139.235
G1 X97.019Y139.344
G1 X97.397Y139.38
G1 X97.775Y139.343
G1 X98.142Y139.235
G1 X98.486Y139.053
G1 X98.796Y138.8
G1 X99.049Y138.49
G1 X99.231Y138.145
G1 X99.339Y137.779
G1 X99.376Y137.401
G1 X99.34Y137.023
G1 X99.232Y136.657
G1 X99.051Y136.312
G1 X98.798Y136.002
G0 X98.798Y136.002
G1 X96.774Y133.978
G0 X96.771Y128.012
G1 X96.788
G0 X96.788Y128.012
G1 X98.098Y126.702
G0 X98.098Y126.702
G1 X98.351Y126.391
G1 X98.532Y126.047
G1 X98.64Y125.68
G1 X98.676Y125.302
G1 X98.639Y124.924
G1 X98.531Y124.558
G1 X98.349Y124.214
G1 X98.096Y123.903
G1 X97.786Y123.65
G1 X97.442Y123.469
G1 X97.075Y123.36
G1 X96.697Y123.323
G1 X96.319Y123.359
G1 X95.953Y123.468
G1 X95.608Y123.648
G1 X95.298Y123.902
G0 X95.298Y123.902
G1 X93.986Y125.214
G0 X93.986Y125.214
G1 Y125.229
G0 X93.986Y125.229
G1 X93.272Y124.912
G1 X92.533Y124.685
G1 X91.778Y124.549
G1 X91.014Y124.502
G1 X90.25Y124.545
G1 X89.494Y124.678
G1 X88.755Y124.901
G1 X88.039Y125.214
G0 X88.039Y125.214
G1 X88.01
G0 X88.01Y125.214
G1 X85.998Y123.202
G0 X88.019Y125.223
G0 X85.22Y128.024
G0 X96.771Y128.012
G1 X97.089Y128.729
G1 X97.317Y129.472
G1 X97.454Y130.232
G1 X97.5Y131
G1 X97.455Y131.768
G1 X97.319Y132.528
G1 X97.092Y133.271
G1 X96.774Y133.989
G0 X104.22Y128.024
G1 X103.998Y128.501
G1 X103.817Y128.989
G1 X103.676Y129.484
G1 X103.577Y129.986
G1 X103.517Y130.49
G1 X103.497Y130.996
G1 X103.516Y131.501
G1 X103.574Y132.002
G1 X103.671Y132.497
G1 X103.806Y132.983
G1 X103.978Y133.459
G1 X104.189Y133.922
G1 X104.436Y134.37
G1 X104.72Y134.799
G1 X105.04Y135.209
G1 X105.397Y135.596
G1 X105.783Y135.953
G1 X106.192Y136.274
G1 X106.621Y136.559
G1 X107.068Y136.807
G1 X107.53Y137.018
G1 X108.006Y137.192
G1 X108.492Y137.328
G1 X108.987Y137.426
G1 X109.488Y137.485
G1 X109.992Y137.505
G1 X110.498Y137.486
G1 X111.003Y137.427
G1 X111.505Y137.328
G1 X112.001Y137.189
G1 X112.489Y137.009
G1 X112.966Y136.788
G0 X112.966Y136.788
G1 X112.984
G0 X112.966Y136.77
G1 X114.998Y138.802
G0 X114.998Y138.802
G1 X115.308Y139.054
G1 X115.653Y139.234
G1 X116.019Y139.342
G1 X116.397Y139.378
G1 X116.774Y139.341
G1 X117.14Y139.232
G1 X117.484Y139.051
G1 X117.794Y138.798
G1 X118.047Y138.488
G1 X118.228Y138.144
G1 X118.337Y137.778
G1 X118.374Y137.4
G1 X118.338Y137.023
G1 X118.23Y136.656
G1 X118.05Y136.312
G1 X117.798Y136.002
G0 X117.798Y136.002
G1 X115.774Y133.978
G0 X115.771Y128.012
G1 X115.788
G0 X115.788Y128.012
G1 X117.098Y126.702
G0 X117.098Y126.702
G1 X117.35Y126.391
G1 X117.53Y126.047
G1 X117.638Y125.68
G1 X117.674Y125.303
G1 X117.637Y124.925
G1 X117.528Y124.559
G1 X117.347Y124.215
G1 X117.094Y123.905
G1 X116.784Y123.652
G1 X116.44Y123.471
G1 X116.074Y123.362
G1 X115.697Y123.325
G1 X115.319Y123.361
G1 X114.953Y123.469
G1 X114.608Y123.649
G1 X114.298Y123.902
G0 X114.298Y123.902
G1 X112.986Y125.214
G0 X112.986Y125.214
G1 Y125.229
G0 X112.986Y125.229
G1 X112.272Y124.912
G1 X111.533Y124.685
G1 X110.778Y124.549
G1 X110.014Y124.502
G1 X109.25Y124.545
G1 X108.494Y124.678
G1 X107.755Y124.901
G1 X107.039Y125.214
G0 X107.039Y125.214
G1 X107.01
G0 X107.01Y125.214
G1 X104.998Y123.202
G0 X104.998Y123.202
G1 X104.687Y122.948
G1 X104.343Y122.767
G1 X103.976Y122.658
G1 X103.598Y122.622
G1 X103.22Y122.658
G1 X102.853Y122.767
G1 X102.508Y122.948
G1 X102.198Y123.202
G1 X101.944Y123.512
G1 X101.763Y123.857
G1 X101.654Y124.223
G1 X101.618Y124.602
G1 X101.654Y124.98
G1 X101.763Y125.347
G1 X101.944Y125.691
G1 X102.198Y126.002
G0 X102.198Y126.002
G0 X102.198Y126.002
G1 X104.22Y128.024
G0 X104.22Y128.024
G0 X107.019Y125.224
G0 X115.771Y128.012
G1 X116.089Y128.729
G1 X116.317Y129.472
G1 X116.454Y130.232
G1 X116.5Y131
G1 X116.455Y131.768
G1 X116.319Y132.528
G1 X116.092Y133.271
G1 X115.774Y133.989
G0 X123.22Y128.024
G1 X122.998Y128.501
G1 X122.817Y128.989
G1 X122.677Y129.484
G1 X122.577Y129.986
G1 X122.517Y130.49
G1 X122.497Y130.996
G1 X122.516Y131.501
G1 X122.574Y132.002
G1 X122.671Y132.497
G1 X122.806Y132.983
G1 X122.978Y133.459
G1 X123.189Y133.922
G1 X123.436Y134.37
G1 X123.72Y134.799
G1 X124.04Y135.209
G1 X124.397Y135.596
G1 X124.783Y135.953
G1 X125.192Y136.274
G1 X125.621Y136.559
G1 X126.068Y136.807
G1 X126.53Y137.018
G1 X127.006Y137.192
G1 X127.492Y137.328
G1 X127.987Y137.426
G1 X128.488Y137.485
G1 X128.992Y137.505
G1 X129.498Y137.486
G1 X130.003Y137.427
G1 X130.505Y137.328
G1 X131.001Y137.189
G1 X131.489Y137.009
G1 X131.966Y136.788
G0 X131.966Y136.788
G1 X131.984
G0 X131.966Y136.77
G1 X133.998Y138.802
G0 X133.998Y138.802
G1 X134.308Y139.054
G1 X134.653Y139.234
G1 X135.019Y139.342
G1 X135.397Y139.378
G1 X135.774Y139.341
G1 X136.14Y139.232
G1 X136.484Y139.051
G1 X136.794Y138.798
G1 X137.047Y138.488
G1 X137.228Y138.144
G1 X137.337Y137.778
G1 X137.374Y137.4
G1 X137.338Y137.023
G1 X137.23Y136.656
G1 X137.05Y136.312
G1 X136.798Y136.002
G0 X136.798Y136.002
G1 X134.774Y133.978
G0 X134.774Y133.989
G1 X135.092Y133.271
G1 X135.319Y132.528
G1 X135.455Y131.768
G1 X135.5Y131
G1 X135.454Y130.232
G1 X135.317Y129.472
G1 X135.09Y128.729
G1 X134.771Y128.012
G0 X134.771Y128.012
G1 X134.788
G0 X134.788Y128.012
G1 X136.098Y126.702
G0 X136.098Y126.702
G1 X136.35Y126.391
G1 X136.53Y126.047
G1 X136.638Y125.68
G1 X136.674Y125.303
G1 X136.637Y124.925
G1 X136.528Y124.559
G1 X136.347Y124.215
G1 X136.094Y123.905
G1 X135.784Y123.652
G1 X135.44Y123.471
G1 X135.074Y123.362
G1 X134.697Y123.325
G1 X134.319Y123.361
G1 X133.953Y123.469
G1 X133.608Y123.649
G1 X133.298Y123.902
G0 X133.298Y123.902
G1 X131.986Y125.214
G0 X131.986Y125.214
G1 Y125.229
G0 X131.986Y125.229
G1 X131.272Y124.912
G1 X130.533Y124.685
G1 X129.778Y124.549
G1 X129.014Y124.502
G1 X128.25Y124.545
G1 X127.494Y124.678
G1 X126.755Y124.901
G1 X126.039Y125.214
G0 X126.039Y125.214
G1 X126.01
G0 X126.01Y125.214
G1 X123.998Y123.202
G0 X123.998Y123.202
G1 X123.687Y122.948
G1 X123.343Y122.767
G1 X122.976Y122.658
G1 X122.598Y122.622
G1 X122.22Y122.658
G1 X121.853Y122.767
G1 X121.508Y122.948
G1 X121.198Y123.202
G1 X120.944Y123.512
G1 X120.763Y123.857
G1 X120.654Y124.223
G1 X120.618Y124.602
G1 X120.654Y124.98
G1 X120.763Y125.347
G1 X120.944Y125.691
G1 X121.198Y126.002
G0 X121.198Y126.002
G0 X121.198Y126.002
G1 X123.22Y128.024
G0 X123.22Y128.024
G0 X126.019Y125.224
G0 X136.748Y119.802
G1 X137.058Y120.054
G1 X137.403Y120.234
G1 X137.769Y120.342
G1 X138.147Y120.378
G1 X138.524Y120.341
G1 X138.89Y120.232
G1 X139.234Y120.051
G1 X139.544Y119.798
G1 X139.797Y119.488
G1 X139.978Y119.144
G1 X140.087Y118.778
G1 X140.124Y118.4
G1 X140.088Y118.023
G1 X139.98Y117.656
G1 X139.8Y117.312
G1 X139.548Y117.002
G0 X139.548Y117.002
G1 X126.748Y104.202
G0 X126.748Y104.202
G1 X126.437Y103.948
G1 X126.093Y103.767
G1 X125.726Y103.658
G1 X125.348Y103.622
G1 X124.97Y103.658
G1 X124.603Y103.767
G1 X124.258Y103.948
G1 X123.948Y104.202
G1 X123.694Y104.512
G1 X123.513Y104.857
G1 X123.404Y105.223
G1 X123.368Y105.602
G1 X123.404Y105.98
G1 X123.513Y106.347
G1 X123.694Y106.691
G1 X123.948Y107.002
G0 X123.948Y107.002
G1 X136.748Y119.802
G0 X142.998Y123.202
G1 X142.687Y122.948
G1 X142.343Y122.767
G1 X141.976Y122.658
G1 X141.598Y122.622
G1 X141.22Y122.658
G1 X140.853Y122.767
G1 X140.508Y122.948
G1 X140.198Y123.202
G1 X139.944Y123.512
G1 X139.763Y123.857
G1 X139.654Y124.223
G1 X139.618Y124.602
G1 X139.654Y124.98
G1 X139.763Y125.347
G1 X139.944Y125.691
G1 X140.198Y126.002
G0 X140.198Y126.002
G0 X140.198Y126.002
G1 X142.22Y128.024
G0 X142.22Y128.024
G1 X141.998Y128.501
G1 X141.817Y128.989
G1 X141.677Y129.484
G1 X141.577Y129.986
G1 X141.517Y130.49
G1 X141.497Y130.996
G1 X141.516Y131.501
G1 X141.574Y132.002
G1 X141.671Y132.497
G1 X141.806Y132.983
G1 X141.978Y133.459
G1 X142.189Y133.922
G1 X142.436Y134.37
G1 X142.72Y134.799
G1 X143.04Y135.209
G1 X143.397Y135.596
G1 X143.783Y135.953
G1 X144.192Y136.274
G1 X144.621Y136.559
G1 X145.068Y136.807
G1 X145.53Y137.018
G1 X146.006Y137.192
G1 X146.492Y137.328
G1 X146.987Y137.426
G1 X147.488Y137.485
G1 X147.992Y137.505
G1 X148.498Y137.486
G1 X149.003Y137.427
G1 X149.505Y137.328
G1 X150.001Y137.189
G1 X150.489Y137.009
G1 X150.966Y136.788
G0 X150.966Y136.788
G1 X150.984
G0 X150.966Y136.77
G1 X152.998Y138.802
G0 X152.998Y138.802
G1 X153.308Y139.054
G1 X153.653Y139.234
G1 X154.019Y139.342
G1 X154.397Y139.378
G1 X154.774Y139.341
G1 X155.14Y139.232
G1 X155.484Y139.051
G1 X155.794Y138.798
G1 X156.047Y138.488
G1 X156.228Y138.144
G1 X156.337Y137.778
G1 X156.374Y137.4
G1 X156.338Y137.023
G1 X156.23Y136.656
G1 X156.05Y136.312
G1 X155.798Y136.002
G0 X155.798Y136.002
G1 X153.774Y133.978
G0 X153.774Y133.989
G1 X154.092Y133.271
G1 X154.319Y132.528
G1 X154.455Y131.768
G1 X154.5Y131
G1 X154.454Y130.232
G1 X154.317Y129.472
G1 X154.09Y128.729
G1 X153.771Y128.012
G0 X153.771Y128.012
G1 X153.788
G0 X153.788Y128.012
G1 X155.098Y126.702
G0 X155.098Y126.702
G1 X155.35Y126.391
G1 X155.53Y126.047
G1 X155.638Y125.68
G1 X155.674Y125.303
G1 X155.637Y124.925
G1 X155.528Y124.559
G1 X155.347Y124.215
G1 X155.094Y123.905
G1 X154.784Y123.652
G1 X154.44Y123.471
G1 X154.074Y123.362
G1 X153.697Y123.325
G1 X153.319Y123.361
G1 X152.953Y123.469
G1 X152.608Y123.649
G1 X152.298Y123.902
G0 X152.298Y123.902
G1 X150.986Y125.214
G0 X150.986Y125.214
G1 Y125.229
G0 X150.986Y125.229
G1 X150.272Y124.912
G1 X149.533Y124.685
G1 X148.778Y124.549
G1 X148.014Y124.502
G1 X147.25Y124.545
G1 X146.494Y124.678
G1 X145.755Y124.901
G1 X145.039Y125.214
G0 X145.039Y125.214
G1 X145.01
G0 X145.01Y125.214
G1 X142.998Y123.202
G0 X145.019Y125.223
G0 X142.22Y128.024
G0 X159.198Y126.002
G1 X161.22Y128.024
G0 X161.22Y128.024
G1 X160.998Y128.501
G1 X160.817Y128.989
G1 X160.677Y129.484
G1 X160.577Y129.986
G1 X160.517Y130.49
G1 X160.497Y130.996
G1 X160.516Y131.501
G1 X160.574Y132.002
G1 X160.671Y132.497
G1 X160.806Y132.983
G1 X160.978Y133.459
G1 X161.189Y133.922
G1 X161.436Y134.37
G1 X161.72Y134.799
G1 X162.04Y135.209
G1 X162.397Y135.596
G1 X162.783Y135.953
G1 X163.192Y136.274
G1 X163.621Y136.559
G1 X164.068Y136.807
G1 X164.53Y137.018
G1 X165.006Y137.192
G1 X165.492Y137.328
G1 X165.987Y137.426
G1 X166.488Y137.485
G1 X166.992Y137.505
G1 X167.498Y137.486
G1 X168.003Y137.427
G1 X168.505Y137.328
G1 X169.001Y137.189
G1 X169.489Y137.009
G1 X169.966Y136.788
G0 X169.966Y136.788
G1 X169.984
G0 X169.966Y136.77
G1 X171.998Y138.802
G0 X171.998Y138.802
G1 X172.308Y139.054
G1 X172.653Y139.234
G1 X173.019Y139.342
G1 X173.397Y139.378
G1 X173.774Y139.341
G1 X174.14Y139.232
G1 X174.484Y139.051
G1 X174.794Y138.798
G1 X175.047Y138.488
G1 X175.228Y138.144
G1 X175.337Y137.778
G1 X175.374Y137.4
G1 X175.338Y137.023
G1 X175.23Y136.656
G1 X175.05Y136.312
G1 X174.798Y136.002
G0 X174.798Y136.002
G1 X172.774Y133.978
G0 X172.774Y133.989
G1 X173.092Y133.271
G1 X173.319Y132.528
G1 X173.455Y131.768
G1 X173.5Y131
G1 X173.454Y130.232
G1 X173.317Y129.472
G1 X173.09Y128.729
G1 X172.771Y128.012
G0 X172.771Y128.012
G1 X172.788
G0 X172.788Y128.012
G1 X174.098Y126.702
G0 X174.098Y126.702
G1 X174.35Y126.391
G1 X174.53Y126.047
G1 X174.638Y125.68
G1 X174.674Y125.303
G1 X174.637Y124.925
G1 X174.528Y124.559
G1 X174.347Y124.215
G1 X174.094Y123.905
G1 X173.784Y123.652
G1 X173.44Y123.471
G1 X173.074Y123.362
G1 X172.697Y123.325
G1 X172.319Y123.361
G1 X171.953Y123.469
G1 X171.608Y123.649
G1 X171.298Y123.902
G0 X171.298Y123.902
G1 X169.986Y125.214
G0 X169.986Y125.214
G1 Y125.229
G0 X169.986Y125.229
G1 X169.272Y124.912
G1 X168.533Y124.685
G1 X167.778Y124.549
G1 X167.014Y124.502
G1 X166.25Y124.545
G1 X165.494Y124.678
G1 X164.755Y124.901
G1 X164.039Y125.214
G0 X164.039Y125.214
G1 X164.01
G0 X164.01Y125.214
G1 X161.998Y123.202
G0 X161.998Y123.202
G1 X161.687Y122.948
G1 X161.343Y122.767
G1 X160.976Y122.658
G1 X160.598Y122.622
G1 X160.22Y122.658
G1 X159.853Y122.767
G1 X159.508Y122.948
G1 X159.198Y123.202
G1 X158.944Y123.512
G1 X158.763Y123.857
G1 X158.654Y124.223
G1 X158.618Y124.602
G1 X158.654Y124.98
G1 X158.763Y125.347
G1 X158.944Y125.691
G1 X159.198Y126.002
G0 X159.198Y126.002
G0 X161.22Y128.024
G0 X164.019Y125.224
G0 X171.998Y119.802
G1 X172.308Y120.054
G1 X172.653Y120.234
G1 X173.019Y120.342
G1 X173.397Y120.378
G1 X173.774Y120.341
G1 X174.14Y120.232
G1 X174.484Y120.051
G1 X174.794Y119.798
G1 X175.047Y119.488
G1 X175.228Y119.144
G1 X175.337Y118.778
G1 X175.374Y118.4
G1 X175.338Y118.023
G1 X175.23Y117.656
G1 X175.05Y117.312
G1 X174.798Y117.002
G0 X174.798Y117.002
G1 X172.774Y114.978
G0 X172.774Y114.989
G1 X173.092Y114.271
G1 X173.319Y113.528
G1 X173.455Y112.768
G1 X173.5Y112
G1 X173.454Y111.232
G1 X173.317Y110.472
G1 X173.09Y109.729
G1 X172.771Y109.011
G0 X172.771Y109.011
G1 X172.788
G0 X172.788Y109.011
G1 X174.098Y107.702
G0 X174.098Y107.702
G1 X174.35Y107.391
G1 X174.531Y107.047
G1 X174.639Y106.68
G1 X174.675Y106.302
G1 X174.638Y105.925
G1 X174.529Y105.558
G1 X174.348Y105.215
G1 X174.095Y104.905
G1 X173.785Y104.651
G1 X173.441Y104.47
G1 X173.074Y104.361
G1 X172.697Y104.325
G1 X172.319Y104.36
G1 X171.953Y104.468
G1 X171.608Y104.649
G1 X171.298Y104.902
G0 X171.298Y104.902
G1 X169.986Y106.214
G0 X169.986Y106.214
G1 Y106.229
G0 X169.986Y106.229
G1 X169.272Y105.912
G1 X168.533Y105.685
G1 X167.778Y105.549
G1 X167.014Y105.502
G1 X166.25Y105.545
G1 X165.494Y105.678
G1 X164.755Y105.901
G1 X164.039Y106.214
G0 X164.039Y106.214
G1 X164.01
G0 X164.01Y106.214
G1 X161.998Y104.202
G0 X161.998Y104.202
G1 X161.687Y103.948
G1 X161.343Y103.767
G1 X160.976Y103.658
G1 X160.598Y103.622
G1 X160.22Y103.658
G1 X159.853Y103.767
G1 X159.508Y103.948
G1 X159.198Y104.202
G1 X158.944Y104.512
G1 X158.763Y104.857
G1 X158.654Y105.223
G1 X158.618Y105.602
G1 X158.654Y105.98
G1 X158.763Y106.347
G1 X158.944Y106.691
G1 X159.198Y107.002
G0 X159.198Y107.002
G0 X159.198Y107.002
G1 X161.22Y109.024
G0 X161.22Y109.024
G1 X160.998Y109.501
G1 X160.817Y109.989
G1 X160.677Y110.484
G1 X160.577Y110.986
G1 X160.517Y111.49
G1 X160.497Y111.996
G1 X160.516Y112.501
G1 X160.574Y113.002
G1 X160.671Y113.497
G1 X160.806Y113.983
G1 X160.978Y114.459
G1 X161.189Y114.922
G1 X161.436Y115.37
G1 X161.72Y115.799
G1 X162.04Y116.209
G1 X162.397Y116.596
G1 X162.783Y116.953
G1 X163.192Y117.274
G1 X163.621Y117.559
G1 X164.068Y117.807
G1 X164.53Y118.018
G1 X165.006Y118.192
G1 X165.492Y118.328
G1 X165.987Y118.426
G1 X166.488Y118.485
G1 X166.992Y118.505
G1 X167.498Y118.486
G1 X168.003Y118.427
G1 X168.505Y118.328
G1 X169.001Y118.189
G1 X169.489Y118.009
G1 X169.966Y117.788
G0 X169.966Y117.788
G1 X169.984
G0 X169.966Y117.77
G1 X171.998Y119.802
G0 X182.948Y126.002
G1 X182.694Y125.691
G1 X182.513Y125.347
G1 X182.404Y124.98
G1 X182.368Y124.602
G1 X182.404Y124.223
G1 X182.513Y123.857
G1 X182.694Y123.512
G1 X182.948Y123.202
G1 X183.258Y122.948
G1 X183.603Y122.767
G1 X183.97Y122.658
G1 X184.348Y122.622
G1 X184.726Y122.658
G1 X185.093Y122.767
G1 X185.437Y122.948
G1 X185.748Y123.202
G0 X185.748Y123.202
G1 X187.76Y125.214
G0 X187.76Y125.214
G1 X187.789
G0 X187.769Y125.223
G0 X182.948Y126.002
G0 X182.948Y126.002
G1 X184.97Y128.024
G0 X184.97Y128.024
G1 X184.748Y128.501
G1 X184.567Y128.989
G1 X184.427Y129.484
G1 X184.327Y129.986
G1 X184.267Y130.49
G1 X184.247Y130.996
G1 X184.266Y131.501
G1 X184.324Y132.002
G1 X184.421Y132.497
G1 X184.556Y132.983
G1 X184.728Y133.459
G1 X184.939Y133.922
G1 X185.186Y134.37
G1 X185.47Y134.799
G1 X185.79Y135.209
G1 X186.147Y135.596
G1 X186.533Y135.953
G1 X186.942Y136.274
G1 X187.371Y136.559
G1 X187.818Y136.807
G1 X188.28Y137.018
G1 X188.756Y137.192
G1 X189.242Y137.328
G1 X189.737Y137.426
G1 X190.238Y137.485
G1 X190.742Y137.505
G1 X191.248Y137.486
G1 X191.753Y137.427
G1 X192.255Y137.328
G1 X192.751Y137.189
G1 X193.239Y137.009
G1 X193.716Y136.788
G0 X193.716Y136.788
G1 X193.734
G0 X193.716Y136.77
G1 X195.748Y138.802
G0 X195.748Y138.802
G1 X196.058Y139.054
G1 X196.403Y139.234
G1 X196.769Y139.342
G1 X197.147Y139.378
G1 X197.524Y139.341
G1 X197.89Y139.232
G1 X198.234Y139.051
G1 X198.544Y138.798
G1 X198.797Y138.488
G1 X198.978Y138.144
G1 X199.087Y137.778
G1 X199.124Y137.4
G1 X199.088Y137.023
G1 X198.98Y136.656
G1 X198.8Y136.312
G1 X198.548Y136.002
G0 X198.548Y136.002
G1 X196.524Y133.978
G0 X196.524Y133.989
G1 X196.842Y133.271
G1 X197.069Y132.528
G1 X197.205Y131.768
G1 X197.25Y131
G1 X197.204Y130.232
G1 X197.067Y129.472
G1 X196.84Y128.729
G1 X196.521Y128.012
G0 X196.521Y128.012
G1 X196.538
G0 X196.538Y128.012
G1 X197.848Y126.702
G0 X197.848Y126.702
G1 X198.1Y126.391
G1 X198.28Y126.047
G1 X198.388Y125.68
G1 X198.424Y125.303
G1 X198.387Y124.925
G1 X198.278Y124.559
G1 X198.097Y124.215
G1 X197.844Y123.905
G1 X197.534Y123.652
G1 X197.19Y123.471
G1 X196.824Y123.362
G1 X196.447Y123.325
G1 X196.069Y123.361
G1 X195.703Y123.469
G1 X195.358Y123.649
G1 X195.048Y123.902
G0 X195.048Y123.902
G1 X193.736Y125.214
G0 X193.736Y125.214
G1 Y125.229
G0 X193.736Y125.229
G1 X193.022Y124.912
G1 X192.283Y124.685
G1 X191.528Y124.549
G1 X190.764Y124.502
G1 X190Y124.545
G1 X189.244Y124.678
G1 X188.505Y124.901
G1 X187.789Y125.214
G0 X184.97Y128.024
G0 X190.998Y119.802
G1 X191.308Y120.054
G1 X191.653Y120.234
G1 X192.019Y120.342
G1 X192.397Y120.378
G1 X192.774Y120.341
G1 X193.14Y120.232
G1 X193.484Y120.051
G1 X193.794Y119.798
G1 X194.047Y119.488
G1 X194.228Y119.144
G1 X194.337Y118.778
G1 X194.374Y118.4
G1 X194.338Y118.023
G1 X194.23Y117.656
G1 X194.05Y117.312
G1 X193.798Y117.002
G0 X193.798Y117.002
G1 X191.774Y114.978
G0 X191.774Y114.989
G1 X192.092Y114.271
G1 X192.319Y113.528
G1 X192.455Y112.768
G1 X192.5Y112
G1 X192.454Y111.232
G1 X192.317Y110.472
G1 X192.09Y109.729
G1 X191.771Y109.011
G0 X191.771Y109.011
G1 X191.788
G0 X191.788Y109.011
G1 X193.098Y107.702
G0 X193.098Y107.702
G1 X193.35Y107.391
G1 X193.531Y107.047
G1 X193.639Y106.68
G1 X193.675Y106.302
G1 X193.638Y105.925
G1 X193.529Y105.558
G1 X193.348Y105.215
G1 X193.095Y104.905
G1 X192.785Y104.651
G1 X192.441Y104.47
G1 X192.074Y104.361
G1 X191.697Y104.325
G1 X191.319Y104.36
G1 X190.953Y104.468
G1 X190.608Y104.649
G1 X190.298Y104.902
G0 X190.298Y104.902
G1 X188.986Y106.214
G0 X188.986Y106.214
G1 Y106.229
G0 X188.986Y106.229
G1 X188.272Y105.912
G1 X187.533Y105.685
G1 X186.778Y105.549
G1 X186.014Y105.502
G1 X185.25Y105.545
G1 X184.494Y105.678
G1 X183.755Y105.901
G1 X183.039Y106.214
G0 X183.039Y106.214
G1 X183.01
G0 X183.01Y106.214
G1 X180.998Y104.202
G0 X180.998Y104.202
G1 X180.687Y103.948
G1 X180.343Y103.767
G1 X179.976Y103.658
G1 X179.598Y103.622
G1 X179.22Y103.658
G1 X178.853Y103.767
G1 X178.508Y103.948
G1 X178.198Y104.202
G1 X177.944Y104.512
G1 X177.763Y104.857
G1 X177.654Y105.223
G1 X177.618Y105.602
G1 X177.654Y105.98
G1 X177.763Y106.347
G1 X177.944Y106.691
G1 X178.198Y107.002
G0 X178.198Y107.002
G0 X178.198Y107.002
G1 X180.22Y109.024
G0 X180.22Y109.024
G1 X179.998Y109.501
G1 X179.817Y109.989
G1 X179.677Y110.484
G1 X179.577Y110.986
G1 X179.517Y111.49
G1 X179.497Y111.996
G1 X179.516Y112.501
G1 X179.574Y113.002
G1 X179.671Y113.497
G1 X179.806Y113.983
G1 X179.978Y114.459
G1 X180.189Y114.922
G1 X180.436Y115.37
G1 X180.72Y115.799
G1 X181.04Y116.209
G1 X181.397Y116.596
G1 X181.783Y116.953
G1 X182.192Y117.274
G1 X182.621Y117.559
G1 X183.068Y117.807
G1 X183.53Y118.018
G1 X184.006Y118.192
G1 X184.492Y118.328
G1 X184.987Y118.426
G1 X185.488Y118.485
G1 X185.992Y118.505
G1 X186.498Y118.486
G1 X187.003Y118.427
G1 X187.505Y118.328
G1 X188.001Y118.189
G1 X188.489Y118.009
G1 X188.966Y117.788
G0 X188.966Y117.788
G1 X188.984
G0 X188.966Y117.77
G1 X190.998Y119.802
G0 X207.966Y117.788
G1 X207.489Y118.009
G1 X207.001Y118.189
G1 X206.505Y118.328
G1 X206.003Y118.427
G1 X205.498Y118.486
G1 X204.992Y118.505
G1 X204.488Y118.485
G1 X203.987Y118.426
G1 X203.492Y118.328
G1 X203.006Y118.192
G1 X202.53Y118.018
G1 X202.068Y117.807
G1 X201.621Y117.559
G1 X201.192Y117.274
G1 X200.783Y116.953
G1 X200.397Y116.596
G1 X200.04Y116.209
G1 X199.72Y115.799
G1 X199.436Y115.37
G1 X199.189Y114.922
G1 X198.978Y114.459
G1 X198.806Y113.983
G1 X198.671Y113.497
G1 X198.574Y113.002
G1 X198.516Y112.501
G1 X198.497Y111.996
G1 X198.517Y111.49
G1 X198.577Y110.986
G1 X198.677Y110.484
G1 X198.817Y109.989
G1 X198.998Y109.501
G1 X199.22Y109.024
G0 X199.22Y109.024
G1 X197.198Y107.002
G0 X197.198Y107.002
G0 X197.198Y107.002
G1 X196.944Y106.691
G1 X196.763Y106.347
G1 X196.654Y105.98
G1 X196.618Y105.602
G1 X196.654Y105.223
G1 X196.763Y104.857
G1 X196.944Y104.512
G1 X197.198Y104.202
G1 X197.508Y103.948
G1 X197.853Y103.767
G1 X198.22Y103.658
G1 X198.598Y103.622
G1 X198.976Y103.658
G1 X199.343Y103.767
G1 X199.687Y103.948
G1 X199.998Y104.202
G0 X199.998Y104.202
G1 X202.01Y106.214
G0 X202.01Y106.214
G1 X202.039
G0 X202.019Y106.223
G0 X199.22Y109.024
G0 X207.986Y106.229
G1 Y106.214
G0 X207.986Y106.214
G1 X209.298Y104.902
G0 X209.298Y104.902
G1 X209.608Y104.649
G1 X209.953Y104.468
G1 X210.319Y104.36
G1 X210.697Y104.325
G1 X211.074Y104.361
G1 X211.441Y104.47
G1 X211.785Y104.651
G1 X212.095Y104.905
G1 X212.348Y105.215
G1 X212.529Y105.558
G1 X212.638Y105.925
G1 X212.675Y106.302
G1 X212.639Y106.68
G1 X212.531Y107.047
G1 X212.35Y107.391
G1 X212.098Y107.702
G0 X212.098Y107.702
G1 X210.788Y109.011
G0 X210.788Y109.011
G1 X210.771
G0 X210.771Y109.011
G1 X211.09Y109.729
G1 X211.317Y110.472
G1 X211.454Y111.232
G1 X211.5Y112
G1 X211.455Y112.768
G1 X211.319Y113.528
G1 X211.092Y114.271
G1 X210.774Y114.989
G0 X210.774Y114.978
G1 X212.798Y117.002
G0 X212.798Y117.002
G1 X213.05Y117.312
G1 X213.23Y117.656
G1 X213.338Y118.023
G1 X213.374Y118.4
G1 X213.337Y118.778
G1 X213.228Y119.144
G1 X213.047Y119.488
G1 X212.794Y119.798
G1 X212.484Y120.051
G1 X212.14Y120.232
G1 X211.774Y120.341
G1 X211.397Y120.378
G1 X211.019Y120.342
G1 X210.653Y120.234
G1 X210.308Y120.054
G1 X209.998Y119.802
G0 X209.998Y119.802
G1 X207.966Y117.77
G0 X207.966Y117.788
G1 X207.984
G0 X207.986Y106.229
G1 X207.272Y105.912
G1 X206.533Y105.685
G1 X205.778Y105.549
G1 X205.014Y105.502
G1 X204.25Y105.545
G1 X203.494Y105.678
G1 X202.755Y105.901
G1 X202.039Y106.214
G0 X183.019Y106.223
G0 X180.22Y109.024
G0 X164.019Y106.224
G0 X161.22Y109.024
G0 X123.948Y107.002
G0 X114.498Y142.202
G1 X114.187Y141.948
G1 X113.843Y141.767
G1 X113.476Y141.658
G1 X113.098Y141.622
G1 X112.72Y141.658
G1 X112.353Y141.767
G1 X112.008Y141.948
G1 X111.698Y142.202
G1 X111.444Y142.512
G1 X111.263Y142.857
G1 X111.154Y143.223
G1 X111.118Y143.602
G1 X111.154Y143.98
G1 X111.263Y144.347
G1 X111.444Y144.691
G1 X111.698Y145.002
G0 X111.698Y145.002
G0 X111.698Y145.002
G1 X113.72Y147.024
G0 X113.72Y147.024
G1 X113.498Y147.501
G1 X113.317Y147.989
G1 X113.177Y148.484
G1 X113.077Y148.986
G1 X113.017Y149.49
G1 X112.997Y149.996
G1 X113.016Y150.501
G1 X113.074Y151.002
G1 X113.171Y151.497
G1 X113.306Y151.983
G1 X113.478Y152.459
G1 X113.689Y152.922
G1 X113.936Y153.37
G1 X114.22Y153.799
G1 X114.54Y154.209
G1 X114.897Y154.596
G1 X115.283Y154.953
G1 X115.692Y155.274
G1 X116.121Y155.559
G1 X116.568Y155.807
G1 X117.03Y156.018
G1 X117.506Y156.192
G1 X117.992Y156.328
G1 X118.487Y156.426
G1 X118.988Y156.485
G1 X119.492Y156.505
G1 X119.998Y156.486
G1 X120.503Y156.427
G1 X121.005Y156.328
G1 X121.501Y156.189
G1 X121.989Y156.009
G1 X122.466Y155.788
G0 X122.466Y155.788
G1 X122.484
G0 X122.466Y155.77
G1 X124.498Y157.802
G0 X124.498Y157.802
G1 X124.808Y158.054
G1 X125.153Y158.234
G1 X125.519Y158.342
G1 X125.897Y158.378
G1 X126.274Y158.341
G1 X126.64Y158.232
G1 X126.984Y158.051
G1 X127.294Y157.798
G1 X127.547Y157.488
G1 X127.728Y157.144
G1 X127.837Y156.778
G1 X127.874Y156.4
G1 X127.838Y156.023
G1 X127.73Y155.656
G1 X127.55Y155.312
G1 X127.298Y155.002
G0 X127.298Y155.002
G1 X125.274Y152.978
G0 X125.271Y147.012
G1 X125.288
G0 X125.288Y147.012
G1 X126.598Y145.702
G0 X126.598Y145.702
G1 X126.85Y145.391
G1 X127.03Y145.047
G1 X127.138Y144.68
G1 X127.174Y144.303
G1 X127.137Y143.925
G1 X127.028Y143.559
G1 X126.847Y143.215
G1 X126.594Y142.905
G1 X126.284Y142.652
G1 X125.94Y142.471
G1 X125.574Y142.362
G1 X125.197Y142.325
G1 X124.819Y142.361
G1 X124.453Y142.469
G1 X124.108Y142.649
G1 X123.798Y142.902
G0 X123.798Y142.902
G1 X122.486Y144.214
G0 X122.486Y144.214
G1 Y144.229
G0 X122.486Y144.229
G1 X121.772Y143.912
G1 X121.033Y143.685
G1 X120.278Y143.549
G1 X119.514Y143.502
G1 X118.75Y143.545
G1 X117.994Y143.678
G1 X117.255Y143.901
G1 X116.539Y144.214
G0 X116.539Y144.214
G1 X116.51
G0 X116.51Y144.214
G1 X114.498Y142.202
G0 X116.519Y144.223
G0 X113.72Y147.024
G0 X107.598Y145.702
G1 X107.851Y145.391
G1 X108.032Y145.047
G1 X108.14Y144.68
G1 X108.176Y144.302
G1 X108.139Y143.924
G1 X108.031Y143.558
G1 X107.849Y143.214
G1 X107.596Y142.903
G1 X107.286Y142.65
G1 X106.942Y142.469
G1 X106.575Y142.36
G1 X106.197Y142.323
G1 X105.819Y142.359
G1 X105.453Y142.468
G1 X105.108Y142.648
G1 X104.798Y142.902
G0 X104.798Y142.902
G1 X103.486Y144.214
G0 X103.486Y144.214
G1 Y144.229
G0 X103.486Y144.229
G1 X102.772Y143.912
G1 X102.033Y143.685
G1 X101.278Y143.549
G1 X100.514Y143.502
G1 X99.75Y143.545
G1 X98.994Y143.678
G1 X98.255Y143.901
G1 X97.539Y144.214
G0 X97.539Y144.214
G1 X97.51
G0 X97.51Y144.214
G1 X95.498Y142.202
G0 X95.498Y142.202
G1 X95.187Y141.948
G1 X94.843Y141.767
G1 X94.476Y141.658
G1 X94.098Y141.622
G1 X93.72Y141.658
G1 X93.353Y141.767
G1 X93.008Y141.948
G1 X92.698Y142.202
G1 X92.444Y142.512
G1 X92.263Y142.857
G1 X92.154Y143.223
G1 X92.118Y143.602
G1 X92.154Y143.98
G1 X92.263Y144.347
G1 X92.444Y144.691
G1 X92.698Y145.002
G0 X92.698Y145.002
G0 X92.698Y145.002
G1 X94.72Y147.024
G0 X94.72Y147.024
G1 X94.498Y147.501
G1 X94.317Y147.989
G1 X94.176Y148.484
G1 X94.077Y148.986
G1 X94.017Y149.49
G1 X93.997Y149.996
G1 X94.016Y150.501
G1 X94.074Y151.002
G1 X94.171Y151.497
G1 X94.306Y151.983
G1 X94.478Y152.459
G1 X94.689Y152.922
G1 X94.936Y153.37
G1 X95.22Y153.799
G1 X95.54Y154.209
G1 X95.897Y154.596
G1 X96.283Y154.953
G1 X96.692Y155.274
G1 X97.121Y155.559
G1 X97.568Y155.807
G1 X98.03Y156.018
G1 X98.506Y156.192
G1 X98.992Y156.328
G1 X99.487Y156.426
G1 X99.988Y156.485
G1 X100.492Y156.505
G1 X100.998Y156.486
G1 X101.503Y156.427
G1 X102.005Y156.328
G1 X102.501Y156.189
G1 X102.989Y156.009
G1 X103.466Y155.788
G0 X103.466Y155.788
G1 X103.484
G0 X103.466Y155.77
G1 X105.498Y157.802
G0 X105.498Y157.802
G1 X105.808Y158.055
G1 X106.153Y158.235
G1 X106.519Y158.344
G1 X106.897Y158.38
G1 X107.275Y158.343
G1 X107.642Y158.235
G1 X107.986Y158.053
G1 X108.296Y157.8
G1 X108.549Y157.49
G1 X108.731Y157.145
G1 X108.839Y156.779
G1 X108.876Y156.401
G1 X108.84Y156.023
G1 X108.732Y155.657
G1 X108.551Y155.312
G1 X108.298Y155.002
G0 X108.298Y155.002
G1 X106.274Y152.978
G0 X106.271Y147.012
G1 X106.288
G0 X106.288Y147.012
G1 X107.598Y145.702
G0 X106.271Y147.012
G1 X106.589Y147.729
G1 X106.817Y148.472
G1 X106.954Y149.232
G1 X107Y150
G1 X106.955Y150.768
G1 X106.819Y151.528
G1 X106.592Y152.271
G1 X106.274Y152.989
G0 X100.248Y161.202
G1 X99.937Y160.948
G1 X99.593Y160.767
G1 X99.226Y160.658
G1 X98.848Y160.622
G1 X98.47Y160.658
G1 X98.103Y160.767
G1 X97.758Y160.948
G1 X97.448Y161.202
G1 X97.194Y161.512
G1 X97.013Y161.857
G1 X96.904Y162.223
G1 X96.868Y162.602
G1 X96.904Y162.98
G1 X97.013Y163.347
G1 X97.194Y163.691
G1 X97.448Y164.002
G0 X97.448Y164.002
G0 X97.448Y164.002
G1 X99.47Y166.024
G0 X99.47Y166.024
G1 X99.248Y166.501
G1 X99.067Y166.989
G1 X98.926Y167.484
G1 X98.827Y167.986
G1 X98.767Y168.49
G1 X98.747Y168.996
G1 X98.766Y169.501
G1 X98.824Y170.002
G1 X98.921Y170.497
G1 X99.056Y170.983
G1 X99.228Y171.459
G1 X99.439Y171.922
G1 X99.686Y172.37
G1 X99.97Y172.799
G1 X100.29Y173.209
G1 X100.647Y173.596
G1 X101.033Y173.953
G1 X101.442Y174.274
G1 X101.871Y174.559
G1 X102.318Y174.807
G1 X102.78Y175.018
G1 X103.256Y175.192
G1 X103.742Y175.328
G1 X104.237Y175.426
G1 X104.738Y175.485
G1 X105.242Y175.505
G1 X105.748Y175.486
G1 X106.253Y175.427
G1 X106.755Y175.328
G1 X107.251Y175.189
G1 X107.739Y175.009
G1 X108.216Y174.788
G0 X108.216Y174.788
G1 X108.234
G0 X108.216Y174.77
G1 X110.248Y176.802
G0 X110.248Y176.802
G1 X110.558Y177.055
G1 X110.903Y177.237
G1 X111.27Y177.345
G1 X111.648Y177.382
G1 X112.026Y177.345
G1 X112.393Y177.237
G1 X112.737Y177.055
G1 X113.048Y176.802
G1 X113.301Y176.491
G1 X113.483Y176.147
G1 X113.591Y175.78
G1 X113.628Y175.402
G1 X113.591Y175.023
G1 X113.483Y174.657
G1 X113.301Y174.312
G1 X113.048Y174.002
G0 X113.048Y174.002
G1 X111.024Y171.978
G0 X111.021Y166.012
G1 X111.038
G0 X111.038Y166.012
G1 X112.348Y164.702
G0 X112.348Y164.702
G1 X112.6Y164.391
G1 X112.78Y164.047
G1 X112.888Y163.68
G1 X112.924Y163.303
G1 X112.887Y162.925
G1 X112.778Y162.559
G1 X112.597Y162.215
G1 X112.344Y161.905
G1 X112.034Y161.652
G1 X111.69Y161.471
G1 X111.324Y161.362
G1 X110.947Y161.325
G1 X110.569Y161.361
G1 X110.203Y161.469
G1 X109.858Y161.649
G1 X109.548Y161.902
G0 X109.548Y161.902
G1 X108.236Y163.214
G0 X108.236Y163.214
G1 Y163.229
G0 X108.236Y163.229
G1 X107.522Y162.912
G1 X106.783Y162.685
G1 X106.028Y162.549
G1 X105.264Y162.502
G1 X104.5Y162.545
G1 X103.744Y162.678
G1 X103.005Y162.901
G1 X102.289Y163.214
G0 X102.289Y163.214
G1 X102.26
G0 X102.26Y163.214
G1 X100.248Y161.202
G0 X102.269Y163.223
G0 X99.47Y166.024
G0 X111.021Y166.012
G1 X111.339Y166.729
G1 X111.567Y167.472
G1 X111.704Y168.232
G1 X111.75Y169
G1 X111.705Y169.768
G1 X111.569Y170.528
G1 X111.342Y171.271
G1 X111.024Y171.989
G0 X118.47Y166.024
G1 X118.248Y166.501
G1 X118.067Y166.989
G1 X117.927Y167.484
G1 X117.827Y167.986
G1 X117.767Y168.49
G1 X117.747Y168.996
G1 X117.766Y169.501
G1 X117.824Y170.002
G1 X117.921Y170.497
G1 X118.056Y170.983
G1 X118.228Y171.459
G1 X118.439Y171.922
G1 X118.686Y172.37
G1 X118.97Y172.799
G1 X119.29Y173.209
G1 X119.647Y173.596
G1 X120.033Y173.953
G1 X120.442Y174.274
G1 X120.871Y174.559
G1 X121.318Y174.807
G1 X121.78Y175.018
G1 X122.256Y175.192
G1 X122.742Y175.328
G1 X123.237Y175.426
G1 X123.738Y175.485
G1 X124.242Y175.505
G1 X124.748Y175.486
G1 X125.253Y175.427
G1 X125.755Y175.328
G1 X126.251Y175.189
G1 X126.739Y175.009
G1 X127.216Y174.788
G0 X127.216Y174.788
G1 X127.234
G0 X127.216Y174.77
G1 X129.248Y176.802
G0 X129.248Y176.802
G1 X129.558Y177.054
G1 X129.903Y177.235
G1 X130.269Y177.343
G1 X130.647Y177.379
G1 X131.025Y177.342
G1 X131.391Y177.233
G1 X131.735Y177.052
G1 X132.045Y176.799
G1 X132.298Y176.489
G1 X132.479Y176.145
G1 X132.588Y175.778
G1 X132.625Y175.401
G1 X132.589Y175.023
G1 X132.481Y174.656
G1 X132.3Y174.312
G1 X132.048Y174.002
G0 X132.048Y174.002
G1 X130.024Y171.978
G0 X130.024Y171.989
G1 X130.342Y171.271
G1 X130.569Y170.528
G1 X130.705Y169.768
G1 X130.75Y169
G1 X130.704Y168.232
G1 X130.567Y167.472
G1 X130.34Y166.729
G1 X130.021Y166.012
G0 X130.021Y166.012
G1 X130.038
G0 X130.038Y166.012
G1 X131.348Y164.702
G0 X131.348Y164.702
G1 X131.6Y164.391
G1 X131.78Y164.047
G1 X131.888Y163.68
G1 X131.924Y163.303
G1 X131.887Y162.925
G1 X131.778Y162.559
G1 X131.597Y162.215
G1 X131.344Y161.905
G1 X131.034Y161.652
G1 X130.69Y161.471
G1 X130.324Y161.362
G1 X129.947Y161.325
G1 X129.569Y161.361
G1 X129.203Y161.469
G1 X128.858Y161.649
G1 X128.548Y161.902
G0 X128.548Y161.902
G1 X127.236Y163.214
G0 X127.236Y163.214
G1 Y163.229
G0 X127.236Y163.229
G1 X126.522Y162.912
G1 X125.783Y162.685
G1 X125.028Y162.549
G1 X124.264Y162.502
G1 X123.5Y162.545
G1 X122.744Y162.678
G1 X122.005Y162.901
G1 X121.289Y163.214
G0 X121.289Y163.214
G1 X121.26
G0 X121.26Y163.214
G1 X119.248Y161.202
G0 X119.248Y161.202
G1 X118.937Y160.948
G1 X118.593Y160.767
G1 X118.226Y160.658
G1 X117.848Y160.622
G1 X117.47Y160.658
G1 X117.103Y160.767
G1 X116.758Y160.948
G1 X116.448Y161.202
G1 X116.194Y161.512
G1 X116.013Y161.857
G1 X115.904Y162.223
G1 X115.868Y162.602
G1 X115.904Y162.98
G1 X116.013Y163.347
G1 X116.194Y163.691
G1 X116.448Y164.002
G0 X116.448Y164.002
G0 X116.448Y164.002
G1 X118.47Y166.024
G0 X118.47Y166.024
G0 X121.269Y163.224
G0 X135.448Y164.002
G1 X135.194Y163.691
G1 X135.013Y163.347
G1 X134.904Y162.98
G1 X134.868Y162.602
G1 X134.904Y162.223
G1 X135.013Y161.857
G1 X135.194Y161.512
G1 X135.448Y161.202
G1 X135.758Y160.948
G1 X136.103Y160.767
G1 X136.47Y160.658
G1 X136.848Y160.622
G1 X137.226Y160.658
G1 X137.593Y160.767
G1 X137.937Y160.948
G1 X138.248Y161.202
G0 X138.248Y161.202
G1 X140.26Y163.214
G0 X140.26Y163.214
G1 X140.289
G0 X140.269Y163.223
G0 X135.448Y164.002
G0 X135.448Y164.002
G1 X137.47Y166.024
G0 X137.47Y166.024
G1 X137.248Y166.501
G1 X137.067Y166.989
G1 X136.927Y167.484
G1 X136.827Y167.986
G1 X136.767Y168.49
G1 X136.747Y168.996
G1 X136.766Y169.501
G1 X136.824Y170.002
G1 X136.921Y170.497
G1 X137.056Y170.983
G1 X137.228Y171.459
G1 X137.439Y171.922
G1 X137.686Y172.37
G1 X137.97Y172.799
G1 X138.29Y173.209
G1 X138.647Y173.596
G1 X139.033Y173.953
G1 X139.442Y174.274
G1 X139.871Y174.559
G1 X140.318Y174.807
G1 X140.78Y175.018
G1 X141.256Y175.192
G1 X141.742Y175.328
G1 X142.237Y175.426
G1 X142.738Y175.485
G1 X143.242Y175.505
G1 X143.748Y175.486
G1 X144.253Y175.427
G1 X144.755Y175.328
G1 X145.251Y175.189
G1 X145.739Y175.009
G1 X146.216Y174.788
G0 X146.216Y174.788
G1 X146.234
G0 X146.216Y174.77
G1 X148.248Y176.802
G0 X148.248Y176.802
G1 X148.558Y177.054
G1 X148.903Y177.235
G1 X149.269Y177.343
G1 X149.647Y177.379
G1 X150.025Y177.342
G1 X150.391Y177.233
G1 X150.735Y177.052
G1 X151.045Y176.799
G1 X151.298Y176.489
G1 X151.479Y176.145
G1 X151.588Y175.778
G1 X151.625Y175.401
G1 X151.589Y175.023
G1 X151.481Y174.656
G1 X151.3Y174.312
G1 X151.048Y174.002
G0 X151.048Y174.002
G1 X149.024Y171.978
G0 X149.024Y171.989
G1 X149.342Y171.271
G1 X149.569Y170.528
G1 X149.705Y169.768
G1 X149.75Y169
G1 X149.704Y168.232
G1 X149.567Y167.472
G1 X149.34Y166.729
G1 X149.021Y166.012
G0 X149.021Y166.012
G1 X149.038
G0 X149.038Y166.012
G1 X150.348Y164.702
G0 X150.348Y164.702
G1 X150.6Y164.391
G1 X150.78Y164.047
G1 X150.888Y163.68
G1 X150.924Y163.303
G1 X150.887Y162.925
G1 X150.778Y162.559
G1 X150.597Y162.215
G1 X150.344Y161.905
G1 X150.034Y161.652
G1 X149.69Y161.471
G1 X149.324Y161.362
G1 X148.947Y161.325
G1 X148.569Y161.361
G1 X148.203Y161.469
G1 X147.858Y161.649
G1 X147.548Y161.902
G0 X147.548Y161.902
G1 X146.236Y163.214
G0 X146.236Y163.214
G1 Y163.229
G0 X146.236Y163.229
G1 X145.522Y162.912
G1 X144.783Y162.685
G1 X144.028Y162.549
G1 X143.264Y162.502
G1 X142.5Y162.545
G1 X141.744Y162.678
G1 X141.005Y162.901
G1 X140.289Y163.214
G0 X137.47Y166.024
G0 X143.498Y157.802
G1 X141.466Y155.77
G0 X141.466Y155.788
G1 X140.989Y156.009
G1 X140.501Y156.189
G1 X140.005Y156.328
G1 X139.503Y156.427
G1 X138.998Y156.486
G1 X138.492Y156.505
G1 X137.988Y156.485
G1 X137.487Y156.426
G1 X136.992Y156.328
G1 X136.506Y156.192
G1 X136.03Y156.018
G1 X135.568Y155.807
G1 X135.121Y155.559
G1 X134.692Y155.274
G1 X134.283Y154.953
G1 X133.897Y154.596
G1 X133.54Y154.209
G1 X133.22Y153.799
G1 X132.936Y153.37
G1 X132.689Y152.922
G1 X132.478Y152.459
G1 X132.306Y151.983
G1 X132.171Y151.497
G1 X132.074Y151.002
G1 X132.016Y150.501
G1 X131.997Y149.996
G1 X132.017Y149.49
G1 X132.077Y148.986
G1 X132.177Y148.484
G1 X132.317Y147.989
G1 X132.498Y147.501
G1 X132.72Y147.024
G0 X132.72Y147.024
G0 X132.72Y147.024
G1 X130.698Y145.002
G0 X130.698Y145.002
G0 X130.698Y145.002
G1 X130.444Y144.691
G1 X130.263Y144.347
G1 X130.154Y143.98
G1 X130.118Y143.602
G1 X130.154Y143.223
G1 X130.263Y142.857
G1 X130.444Y142.512
G1 X130.698Y142.202
G1 X131.008Y141.948
G1 X131.353Y141.767
G1 X131.72Y141.658
G1 X132.098Y141.622
G1 X132.476Y141.658
G1 X132.843Y141.767
G1 X133.187Y141.948
G1 X133.498Y142.202
G0 X133.498Y142.202
G1 X135.51Y144.214
G0 X135.51Y144.214
G1 X135.539
G0 X135.519Y144.223
G0 X141.486Y144.229
G1 Y144.214
G0 X141.486Y144.214
G1 X142.798Y142.902
G0 X142.798Y142.902
G1 X143.108Y142.649
G1 X143.453Y142.469
G1 X143.819Y142.361
G1 X144.197Y142.325
G1 X144.574Y142.362
G1 X144.94Y142.471
G1 X145.284Y142.652
G1 X145.594Y142.905
G1 X145.847Y143.215
G1 X146.028Y143.559
G1 X146.137Y143.925
G1 X146.174Y144.303
G1 X146.138Y144.68
G1 X146.03Y145.047
G1 X145.85Y145.391
G1 X145.598Y145.702
G0 X145.598Y145.702
G1 X144.288Y147.012
G0 X144.288Y147.012
G1 X144.271
G0 X144.271Y147.012
G1 X144.59Y147.729
G1 X144.817Y148.472
G1 X144.954Y149.232
G1 X145Y150
G1 X144.955Y150.768
G1 X144.819Y151.528
G1 X144.592Y152.271
G1 X144.274Y152.989
G0 X144.274Y152.978
G1 X146.298Y155.002
G0 X146.298Y155.002
G1 X146.55Y155.312
G1 X146.73Y155.656
G1 X146.838Y156.023
G1 X146.874Y156.4
G1 X146.837Y156.778
G1 X146.728Y157.144
G1 X146.547Y157.488
G1 X146.294Y157.798
G1 X145.984Y158.051
G1 X145.64Y158.232
G1 X145.274Y158.341
G1 X144.897Y158.378
G1 X144.519Y158.342
G1 X144.153Y158.234
G1 X143.808Y158.054
G1 X143.498Y157.802
G0 X141.484Y155.788
G1 X141.466
G0 X151.72Y147.024
G1 X151.498Y147.501
G1 X151.317Y147.989
G1 X151.177Y148.484
G1 X151.077Y148.986
G1 X151.017Y149.49
G1 X150.997Y149.996
G1 X151.016Y150.501
G1 X151.074Y151.002
G1 X151.171Y151.497
G1 X151.306Y151.983
G1 X151.478Y152.459
G1 X151.689Y152.922
G1 X151.936Y153.37
G1 X152.22Y153.799
G1 X152.54Y154.209
G1 X152.897Y154.596
G1 X153.283Y154.953
G1 X153.692Y155.274
G1 X154.121Y155.559
G1 X154.568Y155.807
G1 X155.03Y156.018
G1 X155.506Y156.192
G1 X155.992Y156.328
G1 X156.487Y156.426
G1 X156.988Y156.485
G1 X157.492Y156.505
G1 X157.998Y156.486
G1 X158.503Y156.427
G1 X159.005Y156.328
G1 X159.501Y156.189
G1 X159.989Y156.009
G1 X160.466Y155.788
G0 X160.466Y155.788
G1 X160.484
G0 X160.466Y155.77
G1 X162.498Y157.802
G0 X162.498Y157.802
G1 X162.808Y158.054
G1 X163.153Y158.234
G1 X163.519Y158.342
G1 X163.897Y158.378
G1 X164.274Y158.341
G1 X164.64Y158.232
G1 X164.984Y158.051
G1 X165.294Y157.798
G1 X165.547Y157.488
G1 X165.728Y157.144
G1 X165.837Y156.778
G1 X165.874Y156.4
G1 X165.838Y156.023
G1 X165.73Y155.656
G1 X165.55Y155.312
G1 X165.298Y155.002
G0 X165.298Y155.002
G1 X163.274Y152.978
G0 X163.274Y152.989
G1 X163.592Y152.271
G1 X163.819Y151.528
G1 X163.955Y150.768
G1 X164Y150
G1 X163.954Y149.232
G1 X163.817Y148.472
G1 X163.59Y147.729
G1 X163.271Y147.012
G0 X163.271Y147.012
G1 X163.288
G0 X163.288Y147.012
G1 X164.598Y145.702
G0 X164.598Y145.702
G1 X164.85Y145.391
G1 X165.03Y145.047
G1 X165.138Y144.68
G1 X165.174Y144.303
G1 X165.137Y143.925
G1 X165.028Y143.559
G1 X164.847Y143.215
G1 X164.594Y142.905
G1 X164.284Y142.652
G1 X163.94Y142.471
G1 X163.574Y142.362
G1 X163.197Y142.325
G1 X162.819Y142.361
G1 X162.453Y142.469
G1 X162.108Y142.649
G1 X161.798Y142.902
G0 X161.798Y142.902
G1 X160.486Y144.214
G0 X160.486Y144.214
G1 Y144.229
G0 X160.486Y144.229
G1 X159.772Y143.912
G1 X159.033Y143.685
G1 X158.278Y143.549
G1 X157.514Y143.502
G1 X156.75Y143.545
G1 X155.994Y143.678
G1 X155.255Y143.901
G1 X154.539Y144.214
G0 X154.539Y144.214
G1 X154.51
G0 X154.51Y144.214
G1 X152.498Y142.202
G0 X152.498Y142.202
G1 X152.187Y141.948
G1 X151.843Y141.767
G1 X151.476Y141.658
G1 X151.098Y141.622
G1 X150.72Y141.658
G1 X150.353Y141.767
G1 X150.008Y141.948
G1 X149.698Y142.202
G1 X149.444Y142.512
G1 X149.263Y142.857
G1 X149.154Y143.223
G1 X149.118Y143.602
G1 X149.154Y143.98
G1 X149.263Y144.347
G1 X149.444Y144.691
G1 X149.698Y145.002
G0 X149.698Y145.002
G0 X149.698Y145.002
G1 X151.72Y147.024
G0 X151.72Y147.024
G0 X154.519Y144.224
G0 X141.486Y144.229
G1 X140.772Y143.912
G1 X140.033Y143.685
G1 X139.278Y143.549
G1 X138.514Y143.502
G1 X137.75Y143.545
G1 X136.994Y143.678
G1 X136.255Y143.901
G1 X135.539Y144.214
G0 X125.271Y147.012
G1 X125.589Y147.729
G1 X125.817Y148.472
G1 X125.954Y149.232
G1 X126Y150
G1 X125.955Y150.768
G1 X125.819Y151.528
G1 X125.592Y152.271
G1 X125.274Y152.989
G0 X97.519Y144.224
G0 X94.72Y147.024
G0 X109.748Y180.202
G1 X109.437Y179.948
G1 X109.093Y179.767
G1 X108.726Y179.659
G1 X108.348Y179.622
G1 X107.97Y179.659
G1 X107.603Y179.767
G1 X107.259Y179.949
G1 X106.948Y180.202
G1 X106.695Y180.513
G1 X106.514Y180.857
G1 X106.405Y181.224
G1 X106.368Y181.602
G1 X106.405Y181.98
G1 X106.513Y182.347
G1 X106.694Y182.691
G1 X106.948Y183.002
G0 X106.948Y183.002
G0 X106.948Y183.002
G1 X108.97Y185.024
G0 X108.97Y185.024
G1 X108.748Y185.501
G1 X108.567Y185.989
G1 X108.426Y186.484
G1 X108.327Y186.986
G1 X108.267Y187.49
G1 X108.247Y187.996
G1 X108.266Y188.501
G1 X108.324Y189.002
G1 X108.421Y189.497
G1 X108.556Y189.983
G1 X108.728Y190.459
G1 X108.939Y190.922
G1 X109.186Y191.37
G1 X109.47Y191.799
G1 X109.79Y192.209
G1 X110.147Y192.596
G1 X110.533Y192.953
G1 X110.942Y193.274
G1 X111.371Y193.559
G1 X111.818Y193.807
G1 X112.28Y194.018
G1 X112.756Y194.192
G1 X113.242Y194.328
G1 X113.737Y194.426
G1 X114.238Y194.485
G1 X114.742Y194.505
G1 X115.248Y194.486
G1 X115.753Y194.427
G1 X116.255Y194.328
G1 X116.751Y194.189
G1 X117.239Y194.009
G1 X117.716Y193.788
G0 X117.716Y193.788
G1 X117.734
G0 X117.716Y193.77
G1 X119.748Y195.802
G0 X119.748Y195.802
G1 X120.058Y196.054
G1 X120.403Y196.235
G1 X120.769Y196.343
G1 X121.147Y196.379
G1 X121.524Y196.342
G1 X121.891Y196.233
G1 X122.235Y196.052
G1 X122.545Y195.799
G1 X122.798Y195.489
G1 X122.979Y195.145
G1 X123.088Y194.778
G1 X123.125Y194.401
G1 X123.089Y194.023
G1 X122.981Y193.656
G1 X122.8Y193.312
G1 X122.548Y193.002
G0 X122.548Y193.002
G1 X120.524Y190.978
G0 X120.521Y185.012
G1 X120.538
G0 X120.538Y185.012
G1 X121.848Y183.702
G0 X121.848Y183.702
G1 X122.1Y183.391
G1 X122.281Y183.047
G1 X122.389Y182.68
G1 X122.424Y182.303
G1 X122.388Y181.925
G1 X122.279Y181.559
G1 X122.098Y181.215
G1 X121.844Y180.905
G1 X121.534Y180.652
G1 X121.191Y180.47
G1 X120.824Y180.362
G1 X120.447Y180.325
G1 X120.069Y180.361
G1 X119.703Y180.469
G1 X119.358Y180.649
G1 X119.048Y180.902
G0 X119.048Y180.902
G1 X117.736Y182.214
G0 X117.736Y182.214
G1 Y182.229
G0 X117.736Y182.229
G1 X117.022Y181.912
G1 X116.283Y181.685
G1 X115.528Y181.549
G1 X114.764Y181.502
G1 X114Y181.545
G1 X113.244Y181.678
G1 X112.505Y181.901
G1 X111.789Y182.214
G0 X111.789Y182.214
G1 X111.76
G0 X111.76Y182.214
G1 X109.748Y180.202
G0 X111.769Y182.223
G0 X108.97Y185.024
G0 X120.521Y185.012
G1 X120.839Y185.729
G1 X121.067Y186.472
G1 X121.204Y187.232
G1 X121.25Y188
G1 X121.205Y188.768
G1 X121.069Y189.528
G1 X120.842Y190.271
G1 X120.524Y190.989
G0 X127.97Y185.024
G1 X127.748Y185.501
G1 X127.567Y185.989
G1 X127.427Y186.484
G1 X127.327Y186.986
G1 X127.267Y187.49
G1 X127.247Y187.996
G1 X127.266Y188.501
G1 X127.324Y189.002
G1 X127.421Y189.497
G1 X127.556Y189.983
G1 X127.728Y190.459
G1 X127.939Y190.922
G1 X128.186Y191.37
G1 X128.47Y191.799
G1 X128.79Y192.209
G1 X129.147Y192.596
G1 X129.533Y192.953
G1 X129.942Y193.274
G1 X130.371Y193.559
G1 X130.818Y193.807
G1 X131.28Y194.018
G1 X131.756Y194.192
G1 X132.242Y194.328
G1 X132.737Y194.426
G1 X133.238Y194.485
G1 X133.742Y194.505
G1 X134.248Y194.486
G1 X134.753Y194.427
G1 X135.255Y194.328
G1 X135.751Y194.189
G1 X136.239Y194.009
G1 X136.716Y193.788
G0 X136.716Y193.788
G1 X136.734
G0 X136.716Y193.77
G1 X138.748Y195.802
G0 X138.748Y195.802
G1 X139.058Y196.054
G1 X139.403Y196.235
G1 X139.769Y196.343
G1 X140.147Y196.379
G1 X140.525Y196.342
G1 X140.891Y196.233
G1 X141.235Y196.052
G1 X141.545Y195.799
G1 X141.798Y195.489
G1 X141.979Y195.145
G1 X142.088Y194.778
G1 X142.125Y194.401
G1 X142.089Y194.023
G1 X141.981Y193.656
G1 X141.8Y193.312
G1 X141.548Y193.002
G0 X141.548Y193.002
G1 X139.524Y190.978
G0 X139.524Y190.989
G1 X139.842Y190.271
G1 X140.069Y189.528
G1 X140.205Y188.768
G1 X140.25Y188
G1 X140.204Y187.232
G1 X140.067Y186.472
G1 X139.84Y185.729
G1 X139.521Y185.012
G0 X139.521Y185.012
G1 X139.538
G0 X139.538Y185.012
G1 X140.848Y183.702
G0 X140.848Y183.702
G1 X141.1Y183.391
G1 X141.281Y183.047
G1 X141.389Y182.68
G1 X141.424Y182.303
G1 X141.388Y181.925
G1 X141.279Y181.559
G1 X141.098Y181.215
G1 X140.844Y180.905
G1 X140.534Y180.652
G1 X140.191Y180.47
G1 X139.824Y180.362
G1 X139.447Y180.325
G1 X139.069Y180.361
G1 X138.703Y180.469
G1 X138.358Y180.649
G1 X138.048Y180.902
G0 X138.048Y180.902
G1 X136.736Y182.214
G0 X136.736Y182.214
G1 Y182.229
G0 X136.736Y182.229
G1 X136.022Y181.912
G1 X135.283Y181.685
G1 X134.528Y181.549
G1 X133.764Y181.502
G1 X133Y181.545
G1 X132.244Y181.678
G1 X131.505Y181.901
G1 X130.789Y182.214
G0 X130.789Y182.214
G1 X130.76
G0 X130.76Y182.214
G1 X128.748Y180.202
G0 X128.748Y180.202
G1 X128.437Y179.948
G1 X128.093Y179.767
G1 X127.726Y179.658
G1 X127.348Y179.622
G1 X126.97Y179.658
G1 X126.603Y179.767
G1 X126.258Y179.948
G1 X125.948Y180.202
G1 X125.694Y180.512
G1 X125.513Y180.857
G1 X125.404Y181.223
G1 X125.368Y181.602
G1 X125.404Y181.98
G1 X125.513Y182.347
G1 X125.694Y182.691
G1 X125.948Y183.002
G0 X125.948Y183.002
G0 X125.948Y183.002
G1 X127.97Y185.024
G0 X127.97Y185.024
G0 X130.769Y182.224
G0 X144.948Y183.002
G1 X144.694Y182.691
G1 X144.513Y182.347
G1 X144.404Y181.98
G1 X144.368Y181.602
G1 X144.404Y181.223
G1 X144.513Y180.857
G1 X144.694Y180.512
G1 X144.948Y180.202
G1 X145.258Y179.948
G1 X145.603Y179.767
G1 X145.97Y179.658
G1 X146.348Y179.622
G1 X146.726Y179.658
G1 X147.093Y179.767
G1 X147.437Y179.948
G1 X147.748Y180.202
G0 X147.748Y180.202
G1 X149.76Y182.214
G0 X149.76Y182.214
G1 X149.789
G0 X149.769Y182.223
G0 X144.948Y183.002
G0 X144.948Y183.002
G1 X146.97Y185.024
G0 X146.97Y185.024
G1 X146.748Y185.501
G1 X146.567Y185.989
G1 X146.427Y186.484
G1 X146.327Y186.986
G1 X146.267Y187.49
G1 X146.247Y187.996
G1 X146.266Y188.501
G1 X146.324Y189.002
G1 X146.421Y189.497
G1 X146.556Y189.983
G1 X146.728Y190.459
G1 X146.939Y190.922
G1 X147.186Y191.37
G1 X147.47Y191.799
G1 X147.79Y192.209
G1 X148.147Y192.596
G1 X148.533Y192.953
G1 X148.942Y193.274
G1 X149.371Y193.559
G1 X149.818Y193.807
G1 X150.28Y194.018
G1 X150.756Y194.192
G1 X151.242Y194.328
G1 X151.737Y194.426
G1 X152.238Y194.485
G1 X152.742Y194.505
G1 X153.248Y194.486
G1 X153.753Y194.427
G1 X154.255Y194.328
G1 X154.751Y194.189
G1 X155.239Y194.009
G1 X155.716Y193.788
G0 X155.716Y193.788
G1 X155.734
G0 X155.716Y193.77
G1 X157.748Y195.802
G0 X157.748Y195.802
G1 X158.058Y196.054
G1 X158.403Y196.235
G1 X158.769Y196.343
G1 X159.147Y196.379
G1 X159.525Y196.342
G1 X159.891Y196.233
G1 X160.235Y196.052
G1 X160.545Y195.799
G1 X160.798Y195.489
G1 X160.979Y195.145
G1 X161.088Y194.778
G1 X161.125Y194.401
G1 X161.089Y194.023
G1 X160.981Y193.656
G1 X160.8Y193.312
G1 X160.548Y193.002
G0 X160.548Y193.002
G1 X158.524Y190.978
G0 X158.524Y190.989
G1 X158.842Y190.271
G1 X159.069Y189.528
G1 X159.205Y188.768
G1 X159.25Y188
G1 X159.204Y187.232
G1 X159.067Y186.472
G1 X158.84Y185.729
G1 X158.521Y185.012
G0 X158.521Y185.012
G1 X158.538
G0 X158.538Y185.012
G1 X159.848Y183.702
G0 X159.848Y183.702
G1 X160.1Y183.391
G1 X160.281Y183.047
G1 X160.389Y182.68
G1 X160.424Y182.303
G1 X160.388Y181.925
G1 X160.279Y181.559
G1 X160.098Y181.215
G1 X159.844Y180.905
G1 X159.534Y180.652
G1 X159.191Y180.47
G1 X158.824Y180.362
G1 X158.447Y180.325
G1 X158.069Y180.361
G1 X157.703Y180.469
G1 X157.358Y180.649
G1 X157.048Y180.902
G0 X157.048Y180.902
G1 X155.736Y182.214
G0 X155.736Y182.214
G1 Y182.229
G0 X155.736Y182.229
G1 X155.022Y181.912
G1 X154.283Y181.685
G1 X153.528Y181.549
G1 X152.764Y181.502
G1 X152Y181.545
G1 X151.244Y181.678
G1 X150.505Y181.901
G1 X149.789Y182.214
G0 X146.97Y185.024
G0 X163.948Y183.002
G1 X165.97Y185.024
G0 X165.97Y185.024
G1 X165.748Y185.501
G1 X165.567Y185.989
G1 X165.427Y186.484
G1 X165.327Y186.986
G1 X165.267Y187.49
G1 X165.247Y187.996
G1 X165.266Y188.501
G1 X165.324Y189.002
G1 X165.421Y189.497
G1 X165.556Y189.983
G1 X165.728Y190.459
G1 X165.939Y190.922
G1 X166.186Y191.37
G1 X166.47Y191.799
G1 X166.79Y192.209
G1 X167.147Y192.596
G1 X167.533Y192.953
G1 X167.942Y193.274
G1 X168.371Y193.559
G1 X168.818Y193.807
G1 X169.28Y194.018
G1 X169.756Y194.192
G1 X170.242Y194.328
G1 X170.737Y194.426
G1 X171.238Y194.485
G1 X171.742Y194.505
G1 X172.248Y194.486
G1 X172.753Y194.427
G1 X173.255Y194.328
G1 X173.751Y194.189
G1 X174.239Y194.009
G1 X174.716Y193.788
G0 X174.716Y193.788
G1 X174.734
G0 X174.716Y193.77
G1 X176.748Y195.802
G0 X176.748Y195.802
G1 X177.058Y196.054
G1 X177.403Y196.235
G1 X177.769Y196.343
G1 X178.147Y196.379
G1 X178.525Y196.342
G1 X178.891Y196.233
G1 X179.235Y196.052
G1 X179.545Y195.799
G1 X179.798Y195.489
G1 X179.979Y195.145
G1 X180.088Y194.778
G1 X180.125Y194.401
G1 X180.089Y194.023
G1 X179.981Y193.656
G1 X179.8Y193.312
G1 X179.548Y193.002
G0 X179.548Y193.002
G1 X177.524Y190.978
G0 X177.524Y190.989
G1 X177.842Y190.271
G1 X178.069Y189.528
G1 X178.205Y188.768
G1 X178.25Y188
G1 X178.204Y187.232
G1 X178.067Y186.472
G1 X177.84Y185.729
G1 X177.521Y185.012
G0 X177.521Y185.012
G1 X177.538
G0 X177.538Y185.012
G1 X178.848Y183.702
G0 X178.848Y183.702
G1 X179.1Y183.391
G1 X179.281Y183.047
G1 X179.389Y182.68
G1 X179.424Y182.303
G1 X179.388Y181.925
G1 X179.279Y181.559
G1 X179.098Y181.215
G1 X178.844Y180.905
G1 X178.534Y180.652
G1 X178.191Y180.47
G1 X177.824Y180.362
G1 X177.447Y180.325
G1 X177.069Y180.361
G1 X176.703Y180.469
G1 X176.358Y180.649
G1 X176.048Y180.902
G0 X176.048Y180.902
G1 X174.736Y182.214
G0 X174.736Y182.214
G1 Y182.229
G0 X174.736Y182.229
G1 X174.022Y181.912
G1 X173.283Y181.685
G1 X172.528Y181.549
G1 X171.764Y181.502
G1 X171Y181.545
G1 X170.244Y181.678
G1 X169.505Y181.901
G1 X168.789Y182.214
G0 X168.789Y182.214
G1 X168.76
G0 X168.76Y182.214
G1 X166.748Y180.202
G0 X166.748Y180.202
G1 X166.437Y179.948
G1 X166.093Y179.767
G1 X165.726Y179.658
G1 X165.348Y179.622
G1 X164.97Y179.658
G1 X164.603Y179.767
G1 X164.258Y179.948
G1 X163.948Y180.202
G1 X163.694Y180.512
G1 X163.513Y180.857
G1 X163.404Y181.223
G1 X163.368Y181.602
G1 X163.404Y181.98
G1 X163.513Y182.347
G1 X163.694Y182.691
G1 X163.948Y183.002
G0 X163.948Y183.002
G0 X165.97Y185.024
G0 X168.769Y182.224
G0 X167.248Y176.802
G1 X167.558Y177.054
G1 X167.903Y177.235
G1 X168.269Y177.343
G1 X168.647Y177.379
G1 X169.025Y177.342
G1 X169.391Y177.233
G1 X169.735Y177.052
G1 X170.045Y176.799
G1 X170.298Y176.489
G1 X170.479Y176.145
G1 X170.588Y175.778
G1 X170.625Y175.401
G1 X170.589Y175.023
G1 X170.481Y174.656
G1 X170.3Y174.312
G1 X170.048Y174.002
G0 X170.048Y174.002
G1 X168.024Y171.978
G0 X168.024Y171.989
G1 X168.342Y171.271
G1 X168.569Y170.528
G1 X168.705Y169.768
G1 X168.75Y169
G1 X168.704Y168.232
G1 X168.567Y167.472
G1 X168.34Y166.729
G1 X168.021Y166.012
G0 X168.021Y166.012
G1 X168.038
G0 X168.038Y166.012
G1 X169.348Y164.702
G0 X169.348Y164.702
G1 X169.6Y164.391
G1 X169.78Y164.047
G1 X169.888Y163.68
G1 X169.924Y163.303
G1 X169.887Y162.925
G1 X169.778Y162.559
G1 X169.597Y162.215
G1 X169.344Y161.905
G1 X169.034Y161.652
G1 X168.69Y161.471
G1 X168.324Y161.362
G1 X167.947Y161.325
G1 X167.569Y161.361
G1 X167.203Y161.469
G1 X166.858Y161.649
G1 X166.548Y161.902
G0 X166.548Y161.902
G1 X165.236Y163.214
G0 X165.236Y163.214
G1 Y163.229
G0 X165.236Y163.229
G1 X164.522Y162.912
G1 X163.783Y162.685
G1 X163.028Y162.549
G1 X162.264Y162.502
G1 X161.5Y162.545
G1 X160.744Y162.678
G1 X160.005Y162.901
G1 X159.289Y163.214
G0 X159.289Y163.214
G1 X159.26
G0 X159.26Y163.214
G1 X157.248Y161.202
G0 X157.248Y161.202
G1 X156.937Y160.948
G1 X156.593Y160.767
G1 X156.226Y160.658
G1 X155.848Y160.622
G1 X155.47Y160.658
G1 X155.103Y160.767
G1 X154.758Y160.948
G1 X154.448Y161.202
G1 X154.194Y161.512
G1 X154.013Y161.857
G1 X153.904Y162.223
G1 X153.868Y162.602
G1 X153.904Y162.98
G1 X154.013Y163.347
G1 X154.194Y163.691
G1 X154.448Y164.002
G0 X154.448Y164.002
G0 X154.448Y164.002
G1 X156.47Y166.024
G0 X156.47Y166.024
G1 X156.248Y166.501
G1 X156.067Y166.989
G1 X155.927Y167.484
G1 X155.827Y167.986
G1 X155.767Y168.49
G1 X155.747Y168.996
G1 X155.766Y169.501
G1 X155.824Y170.002
G1 X155.921Y170.497
G1 X156.056Y170.983
G1 X156.228Y171.459
G1 X156.439Y171.922
G1 X156.686Y172.37
G1 X156.97Y172.799
G1 X157.29Y173.209
G1 X157.647Y173.596
G1 X158.033Y173.953
G1 X158.442Y174.274
G1 X158.871Y174.559
G1 X159.318Y174.807
G1 X159.78Y175.018
G1 X160.256Y175.192
G1 X160.742Y175.328
G1 X161.237Y175.426
G1 X161.738Y175.485
G1 X162.242Y175.505
G1 X162.748Y175.486
G1 X163.253Y175.427
G1 X163.755Y175.328
G1 X164.251Y175.189
G1 X164.739Y175.009
G1 X165.216Y174.788
G0 X165.216Y174.788
G1 X165.234
G0 X165.216Y174.77
G1 X167.248Y176.802
G0 X184.216Y174.788
G1 X183.739Y175.009
G1 X183.251Y175.189
G1 X182.755Y175.328
G1 X182.253Y175.427
G1 X181.748Y175.486
G1 X181.242Y175.505
G1 X180.738Y175.485
G1 X180.237Y175.426
G1 X179.742Y175.328
G1 X179.256Y175.192
G1 X178.78Y175.018
G1 X178.318Y174.807
G1 X177.871Y174.559
G1 X177.442Y174.274
G1 X177.033Y173.953
G1 X176.647Y173.596
G1 X176.29Y173.209
G1 X175.97Y172.799
G1 X175.686Y172.37
G1 X175.439Y171.922
G1 X175.228Y171.459
G1 X175.056Y170.983
G1 X174.921Y170.497
G1 X174.824Y170.002
G1 X174.766Y169.501
G1 X174.747Y168.996
G1 X174.767Y168.49
G1 X174.827Y167.986
G1 X174.927Y167.484
G1 X175.067Y166.989
G1 X175.248Y166.501
G1 X175.47Y166.024
G0 X175.47Y166.024
G1 X173.448Y164.002
G0 X173.448Y164.002
G0 X173.448Y164.002
G1 X173.194Y163.691
G1 X173.013Y163.347
G1 X172.904Y162.98
G1 X172.868Y162.602
G1 X172.904Y162.223
G1 X173.013Y161.857
G1 X173.194Y161.512
G1 X173.448Y161.202
G1 X173.758Y160.948
G1 X174.103Y160.767
G1 X174.47Y160.658
G1 X174.848Y160.622
G1 X175.226Y160.658
G1 X175.593Y160.767
G1 X175.937Y160.948
G1 X176.248Y161.202
G0 X176.248Y161.202
G1 X178.26Y163.214
G0 X178.26Y163.214
G1 X178.289
G0 X178.269Y163.223
G0 X175.47Y166.024
G0 X184.236Y163.229
G1 Y163.214
G0 X184.236Y163.214
G1 X185.548Y161.902
G0 X185.548Y161.902
G1 X185.858Y161.649
G1 X186.203Y161.469
G1 X186.569Y161.361
G1 X186.947Y161.325
G1 X187.324Y161.362
G1 X187.69Y161.471
G1 X188.034Y161.652
G1 X188.344Y161.905
G1 X188.597Y162.215
G1 X188.778Y162.559
G1 X188.887Y162.925
G1 X188.924Y163.303
G1 X188.888Y163.68
G1 X188.78Y164.047
G1 X188.6Y164.391
G1 X188.348Y164.702
G0 X188.348Y164.702
G1 X187.038Y166.012
G0 X187.038Y166.012
G1 X187.021
G0 X187.021Y166.012
G1 X187.34Y166.729
G1 X187.567Y167.472
G1 X187.704Y168.232
G1 X187.75Y169
G1 X187.705Y169.768
G1 X187.569Y170.528
G1 X187.342Y171.271
G1 X187.024Y171.989
G0 X187.024Y171.978
G1 X189.048Y174.002
G0 X189.048Y174.002
G1 X189.3Y174.312
G1 X189.481Y174.656
G1 X189.589Y175.023
G1 X189.625Y175.401
G1 X189.588Y175.778
G1 X189.479Y176.145
G1 X189.298Y176.489
G1 X189.045Y176.799
G1 X188.735Y177.052
G1 X188.391Y177.233
G1 X188.025Y177.342
G1 X187.647Y177.379
G1 X187.269Y177.343
G1 X186.903Y177.235
G1 X186.558Y177.054
G1 X186.248Y176.802
G0 X186.248Y176.802
G1 X184.216Y174.77
G0 X184.216Y174.788
G1 X184.234
G0 X185.748Y180.202
G1 X185.437Y179.948
G1 X185.093Y179.767
G1 X184.726Y179.658
G1 X184.348Y179.622
G1 X183.97Y179.658
G1 X183.603Y179.767
G1 X183.258Y179.948
G1 X182.948Y180.202
G1 X182.694Y180.512
G1 X182.513Y180.857
G1 X182.404Y181.223
G1 X182.368Y181.602
G1 X182.404Y181.98
G1 X182.513Y182.347
G1 X182.694Y182.691
G1 X182.948Y183.002
G0 X182.948Y183.002
G0 X182.948Y183.002
G1 X184.97Y185.024
G0 X184.97Y185.024
G1 X184.748Y185.501
G1 X184.567Y185.989
G1 X184.427Y186.484
G1 X184.327Y186.986
G1 X184.267Y187.49
G1 X184.247Y187.996
G1 X184.266Y188.501
G1 X184.324Y189.002
G1 X184.421Y189.497
G1 X184.556Y189.983
G1 X184.728Y190.459
G1 X184.939Y190.922
G1 X185.186Y191.37
G1 X185.47Y191.799
G1 X185.79Y192.209
G1 X186.147Y192.596
G1 X186.533Y192.953
G1 X186.942Y193.274
G1 X187.371Y193.559
G1 X187.818Y193.807
G1 X188.28Y194.018
G1 X188.756Y194.192
G1 X189.242Y194.328
G1 X189.737Y194.426
G1 X190.238Y194.485
G1 X190.742Y194.505
G1 X191.248Y194.486
G1 X191.753Y194.427
G1 X192.255Y194.328
G1 X192.751Y194.189
G1 X193.239Y194.009
G1 X193.716Y193.788
G0 X193.716Y193.788
G1 X193.734
G0 X193.716Y193.77
G1 X195.748Y195.802
G0 X195.748Y195.802
G1 X196.058Y196.054
G1 X196.403Y196.235
G1 X196.769Y196.343
G1 X197.147Y196.379
G1 X197.525Y196.342
G1 X197.891Y196.233
G1 X198.235Y196.052
G1 X198.545Y195.799
G1 X198.798Y195.489
G1 X198.979Y195.145
G1 X199.088Y194.778
G1 X199.125Y194.401
G1 X199.089Y194.023
G1 X198.981Y193.656
G1 X198.8Y193.312
G1 X198.548Y193.002
G0 X198.548Y193.002
G1 X196.524Y190.978
G0 X196.524Y190.989
G1 X196.842Y190.271
G1 X197.069Y189.528
G1 X197.205Y188.768
G1 X197.25Y188
G1 X197.204Y187.232
G1 X197.067Y186.472
G1 X196.84Y185.729
G1 X196.521Y185.012
G0 X196.521Y185.012
G1 X196.538
G0 X196.538Y185.012
G1 X197.848Y183.702
G0 X197.848Y183.702
G1 X198.1Y183.391
G1 X198.281Y183.047
G1 X198.389Y182.68
G1 X198.424Y182.303
G1 X198.388Y181.925
G1 X198.279Y181.559
G1 X198.098Y181.215
G1 X197.844Y180.905
G1 X197.534Y180.652
G1 X197.191Y180.47
G1 X196.824Y180.362
G1 X196.447Y180.325
G1 X196.069Y180.361
G1 X195.703Y180.469
G1 X195.358Y180.649
G1 X195.048Y180.902
G0 X195.048Y180.902
G1 X193.736Y182.214
G0 X193.736Y182.214
G1 Y182.229
G0 X193.736Y182.229
G1 X193.022Y181.912
G1 X192.283Y181.685
G1 X191.528Y181.549
G1 X190.764Y181.502
G1 X190Y181.545
G1 X189.244Y181.678
G1 X188.505Y181.901
G1 X187.789Y182.214
G0 X187.789Y182.214
G1 X187.76
G0 X187.76Y182.214
G1 X185.748Y180.202
G0 X187.769Y182.223
G0 X184.97Y185.024
G0 X201.948Y183.002
G1 X203.97Y185.024
G0 X203.97Y185.024
G1 X203.748Y185.501
G1 X203.567Y185.989
G1 X203.427Y186.484
G1 X203.327Y186.986
G1 X203.267Y187.49
G1 X203.247Y187.996
G1 X203.266Y188.501
G1 X203.324Y189.002
G1 X203.421Y189.497
G1 X203.556Y189.983
G1 X203.728Y190.459
G1 X203.939Y190.922
G1 X204.186Y191.37
G1 X204.47Y191.799
G1 X204.79Y192.209
G1 X205.147Y192.596
G1 X205.533Y192.953
G1 X205.942Y193.274
G1 X206.371Y193.559
G1 X206.818Y193.807
G1 X207.28Y194.018
G1 X207.756Y194.192
G1 X208.242Y194.328
G1 X208.737Y194.426
G1 X209.238Y194.485
G1 X209.742Y194.505
G1 X210.248Y194.486
G1 X210.753Y194.427
G1 X211.255Y194.328
G1 X211.751Y194.189
G1 X212.239Y194.009
G1 X212.716Y193.788
G0 X212.716Y193.788
G1 X212.734
G0 X212.716Y193.77
G1 X214.748Y195.802
G0 X214.748Y195.802
G1 X215.058Y196.054
G1 X215.403Y196.235
G1 X215.769Y196.343
G1 X216.147Y196.379
G1 X216.525Y196.342
G1 X216.891Y196.233
G1 X217.235Y196.052
G1 X217.545Y195.799
G1 X217.798Y195.489
G1 X217.979Y195.145
G1 X218.088Y194.778
G1 X218.125Y194.401
G1 X218.089Y194.023
G1 X217.981Y193.656
G1 X217.8Y193.312
G1 X217.548Y193.002
G0 X217.548Y193.002
G1 X215.524Y190.978
G0 X215.524Y190.989
G1 X215.842Y190.271
G1 X216.069Y189.528
G1 X216.205Y188.768
G1 X216.25Y188
G1 X216.204Y187.232
G1 X216.067Y186.472
G1 X215.84Y185.729
G1 X215.521Y185.012
G0 X215.521Y185.012
G1 X215.538
G0 X215.538Y185.012
G1 X216.848Y183.702
G0 X216.848Y183.702
G1 X217.1Y183.391
G1 X217.281Y183.047
G1 X217.389Y182.68
G1 X217.424Y182.303
G1 X217.388Y181.925
G1 X217.279Y181.559
G1 X217.098Y181.215
G1 X216.844Y180.905
G1 X216.534Y180.652
G1 X216.191Y180.47
G1 X215.824Y180.362
G1 X215.447Y180.325
G1 X215.069Y180.361
G1 X214.703Y180.469
G1 X214.358Y180.649
G1 X214.048Y180.902
G0 X214.048Y180.902
G1 X212.736Y182.214
G0 X212.736Y182.214
G1 Y182.229
G0 X212.736Y182.229
G1 X212.022Y181.912
G1 X211.283Y181.685
G1 X210.528Y181.549
G1 X209.764Y181.502
G1 X209Y181.545
G1 X208.244Y181.678
G1 X207.505Y181.901
G1 X206.789Y182.214
G0 X206.789Y182.214
G1 X206.76
G0 X206.76Y182.214
G1 X204.748Y180.202
G0 X204.748Y180.202
G1 X204.437Y179.948
G1 X204.093Y179.767
G1 X203.726Y179.658
G1 X203.348Y179.622
G1 X202.97Y179.658
G1 X202.603Y179.767
G1 X202.258Y179.948
G1 X201.948Y180.202
G1 X201.694Y180.512
G1 X201.513Y180.857
G1 X201.404Y181.223
G1 X201.368Y181.602
G1 X201.404Y181.98
G1 X201.513Y182.347
G1 X201.694Y182.691
G1 X201.948Y183.002
G0 X201.948Y183.002
G0 X203.97Y185.024
G0 X206.769Y182.224
G0 X205.248Y176.802
G1 X205.558Y177.054
G1 X205.903Y177.235
G1 X206.269Y177.343
G1 X206.647Y177.379
G1 X207.025Y177.342
G1 X207.391Y177.233
G1 X207.735Y177.052
G1 X208.045Y176.799
G1 X208.298Y176.489
G1 X208.479Y176.145
G1 X208.588Y175.778
G1 X208.625Y175.401
G1 X208.589Y175.023
G1 X208.481Y174.656
G1 X208.3Y174.312
G1 X208.048Y174.002
G0 X208.048Y174.002
G1 X206.024Y171.978
G0 X206.024Y171.989
G1 X206.342Y171.271
G1 X206.569Y170.528
G1 X206.705Y169.768
G1 X206.75Y169
G1 X206.704Y168.232
G1 X206.567Y167.472
G1 X206.34Y166.729
G1 X206.021Y166.012
G0 X206.021Y166.012
G1 X206.038
G0 X206.038Y166.012
G1 X207.348Y164.702
G0 X207.348Y164.702
G1 X207.6Y164.391
G1 X207.78Y164.047
G1 X207.888Y163.68
G1 X207.924Y163.303
G1 X207.887Y162.925
G1 X207.778Y162.559
G1 X207.597Y162.215
G1 X207.344Y161.905
G1 X207.034Y161.652
G1 X206.69Y161.471
G1 X206.324Y161.362
G1 X205.947Y161.325
G1 X205.569Y161.361
G1 X205.203Y161.469
G1 X204.858Y161.649
G1 X204.548Y161.902
G0 X204.548Y161.902
G1 X203.236Y163.214
G0 X203.236Y163.214
G1 Y163.229
G0 X203.236Y163.229
G1 X202.522Y162.912
G1 X201.783Y162.685
G1 X201.028Y162.549
G1 X200.264Y162.502
G1 X199.5Y162.545
G1 X198.744Y162.678
G1 X198.005Y162.901
G1 X197.289Y163.214
G0 X197.289Y163.214
G1 X197.26
G0 X197.26Y163.214
G1 X195.248Y161.202
G0 X195.248Y161.202
G1 X194.937Y160.948
G1 X194.593Y160.767
G1 X194.226Y160.658
G1 X193.848Y160.622
G1 X193.47Y160.658
G1 X193.103Y160.767
G1 X192.758Y160.948
G1 X192.448Y161.202
G1 X192.194Y161.512
G1 X192.013Y161.857
G1 X191.904Y162.223
G1 X191.868Y162.602
G1 X191.904Y162.98
G1 X192.013Y163.347
G1 X192.194Y163.691
G1 X192.448Y164.002
G0 X192.448Y164.002
G0 X192.448Y164.002
G1 X194.47Y166.024
G0 X194.47Y166.024
G1 X194.248Y166.501
G1 X194.067Y166.989
G1 X193.927Y167.484
G1 X193.827Y167.986
G1 X193.767Y168.49
G1 X193.747Y168.996
G1 X193.766Y169.501
G1 X193.824Y170.002
G1 X193.921Y170.497
G1 X194.056Y170.983
G1 X194.228Y171.459
G1 X194.439Y171.922
G1 X194.686Y172.37
G1 X194.97Y172.799
G1 X195.29Y173.209
G1 X195.647Y173.596
G1 X196.033Y173.953
G1 X196.442Y174.274
G1 X196.871Y174.559
G1 X197.318Y174.807
G1 X197.78Y175.018
G1 X198.256Y175.192
G1 X198.742Y175.328
G1 X199.237Y175.426
G1 X199.738Y175.485
G1 X200.242Y175.505
G1 X200.748Y175.486
G1 X201.253Y175.427
G1 X201.755Y175.328
G1 X202.251Y175.189
G1 X202.739Y175.009
G1 X203.216Y174.788
G0 X203.216Y174.788
G1 X203.234
G0 X203.216Y174.77
G1 X205.248Y176.802
G0 X194.47Y166.024
G0 X197.269Y163.224
G0 X200.498Y157.802
G1 X200.808Y158.054
G1 X201.153Y158.234
G1 X201.519Y158.342
G1 X201.897Y158.378
G1 X202.274Y158.341
G1 X202.64Y158.232
G1 X202.984Y158.051
G1 X203.294Y157.798
G1 X203.547Y157.488
G1 X203.728Y157.144
G1 X203.837Y156.778
G1 X203.874Y156.4
G1 X203.838Y156.023
G1 X203.73Y155.656
G1 X203.55Y155.312
G1 X203.298Y155.002
G0 X203.298Y155.002
G1 X201.274Y152.978
G0 X201.274Y152.989
G1 X201.592Y152.271
G1 X201.819Y151.528
G1 X201.955Y150.768
G1 X202Y150
G1 X201.954Y149.232
G1 X201.817Y148.472
G1 X201.59Y147.729
G1 X201.271Y147.012
G0 X201.271Y147.012
G1 X201.288
G0 X201.288Y147.012
G1 X202.598Y145.702
G0 X202.598Y145.702
G1 X202.85Y145.391
G1 X203.03Y145.047
G1 X203.138Y144.68
G1 X203.174Y144.303
G1 X203.137Y143.925
G1 X203.028Y143.559
G1 X202.847Y143.215
G1 X202.594Y142.905
G1 X202.284Y142.652
G1 X201.94Y142.471
G1 X201.574Y142.362
G1 X201.197Y142.325
G1 X200.819Y142.361
G1 X200.453Y142.469
G1 X200.108Y142.649
G1 X199.798Y142.902
G0 X199.798Y142.902
G1 X198.486Y144.214
G0 X198.486Y144.214
G1 Y144.229
G0 X198.486Y144.229
G1 X197.772Y143.912
G1 X197.033Y143.685
G1 X196.278Y143.549
G1 X195.514Y143.502
G1 X194.75Y143.545
G1 X193.994Y143.678
G1 X193.255Y143.901
G1 X192.539Y144.214
G0 X192.539Y144.214
G1 X192.51
G0 X192.51Y144.214
G1 X190.498Y142.202
G0 X190.498Y142.202
G1 X190.187Y141.948
G1 X189.843Y141.767
G1 X189.476Y141.658
G1 X189.098Y141.622
G1 X188.72Y141.658
G1 X188.353Y141.767
G1 X188.008Y141.948
G1 X187.698Y142.202
G1 X187.444Y142.512
G1 X187.263Y142.857
G1 X187.154Y143.223
G1 X187.118Y143.602
G1 X187.154Y143.98
G1 X187.263Y144.347
G1 X187.444Y144.691
G1 X187.698Y145.002
G0 X187.698Y145.002
G0 X187.698Y145.002
G1 X189.72Y147.024
G0 X189.72Y147.024
G1 X189.498Y147.501
G1 X189.317Y147.989
G1 X189.177Y148.484
G1 X189.077Y148.986
G1 X189.017Y149.49
G1 X188.997Y149.996
G1 X189.016Y150.501
G1 X189.074Y151.002
G1 X189.171Y151.497
G1 X189.306Y151.983
G1 X189.478Y152.459
G1 X189.689Y152.922
G1 X189.936Y153.37
G1 X190.22Y153.799
G1 X190.54Y154.209
G1 X190.897Y154.596
G1 X191.283Y154.953
G1 X191.692Y155.274
G1 X192.121Y155.559
G1 X192.568Y155.807
G1 X193.03Y156.018
G1 X193.506Y156.192
G1 X193.992Y156.328
G1 X194.487Y156.426
G1 X194.988Y156.485
G1 X195.492Y156.505
G1 X195.998Y156.486
G1 X196.503Y156.427
G1 X197.005Y156.328
G1 X197.501Y156.189
G1 X197.989Y156.009
G1 X198.466Y155.788
G0 X198.466Y155.788
G1 X198.484
G0 X198.466Y155.77
G1 X200.498Y157.802
G0 X184.298Y155.002
G1 X184.55Y155.312
G1 X184.73Y155.656
G1 X184.838Y156.023
G1 X184.874Y156.4
G1 X184.837Y156.778
G1 X184.728Y157.144
G1 X184.547Y157.488
G1 X184.294Y157.798
G1 X183.984Y158.051
G1 X183.64Y158.232
G1 X183.274Y158.341
G1 X182.897Y158.378
G1 X182.519Y158.342
G1 X182.153Y158.234
G1 X181.808Y158.054
G1 X181.498Y157.802
G0 X181.498Y157.802
G1 X179.466Y155.77
G0 X179.466Y155.788
G1 X178.989Y156.009
G1 X178.501Y156.189
G1 X178.005Y156.328
G1 X177.503Y156.427
G1 X176.998Y156.486
G1 X176.492Y156.505
G1 X175.988Y156.485
G1 X175.487Y156.426
G1 X174.992Y156.328
G1 X174.506Y156.192
G1 X174.03Y156.018
G1 X173.568Y155.807
G1 X173.121Y155.559
G1 X172.692Y155.274
G1 X172.283Y154.953
G1 X171.897Y154.596
G1 X171.54Y154.209
G1 X171.22Y153.799
G1 X170.936Y153.37
G1 X170.689Y152.922
G1 X170.478Y152.459
G1 X170.306Y151.983
G1 X170.171Y151.497
G1 X170.074Y151.002
G1 X170.016Y150.501
G1 X169.997Y149.996
G1 X170.017Y149.49
G1 X170.077Y148.986
G1 X170.177Y148.484
G1 X170.317Y147.989
G1 X170.498Y147.501
G1 X170.72Y147.024
G0 X170.72Y147.024
G0 X170.72Y147.024
G1 X168.698Y145.002
G0 X168.698Y145.002
G0 X168.698Y145.002
G1 X168.444Y144.691
G1 X168.263Y144.347
G1 X168.154Y143.98
G1 X168.118Y143.602
G1 X168.154Y143.223
G1 X168.263Y142.857
G1 X168.444Y142.512
G1 X168.698Y142.202
G1 X169.008Y141.948
G1 X169.353Y141.767
G1 X169.72Y141.658
G1 X170.098Y141.622
G1 X170.476Y141.658
G1 X170.843Y141.767
G1 X171.187Y141.948
G1 X171.498Y142.202
G0 X171.498Y142.202
G1 X173.51Y144.214
G0 X173.51Y144.214
G1 X173.539
G0 X173.519Y144.223
G0 X179.486Y144.229
G1 Y144.214
G0 X179.486Y144.214
G1 X180.798Y142.902
G0 X180.798Y142.902
G1 X181.108Y142.649
G1 X181.453Y142.469
G1 X181.819Y142.361
G1 X182.197Y142.325
G1 X182.574Y142.362
G1 X182.94Y142.471
G1 X183.284Y142.652
G1 X183.594Y142.905
G1 X183.847Y143.215
G1 X184.028Y143.559
G1 X184.137Y143.925
G1 X184.174Y144.303
G1 X184.138Y144.68
G1 X184.03Y145.047
G1 X183.85Y145.391
G1 X183.598Y145.702
G0 X183.598Y145.702
G1 X182.288Y147.012
G0 X182.288Y147.012
G1 X182.271
G0 X182.271Y147.012
G1 X182.59Y147.729
G1 X182.817Y148.472
G1 X182.954Y149.232
G1 X183Y150
G1 X182.955Y150.768
G1 X182.819Y151.528
G1 X182.592Y152.271
G1 X182.274Y152.989
G0 X182.274Y152.978
G1 X184.298Y155.002
G0 X179.484Y155.788
G1 X179.466
G0 X178.289Y163.214
G1 X179.005Y162.901
G1 X179.744Y162.678
G1 X180.5Y162.545
G1 X181.264Y162.502
G1 X182.028Y162.549
G1 X182.783Y162.685
G1 X183.522Y162.912
G1 X184.236Y163.229
G0 X189.72Y147.024
G0 X192.519Y144.224
G0 X179.486Y144.229
G1 X178.772Y143.912
G1 X178.033Y143.685
G1 X177.278Y143.549
G1 X176.514Y143.502
G1 X175.75Y143.545
G1 X174.994Y143.678
G1 X174.255Y143.901
G1 X173.539Y144.214
G0 X159.269Y163.223
G0 X156.47Y166.024
G0 X226.25Y167
G1 X225.948Y167.03
G1 X225.666Y167.118
G1 X225.411Y167.256
G1 X225.189Y167.439
G1 X225.006Y167.661
G1 X224.868Y167.916
G1 X224.78Y168.198
G1 X224.75Y168.5
G1 X224.78Y168.802
G1 X224.868Y169.084
G1 X225.006Y169.339
G1 X225.189Y169.561
G1 X225.411Y169.744
G1 X225.666Y169.882
G1 X225.948Y169.97
G1 X226.25Y170
G0 X226.25Y170
G1 X228.25
G0 X228.25Y170
G1 X228.552Y169.97
G1 X228.834Y169.882
G1 X229.089Y169.744
G1 X229.311Y169.561
G1 X229.494Y169.339
G1 X229.632Y169.084
G1 X229.72Y168.802
G1 X229.75Y168.5
G1 X229.72Y168.198
G1 X229.632Y167.916
G1 X229.494Y167.661
G1 X229.311Y167.439
G1 X229.089Y167.256
G1 X228.834Y167.118
G1 X228.552Y167.03
G1 X228.25Y167
G0 X228.25Y167
G1 X226.25
G0 X226.25Y113
G1 X225.948Y112.97
G1 X225.666Y112.882
G1 X225.411Y112.744
G1 X225.189Y112.561
G1 X225.006Y112.339
G1 X224.868Y112.084
G1 X224.78Y111.802
G1 X224.75Y111.5
G1 X224.78Y111.198
G1 X224.868Y110.916
G1 X225.006Y110.661
G1 X225.189Y110.439
G1 X225.411Y110.256
G1 X225.666Y110.118
G1 X225.948Y110.03
G1 X226.25Y110
G0 X226.25Y110
G1 X228.25
G0 X228.25Y110
G1 X228.552Y110.03
G1 X228.834Y110.118
G1 X229.089Y110.256
G1 X229.311Y110.439
G1 X229.494Y110.661
G1 X229.632Y110.916
G1 X229.72Y111.198
G1 X229.75Y111.5
G1 X229.72Y111.802
G1 X229.632Y112.084
G1 X229.494Y112.339
G1 X229.311Y112.561
G1 X229.089Y112.744
G1 X228.834Y112.882
G1 X228.552Y112.97
G1 X228.25Y113
G0 X228.25Y113
G1 X226.25
M9
G1 S0
M5
G90
; return to user-defined finish pos
G0 X0Y0
M2
